/* XPM */
static char *_000[] = {
/* columns rows colors chars-per-pixel */
"600 449 256 2 ",
"   c #020102",
".  c #03040A",
"X  c #0B0B0C",
"o  c #080607",
"O  c #150B0C",
"+  c #0B0B12",
"@  c #160D13",
"#  c #141414",
"$  c #16151B",
"%  c #18171C",
"&  c #1B1B1D",
"*  c #1A1716",
"=  c #0F1211",
"-  c #221D1C",
";  c #251919",
":  c #281117",
">  c #24211E",
",  c #2A221D",
"<  c #33241E",
"1  c #171520",
"2  c #191622",
"3  c #1C1A23",
"4  c #1E1D29",
"5  c #19192D",
"6  c #221D24",
"7  c #251C26",
"8  c #331C27",
"9  c #1D2225",
"0  c #1C2632",
"q  c #232223",
"w  c #2B2523",
"e  c #2D2925",
"r  c #24242A",
"t  c #2C2B2C",
"y  c #29262B",
"u  c #332C2B",
"i  c #352928",
"p  c #37312D",
"a  c #2D2C32",
"s  c #282837",
"d  c #342D35",
"f  c #333234",
"g  c #3B3433",
"h  c #34333B",
"j  c #3C3B3C",
"k  c #3A3739",
"l  c #2C3336",
"z  c #1D201E",
"x  c #433C3C",
"c  c #473838",
"v  c #4C3234",
"b  c #6F3939",
"n  c #431B28",
"m  c #48453D",
"M  c #55443C",
"N  c #71423E",
"B  c #353344",
"V  c #3C3B43",
"C  c #3D3B4B",
"Z  c #373648",
"A  c #3A3B54",
"S  c #2D2F44",
"D  c #3A3F61",
"F  c #443D45",
"G  c #413E52",
"H  c #543C45",
"J  c #6A3B48",
"K  c #3C454E",
"L  c #3D4765",
"P  c #434344",
"I  c #4B4B4C",
"U  c #494548",
"Y  c #564849",
"T  c #57534B",
"R  c #484756",
"E  c #574C54",
"W  c #4B5457",
"Q  c #545354",
"!  c #5A5659",
"~  c #4C514D",
"^  c #644B55",
"/  c #675659",
"(  c #745A5C",
")  c #6F4B4E",
"_  c #6C645B",
"`  c #484B65",
"'  c #575867",
"]  c #595C73",
"[  c #4C5468",
"{  c #685C64",
"}  c #765C64",
"|  c #6B556B",
" . c #5A6469",
".. c #5A6677",
"X. c #506D71",
"o. c #696668",
"O. c #7B6365",
"+. c #74646B",
"@. c #7C646B",
"#. c #776869",
"$. c #78736B",
"%. c #696876",
"&. c #7C6C72",
"*. c #746B76",
"=. c #797578",
"-. c #697478",
";. c #5A615E",
":. c #3B403E",
">. c #865253",
",. c #875667",
"<. c #83656B",
"1. c #856A6D",
"2. c #8A6B6D",
"3. c #866568",
"4. c #846C73",
"5. c #8B6D73",
"6. c #876B77",
"7. c #936C75",
"8. c #847374",
"9. c #8C7275",
"0. c #8C737B",
"q. c #8C7B7C",
"w. c #84787B",
"e. c #927375",
"r. c #93757B",
"t. c #947B7C",
"y. c #99797B",
"u. c #8E6F6B",
"i. c #A57878",
"p. c #90635C",
"a. c #80403E",
"s. c #7B817D",
"d. c #8F857A",
"f. c #A8867D",
"g. c #646C87",
"h. c #67748A",
"j. c #7A7786",
"k. c #687695",
"l. c #757088",
"z. c #5E6E8A",
"x. c #877B84",
"c. c #947C82",
"v. c #9B7D83",
"b. c #967985",
"n. c #847C94",
"m. c #A47D85",
"M. c #7A8587",
"N. c #768996",
"B. c #7B90A4",
"V. c #70A09F",
"C. c #898588",
"Z. c #9C8384",
"A. c #9C848B",
"S. c #9C8A8C",
"D. c #948689",
"F. c #8A8795",
"G. c #9C8C92",
"H. c #958C93",
"J. c #8A9697",
"K. c #9B9295",
"L. c #989698",
"P. c #93948A",
"I. c #A3858B",
"U. c #A48B8D",
"Y. c #A78689",
"T. c #A48C93",
"R. c #A88C96",
"E. c #A4949B",
"W. c #AB949B",
"Q. c #A89699",
"!. c #B3979B",
"~. c #AF8F8D",
"^. c #98A29D",
"/. c #A8A599",
"(. c #ADA58F",
"). c #879AA8",
"_. c #9999A4",
"`. c #8B99B0",
"'. c #AB9CA3",
"]. c #A79AA4",
"[. c #B39DA3",
"{. c #B79CA6",
"}. c #AB90A3",
"|. c #98A6A8",
" X c #97ABB7",
".X c #93AAB7",
"XX c #ACA2A5",
"oX c #ADA3AA",
"OX c #A7A8A8",
"+X c #B4A1A5",
"@X c #B3A4AB",
"#X c #BAA5AC",
"$X c #B7A8AB",
"%X c #BBACB3",
"&X c #B6A9B2",
"*X c #A9B6B8",
"=X c #B7B7B9",
"-X c #AAADB0",
";X c #C3ACB4",
":X c #C4B3B9",
">X c #C4A8AB",
",X c #C499A1",
"<X c #9DB4C4",
"1X c #99B0C9",
"2X c #A5BAC8",
"3X c #B4BDC4",
"4X c #A6BDD4",
"5X c #AFB2CA",
"6X c #ABBFE2",
"7X c #C5B6C3",
"8X c #B5C4C9",
"9X c #ABC5D8",
"0X c #B4CCDB",
"qX c #B6C9D6",
"wX c #B9D1DD",
"eX c #ABC2C9",
"rX c #B4CDE2",
"tX c #BBD4E3",
"yX c #BEDAE5",
"uX c #BDDBEB",
"iX c #B7D4E7",
"pX c #ADCFE7",
"aX c #A6CDE1",
"sX c #C7C7C9",
"dX c #C6D7DA",
"fX c #D7D8D9",
"gX c #C9CBD4",
"hX c #C2DDEA",
"jX c #C4DAE5",
"kX c #CEDCEA",
"lX c #C5E2ED",
"zX c #CAE3EC",
"xX c #CBE6EA",
"cX c #D6E7EB",
"vX c #CBE5F2",
"bX c #CDEAF4",
"nX c #C7E5F3",
"mX c #D2ECF5",
"MX c #D4EEF9",
"NX c #D8ECF7",
"BX c #D5F2FC",
"VX c #DBF5FD",
"CX c #DDFAFD",
"ZX c #D8F3F6",
"AX c #D3F2F0",
"SX c #E9E9E9",
"DX c #E2F4FD",
"FX c #E4FDFE",
"GX c #E9FDFE",
"HX c #E5F5F6",
"JX c #F4F4F4",
"KX c #FEFEFE",
"LX c #F5FBFB",
"PX c #E8EEF4",
"IX c #D9E0E0",
"UX c #B3C1BD",
/* pixels */
"T T _ _ _ _ 1.u.u.u.u.d.d.d.f.f.(.(.(.(.(.(.(.(.(.(.(.(.(.(.P.f.f.f.d.d.d.d.d.d.8.8.$.$.$.$.$.$.$.$.$.$.$.=.=.=.=.s.d.C.C.C.C.C.C.C.P.P.L.L.L.L.P.P.L.L.L.L.L.P.L.L.L.L.^.^.^.OXOXOX-X-X*X*X*X-X=X=XUXUXUXUXUXUXUXUXUXUXUXUXUX8X8X8X8X8X8X8X8XsX8X8XsXsXgXgXsXsXgXgXqXqXqXqXdXdXdXdXdXdXdXdXdXdXjXjXjXjXdXdXdXdXdXdXdXjXxXcXcXAXZXZXZXAXAXAXcXcXAXcXcXxXcXxXxXxXcXkXjXwXqX9X2X2X X X X X|.).J.J.C.s.$.;.T M m m M m c p u p p p g p e e e u u u p p e , , , e u e e i e e e e e u e e w w w e e 7 7 - - - w e e e i u u e w w w > w w e u p f g e e w w w w e u e u d u w w w w w w w w > - > > i i i i i u g c g p e w e u p g e k m j u q q t e e t f f k k k u t t k f e q t t f k k P Q ~ j f P ! o.o.! U j j P P j I ! Q P k f t q > q q e k P I P j P U P x g e e k m U T / U U U k p k k x x x k g g g k u u y & # = = # + = # % q t t w & - & * = = = * q t u t - # X X = # * & & & 6 q q w > > - & & & * - > & * * > w > > > & * * ; - ; > , , > ; > , w e u u u u u f f u w 6 - - - 6 & & & & & & & & & & & & & & * * & & & * * * * * * & & & 3 3 3 3 & & & & & 3 3 3 3 3 3 & & & & & & & & 3 3 & 3 3 3 & & % % $ % % & & & & & & & & % % & & & & $ $ % % % % % % % % % % % % % % % % % $ $ $ $ % & & 3 & 3 y y f j P U R ' %.-.=.j.j.",
"T T / _ _ O.$.u.u.u.u.d.d.d.f.f.(.(.(.(.(.(.(.(.(.(.(.(.(.(.f.f.f.f.f.d.d.d.d.d.8.8.$.$.$.$.$.$.$.$.$.$.$.=.=.=.=.s.s.C.d.C.C.C.C.C.P.P.L.L.L.L.P.L.L.L.L.L.L.P.J.L.L.^.^.^.|.|.OXOX-X-X*X*X*X-X*X=X=XUXUXUXUXUXUXUXUXUXUXUX8X8X8X8X8X8X8X8X8XsX8X8X8XsXsXsXsXsXgXgXgXqXqXqXdXdXdXdXdXdXdXdXdXdXjXjXjXjXdXdXdXdXdXdXdXjXxXcXcXAXZXZXZXmXAXAXAXcXAXAXcXxXcXcXxXxXcXjXjXwXqX9X2X2X<X X X X|.).J.J.C.=.o.! T T M m m c p p p p p p p p u p p p u u p u e e , e u u e e i u u u u u i e e w w w e i i e i e i e e w e u u u e e e e e e w w w e p f k g u e > > w e u u d d e w w w - w > > > w e u i i i i i i i u p p u u p p p p u f k g f t t t q q e t u f k k f e t k k t > > e t f f j I I j U k x Q o.o.Q k j j j j P I I U k g t q & * > e > t f f f j m m x k p u g k m T ! U U U x g x m x k g p p g g g f f f d w - * # = + X X # 3 q & * & & * = = = * & & w y w 6 # X X = # * # * & - & > > > - & & - & > > & * # * & - - - & * * * ; ; > , , ; - - ; - , w e e e e e f u e w 6 - 6 w & & & & & & * & & & & & & * * * & & & * * * * * * * & & 3 3 3 3 & & & & & 3 3 3 3 3 3 & & & & & & & & & 3 3 3 3 3 & & % % % % % & & & & & & & & % % & & & & $ $ $ $ $ $ $ $ $ $ $ $ $ $ $ $ $ $ % $ $ $ $ % & & 3 & 3 y y d j P U R ' o.%.-.j.j.",
"T T / _ _ _ $.u.u.d.d.d.d.d.f.f.(.(.(.(.(.(.(.(.(.(.(.(.(.(.f.f.f.f.d.d.d.d.d.d.8.8.$.$.$.$.$.$.$.$.$.$.$.=.=.=.=.s.s.d.d.C.C.C.C.P.P.P.L.L.L.L.L.L.L.L.L.L.P.P.J.L.L.^.^.^.|.|.|.OX-X-X-X*X*X*X*X*X=X=X=X=XUXUXUXUXUXUX8X8X8X8X8X8X8X8X8X8X8X8X8X8X8XsXqXqXgXqXgXgXgXgXqXqXdXdXdXdXdXdXdXdXdXdXdXdXdXdXdXdXdXdXdXdXdXxXxXcXAXAXmXmXmXmXAXAXAXAXAXAXcXcXcXcXxXxXzXjXjXwXqX9XeX2X2X<X X.X|.|.J.F.=.o.! T T M m c i p p p p p p u e p p g p p u u u u i e e u u u i i u u u u u u e e e w w e e e u u g g g d u i u u p u u u u f p u u e e u u p x k f e w w w w u u d d u u e w 7 6 - - - > w i w w i i u e , , p u u u u p p p f u u u f k f t q q q e t u f k k t t f j u q & > q e t f j P U U k k U ! o.! I x j j j j P I I m j f w & * & q * q t u f k j j x x g p u u x T T U U U m x m U U k p u p g g g p f g g g u w w 3 % + X X * - - * * * * * = = = * * & w d t & X X = # # # # * & * & q w > & & - & & - & * # # @ * * * * * * * * - , , , > ; * * * - > w w w w w u u u e w w 6 w & & & & & & * * * & & & & * * * & & & * * * * * * * & & 3 3 3 3 & & & & & 3 3 3 3 3 3 & & & & & & & & & & & & & 3 & & & % % % % & & & & & & & & % % & & & % $ $ $ $ $ $ $ $ $ $ $ $ $ $ $ $ $ $ % $ $ $ $ % & & 3 & 3 y y d j P U R ' %.%.=.j.j.",
"T T _ _ _ _ $.u.u.d.d.d.d.d.f.f.f.(.(.(.(.(.(.(.(.(.(.(.(.(.f.f.f.f.d.d.d.d.d.d.8.8.$.$.$.$.$.$.$.$.$.$.$.=.=.=.=.s.s.d.d.C.C.C.P.P.P.P.L.L.L.L.L.L.L.L.L.L.P.P.J.L.L.^.^.^.|.|.|.OX-X-X*X*X*X*X*X*X=XUX=XUXUXUXUXUX8X8X8X8X8X8X8X8X8X8X8X8X8X8X8X8X8XqXqXqXqXqXgXgXgXqXqXwXdXdXdXdXdXdXdXdXdXdXdXdXxXdXdXdXdXdXdXdXjXxXxXcXAXZXmXmXmXmXAXAXAXAXcXAXcXcXcXcXxXzXzXzXjXwX0X9XeX4X4X2X X X|._.F.j.o./ T Y Y M m c p p g g g p p u p p j j g p u u u u u u u u u u u u u u u u u u e e e e i e e u e i u g g k k g g g f f f u f f u f g k k g p u g p p u u e e w e e u u d d i e e e w - ; - ; - ; - w i u u u u p u e , w e e e f u t f k k f t e e q q e t u f k u t f k u t e > > > t t u j I U P x P ~ ! o.o.~ P j j P P U I P m g t q > > > & q t u f f f k g k g p p u g U Y U U P m x x U U m g p u p g g u e e t f g k g t y & = = * & & * * * * * * # = * * & q t t q # = # # # # # * * * & q w q & & & & & & & - & # = @ # * * * * * * - > , , , ; ; * * - w e e w w w u i u e w w 6 - & & & & & & & * * * & & & * * * & & & * * * * * * * & & 3 3 3 3 & & & & & 3 3 3 3 3 3 & & * & & & & & & & & & & 3 & & & % % % % & & & & & & & & % % & & & % $ $ $ $ $ $ $ $ $ $ $ $ $ $ $ $ $ $ % $ $ $ $ % & & & & 3 y y d j P U R ' o.%.=.j.j.",
"T T _ _ _ _ $.$.u.u.d.d.d.d.f.f.f.f.(.(.(.(.(.(.(.(.(.(.(.(.P.d.f.f.f.d.d.d.d.d.8.8.$.$.$.$.$.$.$.$.$.$.=.=.=.=.=.s.s.d.C.C.C.C.P.P.P.P.P.L.L.L.L.L.L.L.L.L.P.L.L.L.^.^.^.^.|.|.|.OX-X*X*X*X*X*X*X*X*X*X=XUX=XUX8X8X8X8X8X8X8X8X8X8X8X8X8X8X8XqX8X8X8XqXqXqXqXwXqXwXdXdXwXdXdXdXdXdXdXdXdXdXdXdXdXdXjXdXxXjXdXdXjXdXxXxXxXcXmXZXmXNXNXNXNXZXAXAXAXcXcXcXcXcXcXzXzXlXhXtX0X9X9X2X2X2X X.X|.).M.o.;.! Y Y Y M m c c c c c g g g g g k x k p u u u u u u p p p u u u u u u u e e w i i e e e e u u e e i u g g k x k g g f f u u u u u g k k g p u u u u f g p u w w w w e u d u e i u u i w - - ; - ; - , , w i u u u e e e e w > w e t f f f f u t e q q > q q e e t u k k f f u e > q e q q t j ~ P g g I / o./ o.I P U U P U I P j u t t e q * & & q e e e t e u p p p g p g x U T U U U x k m U U m g e e u g u e w w u g x F f d q & $ * * * * * * * * * = @ # * & - q q q 6 # # # # # # # * * > e e q > & & & & & - > > & # @ = * * * # # # * - , w w > - - * - w w e w w w e e e e w 6 - - & & & & & & & & * * & & & & * * & & & * * * * * * * & & 3 3 3 & & & & & & 3 3 3 3 3 3 & & * & & & & & & & & & & 3 & & & % % % % & & & & & & & & & & & & & & $ $ $ $ $ $ $ $ $ $ $ $ $ $ $ $ $ $ % $ $ $ $ % % & & & 3 r y a k P U R ' o.%.=.j.j.",
"T T _ _ _ _ O.$.u.u.d.d.d.d.f.f.f.f.(.(.(.(.(.(.(.(.(.(.(.(.P.d.(.f.f.d.d.d.d.d.8.8.$.$.$.$.$.$.$.$.$.$.=.=.=.s.=.s.d.d.C.C.C.C.P.P.P.J.P.L.L.L.L.L.L.L.L.L.L.L.L.^.^.^.^.^.|.|.|.OX-X*X*X*X*X*X*X*X*X8X8X8X8X8X8X8X8X8X8X8X8X8X8X8X8X8X8X8X8XqX8X8X8X8XqXqXqXwXqXwXdXdXdXdXdXdXdXdXdXdXxXxXjXdXdXdXjXxXxXxXjXjXjXjXxXxXxXbXmXZXMXNXNXNXNXNXZXZXAXcXcXcXcXcXcXzXbXlXhXtXwX0X9X4X2X2X X|.).F.l.' ! ! T Y M m c c c c c c c x c m x x g p u u u u u u u p p u u u u u u u e i w w u i i i e e e e e e e e i u u u f p u u u t t e e e e e e u u p u u p g k g u w 7 8 w e e i u u i u p p u i w w , - - - - ; , w w e p p g u w - & q e t u f f k t t e q > > > > & q u j j j f u u e e q > * & q j x x k x Q ! o.o.! I I I U U I U k t t u u q # * * * q q w e t e i e u g g p k U ! T U T U g x U U U k e w w u f u u u f g g g k k f t q q q & * * # * * # = = X # # # # # & q * # = = # # # # & & q q w w & * & * & > q w > * * * * * # = = # * * - , , , , > * - > > > w w w e e y w q 6 - & & & & & & & & & * * & & & & & & & & & * * * * * * * & & 3 3 3 & & & & & & 3 3 3 3 3 3 & & * & & & & & & & & & & 3 & & & % % % % & & & & & & & & % & & & & & $ $ $ $ $ $ $ $ $ $ $ $ $ $ $ $ $ $ % $ $ $ $ % % & & & 3 r y a k P I Q ' %.%.=.j.j.",
"T T T _ _ _ _ $.u.u.d.d.d.d.f.f.f.f.(.(.(.(.(.(.(.(.(.(.(.(.P.d.P.f.f.d.d.d.d.d.w.w.$.$.$.$.$.$.$.$.$.=.=.=.s.s.s.s.C.C.C.C.C.P.J.P.J.J.L.L.L.L.L.L.L.J.L.L.L.L.L.^.^.^.^.^.|.|.|.OX-X*X*X*X*X*X*X3X3X8XeX8XeXeX8X8X8X8X8X8X8X8X8X8X8X8X8X8XqXqX8X8X8X8XqXqXdXdXwXwXwXdXdXdXdXdXwXdXdXxXxXxXlXjXjXjXjXlXlXlXxXxXjXjXxXxXxXmXMXZXZXZXZXNXNXZXNXZXZXmXbXbXbXmXmXbXzXlXhXyXtX0X9XeX2X2X X).J.F.j. .! T T m c c c c c c c c c g x x k g p p p p u u u u u i e e e i e e i i i i e e i i i e e w w w w w e e e w w w q q q e t t q > w q > - - > w e t e e u f p u e i e i e w w w i i u i p u u u u i i w - - - - > > w e p p p e w q q q q e t u f f f u t t e q q & > e u f j f f u t e e q & & & w f x g f F Q ! ! ! ! Q I P I Q ~ m u t u t q & & * * > q e t u e e w w u u u k m ! T Y ! U g x m P P x p e e t p f f f f d f f k j k f f f u t q > & & & & * * # # # # X = * q & # = = # # # # * * * > q q > & & * & > > > - & & & & * = = # # * * - - > > > - - - - - - > w e e e w w 6 6 6 - & & & & & & & & * & & & & & & & & & & * * * * * * * & & 3 3 3 & & & & & & 3 3 3 3 3 3 & & * & & & & & & & 3 3 3 3 & & & % % % % & & & & & & & & % % & & & % $ $ $ $ $ $ $ $ $ $ $ $ $ $ $ $ $ $ % $ $ $ $ % & & & & 3 r y a h P R Q ' %.-.=.j.j.",
"T T T _ _ _ _ O.u.u.d.d.d.d.d.f.f.f.(.(.(.(.(.(.(.(.(.(.(.(.P.d.P.f.P.d.d.d.d.d.w.w.$.$.$.$.$.$.$.$.$.=.=.=.s.d.s.d.C.C.C.C.C.P.J.P.J.J.L.L.L.L.L.L.L.L.L.L.L.L.L.^.^.^.^.^.|.|.|.OX*X*X*X*X*X*X*X3X8XeX8X8X8XeX8X8X8X8X8X8X8X8X8X8X8X8X8X8XqXqX8X8X8X8XqXqXdXdXwXwXwXdXdXwXdXdXdXdXjXxXxXxXxXjXjXjXjXlXxXlXlXlXjXjXxXxXcXmXMXZXZXVXZXZXZXZXmXmXZXZXmXmXmXmXmXmXzXlXhXyXtX0X9XeX4X4X2X_.J.F.j.-.T T Y x g i i p c c c c g p u p p p u p p p p i u u e e w w w w w w e i u u u u e e e e w w 7 7 ; 6 w e e w - & * * & q e e q & > - > > > > - - w > - > e u u u u d d e 7 7 w e i e i i i i i i u u i w , , > , w > > > w u p g f t q & > w e e k k k g f u u t e q & & e k j f t t t t t t e q 6 w t e g I ~ I I ! ;.Q U :.I Q ! I j u t t t e > * # & > > q t u u w > w w u k k T T U ! Y p x m m m m k f u t u u d u e t f k a f f f d f f u u e , > , , > > 6 - & # = = # * 6 & # # # * * # # = = * q e q & & & & & & & & & > > & * = = # # * * * - - > - - > > > > > w e i e e w q 6 6 6 6 & & & & & & * & & & & & > > 9 & & & & * * * * * * * & & 3 3 3 3 & & & & & 3 3 3 3 3 3 & & * & & & 3 & & & 3 3 3 3 & & & % % % & & & & & & & & & % % & & & & $ $ % % % % % % % % % % % % % % % % % $ $ $ $ % & & & & 3 r y a k V R Q ' %.-.=.j.j.",
"T T T _ _ _ $.1.u.u.d.d.d.d.f.f.(.(.(.(.(.(.(.(.(.(.(.(.(.(.(.P.(.f.f.f.d.d.d.d.=.$.$.$.$.$.$.$.$.$.=.=.=.=.s.s.s.d.C.C.C.C.C.J.J.P.P.L.J.L.J.J.L.L.L.L.L.L.J.L.F.|.^.|.^.OXL.*X-X-X-X*X*X*X*X*X=X3X8XeX8X8X8X8X8X8X8X8XqX8X8X8X8X8X8X8X8X8X8X8XqXqX8X8XdXdXdXqXqXxXwXdXdXxXqXjXdXdXdXdXjXjXjXjXzXZXwXbXxXxXcXxXjXjXxXxXbXmXNXMXmXmXmXmXmXmXmXAXAXAXmXmXmXmXmXmXbXzXhXtX0X9X4X2X9X2X X2X_.j.j.Q ~ U x g p v c c M c c g p g g g g g g g k g u e w w w e u u u u u p d g g d p u u i 7 w i i e e e e e w w w > > # * * & > q q e w w w > & * * - & > > > w w w e e u u u u i 7 7 e i w w w i u u u p u e w - - > > > - - > , e u f f t e q q q e t u u u u u f f f u e q q e t f k f t e q t e q 6 6 - y g P I Q Q I Q ! Q P P Q ! Q U f q q t f q & # # & q > & u e e w > w e u k x U T T U m x k g g k x g u u e e t e e y e t e e t t t t u u u t e q > , q w - q 6 & # X X = & w & # X * * # * # # # # * & & * & & * * * * * * * * * = @ = @ O @ * & - - - - > w w w w e e w i e w w 6 - - - & & & & & & & & * * & & & 9 & & & & & & & & * * # * & & 3 3 3 3 & & & & 3 3 3 3 3 3 3 & 3 & & & & 3 3 3 3 3 6 6 6 6 & & & % % % & & & & & & & & % % & & & & $ $ % % % % % % % % % % % % % % % % % % % % % % % % & % 3 q y a k K R W ' o.%.-.j.j.",
"T T T _ _ _ _ $.u.u.d.d.d.d.d.f.(.(.(.(.(.(.(.(.(.(.(.(.(.(.P.P.P.P.f.f.d.d.d.d.d.w.$.$.$.$.$.$.$.=.=.=.=.=.=.s.s.d.C.C.C.C.C.J.J.P.P.L.J.L.J.J.^.L.L.L.J.J.L.L.^.|.J.^.^.-X|.*XOXOX-X-X*X*X*X*X=X3X8XeX8X8X8X8X3X3X3X8X8X8X3X8X8X8X8XqX8X8X8X8X8X8XqXqX8XeX8XwX2XwX8XdXdXzXwXcXkXkXkXkXzXzXzXzXdXNXjXNXjXjXdXkXzXzXcXcXNXZXZXCXVXCXCXCXCXCXCXCXZXZXZXZXZXZXZXZXMXmXzXhXtXwXqX9X2XqX*X_._.M.o.! P x x g p p c c c c c g g x x x x x g p u u e e e u u p g g p u p g g g p p u e i e w i u u p u f f g f f f f f t t t t t t t t e e e e e w > - > q w > w w w w u u u d u t w w i w w - - w w i e u u u p u w w w > - - & > > q t u f f u t t t t t t u f f f g f u t e q e e t u t e q q q e e t e y u k F U I I I Q o.;.~ U U I Q ! P e & > t w > & & > q > - e e i i e e e u g x U Y T U U m m k k k x g u e w w u f f u y q t e t f u f f f f f f f u u u u e t w q & # # # * - & # X # * # # # # # # * & & * & * * # # * # * * * # = @ @ @ - - > w w w , > - > w w e e e w e w w 6 - - - & & & & & & & & & * & & & & & & & & & & & & & * * * * & & 3 3 3 3 & & & & 3 3 3 3 3 3 3 3 3 & & & & 3 3 3 3 3 6 6 6 6 & & & % % % & & & & & & & & % % & & & & $ $ % % % % % % % % % % % % % % % % % % % % % % % % & % 3 q y a k V R ! ' o.%.-.j.j.",
"T T _ _ _ _ _ $.u.u.d.d.d.d.d.f.P.(.(.(.(.(.(.(.(.(.(.(.(.(.P.P.(.P.P.f.P.d.d.d.C.d.d.=.=.$.$.$.=.=.=.=.=.=.s.s.s.M.C.C.C.C.C.J.J.J.J.J.J.L.L.L.^.^.^.L.L.L.L.L.P.L.C.^.^.OX|.|.|.OXOX-X-X*X*X*X8X8X8X8X8X8X8X8X8X8X8X8X8X8X8X8X8X8X8X8X8X8X8X8XqXqXdXjXdX8X8XdXdXcXdXdXdXdX8XqXdXdXdXdXdXdXdXdXdXcXkXZXcXNXxXjXdXdXdXxXcXcXcXcXmXmXcXmXmXmXAXAXcXcXcXcXbXcXcXcXzXkXjXwXqX8X3X2X2XqX*XJ.C.-.I P j k k c c c x x c c x x x m P P U m g u e w w e e u u p g g g p g g g g g u u i w w w w w e i u e e i i u u u p j k k k f f u u f p p p p u t w e w w w w w e e u u d d u u e e i w , , - , w w e u u u g p e u e e q > > > - - & q t f f u u u q q q q q q q q t t t t t e e q t t t t e q q q w - & w w e f k k j U Q ! Q U j P Q ! Q j e q e e q w > - - > > , w i u u i e e u g x U U U m m x g g g x x k f & - w w e w - * & * & q q > - w > q e t t e q > t t w q w 6 & & * 6 q # X X = X # # # # * & - > & & * * # # * * * * * * # = = # = # * * * * * * w w w e e e w w w 6 6 - - - - & & & & & & & & & & & & & & & & * & & & & & & * * * * & & 3 3 3 3 & & & & 3 3 3 3 3 3 3 3 3 & & & & 3 3 3 3 3 & & 6 6 & & & % % % & & & & & & & & % & & & & % $ $ % % % % % % % % % % % % % % % % % % % % % % % % & % 3 q y a k F I W ' o.%.-.j.j.",
"T / _ _ _ _ _ $.$.u.d.d.d.d.d.f.f.(.(.(.(.(.(.(.(.(.(.(.(.(.P.P.(.P.P.P.P.P.C.d.C.d.d.=.=.$.$.$.=.=.=.=.=.=.=.d.s.M.C.C.C.C.C.J.P.J.J.J.L.L.L.L.^.^.^.^.L.L.L.L.P.^.J.-X|.|.OX^.OX-X-X*X*X*X*X*X=X=X3X8X8X3X8X8X8X8X8X8X8X8X8X8X8X8XsXsXsXqXqXqX8X8X8XqXdXdXdXdX8XqX8XdXdXcXdXkXcXcXcXcXcXcXcXcXcXgXdXxXgXPXxXdXcXcXcXNXHXHXHXGXDXDXHXFXFXFXHXHXHXHXHXHXHXDXDXDXNXcXcXkXdXdXqXqXqX3X-XOXj.o.U j k k k k x c x x m m m m m x j k x k p e w w w e u u u u p g g k g g g f u i e e i e i w w e w e u u u u f f f f u u u u t u t u k g g p p p p p u e w w w e u u e e i e e e w w e e w > , > , , w u u e e w u k e e e w q > - & > > > q t u u u k f f u t t e e - > w w e e e e q t f f u q & > w - - w w e f j P U U I Q ;.! Q m P I I I m u e w q q & * # * * * - , w w w > > w u k m U m x x u e w e g m m k f e w w u d u e > q q w t w & > & > w t t e q > 6 & & & q q q - * q q * X X X o # # # # * * & - > & * * * # # * * * & * # # # # = * * - > w w w u e e i u e w - - - - - - - - - & & & & & & & & & & & & & * * * & & & & & & * * * * & & 3 3 3 3 & & & & 3 3 3 3 3 3 3 3 3 & & & & 3 3 3 3 3 & & 6 6 & & & % % % & & & & & & & & % % & & & % $ $ % % % % % % % % % % % % % % % % % % % % % % % % & % 3 q y a k F U Q ' o.%.-.j.j.",
"T T _ _ _ _ _ #.$.8.8.d.d.d.d.f.f.P.(.(.(.(.(.(.(.(.(.(.(.(.(.(.(.P.P.P.P.P.P.C.C.d.w.=.=.=.=.=.=.=.=.=.=.=.s.s.M.M.C.C.C.C.F.P.J.J.J.J.L.L.^.L.^.^.^.^.^.L.L.L.^.OXC.^.J.^.-XOXOX-X*X*X*X*X=X*X=X=X3XUX3XUX3X=X=X8XsXsXsX8X8X=X3X8X8X8X8X8X8X8X8XgXgX8X8X8XgXqXqXdXIXNX8XdXdXIXdXdXdXdXdXfXfXfXcXsXLXLX3XdXdXdXfXfXIXxXcXcXcXcXPXNXSXNXPXSXSXSXcXcXcXcXcXcXcXcXIXkXdXdXgXgXqXqX*X3XF.C.o.Q x j k k j j x x x x U U U P m j k f w > - - - > w e p p p p u u u u g f g f f p u u w - u u i u - > w w w w q q q q t t t t t t u u > e u p u u f g p u u e - - > - u u u u u e e e u u u i i e e e - - - - w e e u u u u u u t e e > * # * q t w > u u t t e q > > q q w e t t u u t f f f k t e k e & & w - - e d f k j f f U I U m j k m I I j u e t t e > & - w , w w e e e e i > e g x P m x x x k p u g m P k p w - - w y e e > t e q q & # * * * & & & & & & q w q q t t t t q t t y 6 & * * o X X X = = # # & # = = = O X = = = = = = X X = = @ * * - > > > > - - w e e w w w - - - - - 6 - & & & & & & & & & & & & & * * # & & & * & & * * # * * & 3 3 3 3 & & & & 3 3 3 3 3 3 3 3 & & & & & & 3 3 3 3 & & 6 6 & & % & % % & & & & & & & & & & & & & & $ $ % % % % % % % % % % % % % % % % % % % % % % % % & % 3 q y a k F U R ' o.%.-.j.j.",
"T T _ _ _ _ _ #.$.8.d.d.d.d.d.d.f.P.(.(.(.(.(.(.(.(.(.(.(.(.(.(.(.P.P.P.P.P.P.C.C.d.w.=.=.=.=.=.=.=.=.=.=.=.s.s.M.M.C.C.C.C.F.P.J.J.J.L.L.^.^.^.L.L.^.^.^.L.J.J.L.C.= o     X             . . . o o o o o o o o X = # * % # + o . . . . . . + . -.|.8XdXdXqXgXgXdXgXdX-X0 . . . . . . . . . . . = z *X*X9 $ + = . . . . . . . . . . . X X X X X . . . . . . . . . . . . . . . . s J.3 . X o   o                 o o o o o       X X X O * > w w e e e w > * O o                 o o w q e t = X o o o o                           O - e p p g g g u p e O o O o                                 O o   O e u - @                 X o   X * * =   o     o                                     o e w o o X     o X o X # X o X X X o                                             o - w p x m m x x e , * o   o o   o o     o o o   X > & X o                   o o                                             o o # o   o o     o o o o o                     o o X o O - e e w e w w 6 6 - - 6 6 & & & & & & & & & & & & & * * # & & & * & & * * # * * & 3 3 3 3 & & & & 3 3 3 3 3 3 3 & & & & & & & 3 3 3 3 & & 6 6 & & % & % % & & & & & & & & % & & & & & $ $ % % % % % % % % % % % % % % % % % % % % % % % % & % 3 q y a k F U R ' o.%.=.j.j.",
"T T / / _ _ O.#.$.8.8.d.d.d.d.d.f.P.(.(.(.(.(.(./.(.(.(.(.(.(.(.(.P.P.P.P.P.P.C.C.C.d.=.=.=.=.=.=.=.=.=.=.s.s.s.M.C.C.C.C.C.F.J.J.J.J.L.^.^.^.^.L.L.^.^.^.^.^.L.OXL.o   o   = o     . . . . . .                     o X X o     . . . . . . . . . 9  .|.gXdXdXdXdX8XcX8X$   +             . . .   X cXPX$                                                             . . . . . . |..   X     X                                 o     o # w w w > - * # X                           X X # >                     o o                 o * w p p p g u g e o       o o                                   o - - O                                                                     o         X f e o   o     o                                       o o         o o o o     o o O * w p x x x x g p q X                           e q                           o o o o                 o o o o                 #                                                     * w w w e w w 6 - - - - - & & & & & & & & & & & & & * * * 3 3 & & & & * & # * * & 3 3 3 3 & & & & 3 3 3 3 3 3 3 3 & & & & & & & 3 3 3 3 & 6 6 & & % & % % & & & & & & & & % % & & & % $ $ % % % % % % % % % % % % % % % % % % % % % % % % & % 3 q y a k F P R ' o.%.-.j.j.",
"T T / / _ _ O.$.$.8.8.d.d.d.d.d.f.P.(.(.(.(.(././.(.(.(.(.(.(.(.(.P.P.P.P.P.P.C.C.C.d.=.=.=.$.$.$.=.=.s.s.s.s.s.M.M.C.C.C.C.F.J.J.J.J.L.L.^.^.^.^.^.^.^.^.^.^.L.L.L.X   X                                                                       #   X  .=XdXsXqXdX8XcX8X=   #                 . X . fXfX    X . . . . .                                                           J.  o =                                       X       * w e w e - @ o       o                 #   o   o *                                     o       * e u u u u k u o   o                                     o o   X                                     o                                   o o   o     e e o   o     o               o X                                                   X * e p k k k u u > X     o       o o           t t                                           o       o                       #                                           o o o   o * e w w w w w 6 - - - - & & & & & & & & & * & & & & * * * 3 3 & & & & & & $ * * & & 3 3 3 & & & 3 3 3 3 3 3 3 3 3 & & & & & & & 3 3 3 & & 6 3 & & % & & & & & & & & & & & % % & & & & $ $ % % % % % % % % % % % % % % % % % % % % % % % % & % 3 q y a k F P R ' o.%.=.j.j.",
"T / / / / _ _ $.$.8.u.d.d.d.d.d.f.(.(.(.(.(./.(././.(./.(.(.(./././.K.L.P.P.P.C.C.d.d.d.s.s.=.=.=.=.=.s.s.s.=.=.M.M.M.C.C.C.J.J.L.J.J.J.^.^.^.^.J.^.^.|.^.J.J.J.^.L.X   # KXKXKXKXKXKXKXKXJXKXJXKXKXLXJXLXKXKXKX  X       f =.-XIXJXPXSXOX=.t         . ~ dXqXkXdXdXdXdX  . . KXKXKXKXKXLXKXKX  .   cXIX  .   KXKXKXJXKXLXKXKXLXKXKXKXJX#   o       fXKXLXKXKXKXKXLXKXPXKXfX    . y X   X KXKXKXKXKXKXKXJXX   o   gXKXJXKXLXKXJXKXj =   - * u w e o X *     X f -.sXfXJXJXgX:X-.j o     X & #     LXKXLXKXKXKXKXJXSXJXSX=XsX=.g #     *   e u w e w u e o   o KXLXKXJXKXLXQ   #     KXKXLXKXKXKXKXo     X o       t =.-XSXSXJXfX=X=.t       X     KXKXKXKXJXKXJXKXKXJXKXKXLXKXLXKXKXKXLXX . o q q     X LXKXKXKXKXLXKXLXJXKXJXKXJXKXKXKXKXKXJX#         t =.&XIXLXSXfX=X#.w     X   o O g w x m k p w       KXKXKXKXKXKXKXLX      t t       KXKXLXKXJXKXJXKXKXKXKXKXKX*   o   X   gXJXKXKXKXKXKXJXKXSXKXfX    o o       KXKXKXKXKXJXKXKX  #     =XKXKXLXKXKXKXKXm #   * e w w w w w - & & - - - > z & & & * * * * * & & * * $ $ 3 & & & & & & & $ * & & 3 3 3 3 3 3 & & & & 3 3 & & 3 3 3 3 3 3 3 3 3 3 & & & & 3 3 & % % & & & 3 3 & & & & & & 3 3 3 % % $ $ $ $ $ $ $ $ $ $ $ % % % % % % % % % % % % % % % % % $ 3 r y a k P R Q ' o.%.=.j.j.",
"T / / / _ _ _ $.$.$.8.d.d.d.d.d.f.(.(.(.(.(./.(./././././.(./././.Q.L.P.P.P.P.C.C.C.d.d.s.=.=.=.=.=.=.s.s.s.s.s.M.M.M.C.C.C.J.J.L.J.J.L.^.^.^.^.^.^.|.^.|.^.J.L.|.L.      SXKXJXKXKXJXLXJXJXKXLXKXKXKXKXKXKXJXJXX     f P.gXJXKXKXKXKXKXJXJXsXXXw     X y |.dXqXdXdXdXdX  . . KXKXKXKXKXLXKXLX  .   cXIX  .   KXJXKXKXKXJXJXLXJXLXJXKXSXX         X fXKXLXKXKXKXKXLXKXLXKXSX*   o q X   o KXKXKXKXKXKXKXKXX     q fXKXKXKXLXKXJXSX*     e * e w - = o     e C.sXJXKXKXKXKXKXKXJXsXC.f       o     LXKXLXKXKXKXKXKXKXKXKXKXKXSXLXs.t   o   6 u u e w u e o   o KXLXKXJXKXKX=.  o     KXKXLXKXKXKXKXX   o     o f OXsXKXKXKXKXKXKXKXJXgXP.f     X X KXKXKXKXJXKXKXJXLXKXKXKXJXKXJXLXJXKXJXo     9 q       JXKXKXLXKXKXKXKXKXKXLXKXKXKXJXKXSXLXSX  X   & C.SXKXKXKXJXKXKXKXKXfX=.z     o   u g x p g p w       KXKXKXKXKXKXKXLX      t t       KXKXLXKXJXKXKXKXLXLXLXKXSX        o X JXKXKXKXLXKXKXJXKXSXKXSX#   o o       KXKXKXKXKXLXKXLX  X   q SXKXJXKXKXJXKXSX*     & e i e w w w - & & - - - > z & & & * * * * * & & & * * $ 3 3 & & & & & & $ % & & 3 3 3 3 3 3 3 3 & & 3 3 & 3 3 3 3 3 3 3 3 3 3 3 & & & 3 3 3 & % % & & & 3 3 & & & & 3 & 3 3 & % % $ $ $ $ $ $ $ $ $ % $ % % % % % % % % % % % % % % % % % $ & r y a k P R Q ' o.%.=.j.j.",
"T T / / _ _ _ $.$.$.u.d.d.d.d.d.P.(.(.(.(.(./././././././././.Q./.L.P.P.P.P.P.C.C.C.d.d.s.=.=.=.=.=.s.s.s.s.M.s.M.M.C.C.C.C.J.J.L.J.J.L.^.^.^.^.|.|.|.^.|.|.|.^.L.L.X   & KXKXKXJXKXKXKXKXKXLXKXLXLXKXKXKXKXKXKXX   & H.JXKXKXKXJXKXJXKXJXKXKXJXC.e   o    .dXeXdXdXdXdX  .   KXKXKXKXKXLXKXKX  .   cXIX      KXKXKXJXKXJXKXKXKXKXKXKXLX#   X o   q SXKXKXKXKXKXKXLXKXKXKXSXf     & o   o KXKXKXKXKXKXKXKXX     -.SXKXKXKXJXKXKXL.    o w & u i * *     t P.SXKXKXKXJXKXKXJXKXKXKXJXL.t     X o   LXKXLXKXKXKXKXKXKXJXLXKXKXKXKXJXC.o   o = i g e e u e     o KXLXKXLXKXKX=Xt       KXKXLXKXKXKXKXX   X     j H.JXLXKXKXLXJXKXSXKXKXKXJXP.*   #   KXKXJXKXJXKXSXKXLXKXLXLXKXKXKXKXKXKXKXX   X u t o   o LXKXKXKXKXKXLXJXLXJXJXKXKXKXLXKXJXKXKXX   t C.JXKXKXKXKXJXKXJXJXKXKXHX-X*       > k p u g u w       KXKXKXKXKXKXKXLX      t t       KXKXKXLXJXLXJXKXKXKXKXKXKX#   # X   * KXKXKXKXLXKXKXKXKXJXKXJXf             KXKXKXKXKXKXKXJX      o.KXKXJXKXKXKXKXL.    X & w e e - w w - - - - - - - & & & & & & & & & 3 3 3 & & & & & & & & & & & $ % & & 3 3 3 3 3 3 3 3 3 3 3 3 3 & 3 3 3 3 3 3 3 3 3 3 & & 3 3 3 3 & & % & & & 3 & & & & & 3 3 & % & & & & % % % & & & & % % % % % % % % % % % % % % % % % % % % $ 3 r y a k P R E ' o.%.=.j.j.",
"T T / / _ _ _ $.$.$.8.d.d.d.d.d.P.(.(.(.(./././././././././././.L.L.L.P.P.P.P.P.C.C.d.d.s.=.=.=.=.=.s.s.s.s.M.M.M.M.C.C.C.C.J.J.L.L.L.^.^.^.^.^.|.|.^.^.^.|.|.|.L.OXo   o SXJXIXSXLXKXLXLXKXJXKXKXLXKXKXLXKXKXKX  q P.JXKXKXJXJXKXKXKXKXSXJXKXKXSXd.#     l dXqXdXdXdXdX  .   KXKXKXKXKXLXKXKX      cXIX      KXKXJXLXKXKXKXSXSXJXJXKXJXX   o o   :.JXKXKXKXKXKXKXKXJXKXKXJX!     #       KXKXKXKXKXKXKXKXX   X sXKXKXKXKXJXKXKXj   o   & w g f O =   # C.SXKXKXKXJXKXKXKXKXLXKXKXKXSX=.*   X o   LXKXLXKXKXKXKXLXKXKXKXKXKXKXLXKXgXU   o   e d i e d e o   o KXKXKXKXKXKXSXo.      KXKXLXKXKXKXKX    X   * C.SXKXJXLXJXKXKXKXKXLXJXKXKXSXC.q   o KXKXJXKXKXKXKXKXLXKXKXKXKXJXJXJXJXKXLXo   o t f X   X LXKXKXLXLXKXKXKXKXKXKXKXLXJXSXKXSXKXKX    L.KXKXKXLXKXKXKXKXKXJXKXJXKXKXs.X     * u u g p u w       KXKXKXKXKXKXKXLX      t t       KXKXKXLXKXKXLXKXJXKXfXJXSX    X X   f KXKXKXKXKXKXKXKXKXKXKXKX!             KXKXKXKXLXKXKXKXo   & &XLXKXLXKXKXKXJXj o   X & w e u w w w w > > > - - - & & & & & & & & & 3 3 3 3 3 & & & & & & & & & $ % & & & 3 3 3 3 3 3 3 3 3 3 3 3 3 3 & 3 3 3 3 & 3 3 3 & & 3 3 3 3 3 & & & & & 3 3 & & & 3 3 3 % % % % & & & & & & & & & & & & % % % % % % % % % % % % % % % % % $ 3 r y a k P R E ' o.%.=.j.j.",
"T T / / _ _ _ _ $.$.u.d.d.d.d.d.P.(.(.(.(./.+X+X/./././././.Q.Q.Q.L.L.L.L.P.P.P.P.C.C.d.s.=.=.=.=.s.s.s.s.s.M.M.C.C.C.C.C.J.J.J.J.L.L.^.^.^.|.|.|.|.|.^.^.|.|.|.J.OX    # KXKXKXKXKXKXLXSXKXJXKXJXSXKXKXKXKXKXKX  Q fXKXKXJXLXKXKXfXSXKXLXLXKXKXKXgXV     # 8XdXdXdXdXdX  .   KXKXKXKXKXLXKXKX      cXIX      KXJXKXKXLXKXKXJXKXKXKXKXJX*         o.KXKXKXKXKXKXKXKXSXKXKXKXC.    X       KXKXKXKXKXKXKXKX    f KXKXJXKXLXJXKXfX  o X   w g g k       U fXKXKXSXKXKXKXSXSXKXKXKXSXKXKXsXI X       LXKXLXKXKXKXKXKXfXLXKXKXJXKXJXKXKXD.o o   u e u u f t o   o KXKXKXKXLXKXKXH.      KXKXLXKXKXKXKX    X   I sXKXKXLXKXKXKXSXSXKXKXKXLXKXKXfXI     JXKXKXKXKXJXKXJXKXKXKXKXKXKXKXKXKXKXKX#     q t     # JXKXKXKXKXLXKXJXKXJXKXLXJXKXLXKXKXKXKX  f SXKXSXSXKXKXKXJXSXKXKXKXSXJXLXfXf   X o w p g u u e       KXKXKXKXKXKXKXLX      t t       KXKXKXLXKXJXSXKXSXKXKXKXKX#     X   ! KXKXKXKXKXKXKXKXLXKXKXKXd.o           KXKXKXKXLXKXKXKXo   U JXKXKXLXJXLXKXfXX o     - e u p f e w q w w w w > - 3 3 3 & 3 3 3 & 3 3 3 3 3 3 3 & & & & & & 3 3 $ % & & & & & & 3 3 3 6 q q 3 3 3 3 3 3 3 3 3 3 & & & & 3 3 3 3 3 3 3 3 3 & & & & & & & & & & & % % % & % % % & 3 & & & & & & & % % % % % % % % % % % % % % % % * $ & q y a h P U E ' o.%.=.j.j.",
"T T / _ _ _ _ _ $.$.8.d.d.d.d.d.P.K.(.(.(./.+X+X/././././././.Q././.L.L.L.L.P.P.P.C.C.d.s.s.=.=.s.s.s.s.s.s.C.C.C.C.F.F.J.J.J.J.J.L.^.^.^.^.|.|.|.|.|.|.|.|.|.|.J.|.. X & fXJXJXLXLXSXKXKXKXJXLXKXKXKXSXSXKXKXKX  =.SXKXJXJXKXKXJX{ o.SXLXLXKXLXKXLX*.  X + 3XdXdXdXdXdX  .   KXKXKXKXKXLXKXKX      cXIX      KXKXKXKXJXKXKXKXfXKXKXJXIXq X       C.KXKXKXKXKXKXJXKXSXKXKXKX-X    X       KXKXKXKXKXKXKXKX  X =.KXKXJXKXLXKXJXC.      X k x u x     o w.JXKXKXLXKXLXKXo.o.KXKXKXJXKXKXSX-.X   X   LXKXLXKXKXKXKXfXt j H.KXJXKXKXKXKX=Xo   o g e d u g u o   o KXKXKXKXLXKXKXsX&     KXKXLXKXKXKXKXo   o o =.JXKXJXKXLXLXJXo.o.JXKXKXKXKXKXJX=.  t fXKXKXKXKXSXKXKXKXKXLXLXKXKXfXKXKXJXSX& #   q q   = & fXSXJXJXLXfXKXKXKXJXLXJXKXKXfXJXKXJXSXq C.KXKXJXKXKXJXJX/ #.LXKXKXLXKXKXKXo.      u x i u i e       KXKXKXKXKXKXKXLX      t t       KXKXLXKXKXJXKXKXSXKXJXSXfXq X   .   =.KXKXKXKXLXKXLXKXJXKXKXKXOXX           KXKXKXKXKXKXKXKX    =.KXKXJXKXKXKXKXC.  o   o q u e e w e e w w q w w 6 6 3 3 3 3 3 3 3 & & 3 3 3 3 3 3 3 & & & & & 3 3 $ % & & & & & & 3 3 3 3 q q 3 3 6 3 3 & & 3 3 3 & & & & 3 3 3 3 3 3 3 3 3 3 & & & & & & & & & & & & & & % % $ $ 3 3 & & & & $ % % % % % % % % % % % % % % % % % * $ & q y a h P U R ' o.%.=.j.j.",
"T T T _ _ _ _ _ $.$.8.d.d.d.d.d.P.K.(.(.(./.$X$X/././././././.Q././.^.^.L.L.L.P.P.P.C.C.M.s.s.s.s.s.M.M.M.C.C.C.C.J.J.J.J.J.J.J.J.^.|.|.|.|.|.|.|.|.|.|.|.|.|.|.|.|.  .   f = = o o t fXLXLXKXKXKXKXgXf   X     & -XKXJXJXKXKXJXLX$ & SXKXKXKXKXJXKXOX# . + qXdXdXdXdXdX      KXKXKXKXKXLXKXLX  .   cXIX      KXJXJXLXKXKXKXSXq o # X f       X   L.KXLXKXKXKXKXgXKXJXKXKXKXfXo   X       KXKXKXKXKXKXKXKX  q sXKXKXJXKXKXKXfXt       w x x g P O   * XXKXJXJXKXKXKXJX# # JXKXKXKXLXKXKXL.#   #   LXKXLXKXKXKXKXKX    f LXKXJXKXKXKXfXo   o d g g d g u o   o KXKXLXKXKXJXKXSXQ     KXKXLXKXKXKXKXX o   = OXKXKXLXKXKXKXJX& X KXJXKXKXKXKXKX&X&   * X o # o q fXLXLXJXKXKXKXfXq o = X j   o   u f   O   x = * = X * SXKXKXKXKXKXJXfXq X q # t   =XKXKXKXKXLXKXKX  * KXKXKXKXLXJXKXOXX   X u x i e e e       KXKXKXKXKXKXKXLX      t t       KXKXKXKXKXLXKXfX* o # X j   o   o X L.KXKXKXKXKXKXfXKXSXKXLXKXsX#           KXKXKXKXKXJXLXKX  q =XKXKXSXKXKXKXSXf   o o & e e w w w e w w q w w - & 3 3 3 3 3 3 3 3 $ % 3 3 3 3 2 3 3 3 3 & & & 3 3 $ % & & 3 3 & & % & 3 q q q 6 3 q 3 3 & & & 3 3 3 3 & & & 3 & & & 3 3 3 3 3 & & & & 3 & 3 3 & & 3 3 3 & $ % $ $ 3 3 & & % $ $ $ % % % % % % % % % % % % % % % % % $ & q y a j P U R ' o.%.=.j.j.",
"T T T _ _ _ _ _ $.$.8.d.d.d.d.d.P.(.(.(.(./.$X$X/././././././.Q./././.^.^.L.L.P.P.C.C.C.C.s.s.s.s.M.M.M.C.C.C.J.J.J.J.J.J.J.J.L.J.^.|.|.|.|.|.|.|.|.|.|.|.|.|.|.|.J.  %   &     o   = JXKXJXKXLXSXKXSXq   X     X =XKXLXJXKXKXKXKX  X KXKXSXJXKXLXKXsXq   X IXdXdXjXdXdX      KXKXKXKXKXLXKXKX  .   cXIX      KXKXLXKXLXSXKXKX    o   &   #   o   OXKXJXKXKXKXKX-XKXJXKXJXKXSXX   o   o   KXKXKXKXKXKXKXKX  f JXKXKXLXKXKXKXfX  o   # g g g x P o   * =XKXLXJXJXJXKXKX    KXKXJXKXSXKXKX=Xq   X   LXKXLXKXKXKXKXKX#   # SXKXJXLXKXKXJX#     e F g g k f o   X KXKXJXKXKXSXKXKX=.    KXKXLXKXKXKXLXX o   # =XKXSXLXKXSXKXKXX   KXKXKXKXJXKXKX=XX X X     X   # KXKXLXJXKXSXKXLX        w   &   t u   -   w         X JXKXJXKXLXKXKXJXX   #   X   fXKXKXKXKXJXKXJX# o JXLXSXKXLXKXKXsX=   @ w i g e e e       KXKXKXKXKXKXKXLX      t t       KXKXKXKXLXJXKXJX*       >   *     o sXKXLXKXJXKXJXOXKXSXKXJXKXgX#           KXKXKXKXKXJXKXKX  j SXKXKXLXKXJXKX=XX o   O w w w u g u w w q w w > - & 3 3 3 3 3 3 3 3 $ $ 3 3 3 3 2 3 3 3 & & & & 3 3 $ % & 3 3 3 3 3 $ & 3 q q q 6 3 q 3 3 & & & 3 3 3 3 3 3 & & & & & 3 3 3 3 3 & & & & 3 3 3 3 & & 3 3 3 & % $ $ $ 3 & & % $ $ $ $ % % % % % % % % % % % % % % % % % $ & q y a j P U R ' { %.=.j.j.",
"T T T T _ _ _ O.$.$.d.d.d.d.d.d.P.(.(.(.(./.OX+X+X/././././././././././.^.L.L.P.P.P.C.C.C.C.C.s.C.C.C.M.M.M.C.C.C.C.J.J.J.J.J.J.J.L.|.|.|.|.|.|.|.|.|.|.|.|.|.|.|.J..   .   . .   .   LXKXKXKXKXKXKXLX            LXKXJXKXLXKXKXKX  = SXKXJXKXKXKXLXKX    . dXdXdXjXdXkX  .   KXKXKXKXKXLXKXKX  . . cXcX      KXKXKXJXKXKXKXLX# X       o   o     SXKXJXKXJXKXKXj KXKXLXKXKXKXq X   o     KXKXKXKXJXKXLXKX  L.KXLXKXKXJXKXKXI X     ; F x x U c       LXKXKXKXKXKXKXKX    KXKXKXKXKXLXKXJXo       LXKXLXKXKXKXKXKXo     KXKXKXKXJXKXSX#   * x c k x k x       KXKXKXKXKXKXLXLXLX    KXJXKXKXJXKXKX        LXKXKXKXKXJXKXJXX   KXKXKXKXKXJXKXLX  o   * *   o   KXKXKXKXKXLXKXKX  X   #       X 6 e O o   O   O       KXKXKXKXKXKXKXKXo   o       SXJXKXKXKXKXKXKX    KXKXKXLXKXLXKXJX      u i i e i e       KXKXKXKXKXKXKXLXo     t t       KXKXKXSXKXKXKXKXX o     X   X       SXKXLXKXLXKXKXg KXLXKXKXKXSXU           KXKXKXKXKXKXKXLX  OXLXKXKXKXSXKXKXI   o   # w w w u u w e w - - - w > 6 & 3 3 3 3 3 3 3 3 & $ $ $ % 3 3 3 & & & & & & & $ % & & 3 3 3 3 3 3 3 3 6 3 6 3 3 3 3 3 3 3 3 3 3 3 & & & & 3 3 & 3 3 3 3 & & & & 3 3 3 & & & & & & 3 3 & & & & & & & & & & $ $ % % $ $ % % % % $ $ $ % % % $ $ & % 3 r y a k V U R ! o.%.=.j.j.",
"T T T T _ _ _ O.$.$.8.d.d.d.d.d.P.(.(.(.(./.OX+X+X/././././././././././.^.L.L.L.P.P.C.C.C.C.C.s.C.C.C.C.C.C.C.C.C.F.J.J.J.J.J.J.L.^.|.|.|.|.|.|.|.|.|.|.|.|.|.|.|.8XJ.*X=X-X|.|.  .   LXKXKXKXKXKXKXLX            LXKXJXKXLXKXKXKX  = SXKXJXKXLXKXLXKX    . dXdXdXdXdXkX  .   KXKXKXKXKXLXKXKX  . . cXcX      KXKXKXKXKXJXKXJX            o     X JXKXJXKXJXKXSX& SXKXKXKXKXKXI X   X     KXKXKXKXKXKXKXLX& gXKXKXKXKXKXKXSXf   o o e U x x U c       LXKXKXKXKXKXKXKX    KXKXKXKXKXKXKXJXo       LXKXLXKXKXKXKXJX  X & KXLXJXJXKXKXSX*   o u u x x x x       KXKXKXKXKXKXLXLXLXI   KXKXKXKXLXKXKX        LXKXKXKXKXJXKXJXX   KXKXKXKXKXJXKXLX  o   q q   o o KXKXKXKXKXLXKXKX  o   k f k d i g x e e e g w u o     KXKXKXKXKXKXKXKXo   o       SXLXKXKXKXKXKXKX    KXKXKXLXKXLXKXJX      u i i e i e       KXKXKXKXKXKXKXLXo     t t       KXKXJXJXKXLXKXLXo # X   X   X   o # JXKXJXKXKXKXSX& LXKXKXKXKXJX!           KXKXKXKXKXKXKXKX& gXKXKXKXKXJXKXfXf     o * w w q e e w e w - - - - - & & & & & 3 3 3 & 3 & & & 3 & 3 3 & & & & & & & & $ % & & 3 3 3 3 & & 3 3 3 3 3 3 3 3 3 3 3 3 3 3 3 3 & & & & 3 3 & 3 3 3 3 & & & & & 3 3 & & & & & & 3 3 & & & & & & & & & & $ $ % % % % % % % % $ $ $ % % % $ $ $ $ 3 r y a k F U R ! o.%.=.j.j.",
"T T T T / _ _ O.$.$.$.d.d.d.d.d.P.(.(.(.(./.+X+X+X+X/./././././././.^.^.^.^.L.L.L.P.J.C.C.C.C.s.C.C.C.C.C.C.C.C.J.J.J.J.J.J.J.J.^.^.|.|.|.|.|.|.|.|.|.|.|.|.|.|.J.|._.|.|.|.OX*X  .   LXKXKXKXKXKXKXLX            LXKXJXKXKXKXKXKX  = SXKXJXKXKXKXLXKX    . dXdXdXdXdXdX  .   KXKXKXKXKXLXKXKX  . . SXcX      KXKXLXKXKXKXKXLX  o = X X o     o q JXKXLXKXJXKXgXX sXKXKXKXLXKX*.X   X     KXKXKXKXKXLXKXJXQ KXKXKXLXJXKXKXXXX   o * c Y x x P c o   o LXKXKXKXKXKXKXKX    KXKXKXKXKXKXKXJXo       LXKXLXKXKXKXKXKX    t JXLXKXJXKXKXfX*   * F Y F U x x       KXKXKXKXKXKXKXLXLXOX  KXKXKXKXKXKXKX        LXKXKXKXKXJXKXJXX   KXKXKXKXKXLXKXKX  o   f f o o o KXKXKXKXKXLXKXLX      k g x x g c g d g d c u d       KXKXKXKXKXKXKXKXo   o       JXKXKXKXKXKXKXKX    KXKXKXLXKXLXKXJX      u i i i i e       KXKXKXKXKXKXKXLXo     t t       KXKXKXKXKXLXKXLX        X   # o   > KXKXKXKXKXKXsXX SXKXKXKXKXKX=.o         KXKXKXKXLXKXKXKXo.JXKXKXKXKXKXKXL.* o   = - w w w e e w e w w - - - - & & & * * & & & & 3 & & & & & 3 3 & & & & & & & & $ % & & & 3 3 3 & & 3 3 3 3 3 3 3 3 3 3 3 3 3 3 3 3 3 & 3 3 3 3 & & 3 3 3 & & & & & 3 & & & 3 3 & & 3 3 3 & 3 3 % % & & & & $ $ % % % % % % % % $ $ % % % $ $ $ $ $ & q y a k P U R ! { %.*.j.j.",
"T T T T / _ _ _ _ $.$.d.d.d.d.d.P.(.(.(././.+X+X$X$X$X/./././././././././.^.^.L.L.L.P.C.C.C.M.s.C.C.C.F.F.F.C.C.J.J.J.J.J.J.J.J.J.^.|.|.|.|.|.|.|.|.|.|.|.|.|.|.|.|.-X-X|.-X-X-X  .   LXKXKXKXKXKXKXLX            KXKXLXKXKXKXKXKX  = SXKXJXKXKXKXLXKX    . dXdXdXdXdXdX  .   KXKXKXKXKXLXKXKX  . . SXcX      KXKXLXJXKXLXKXfXz     X #     o X U LXKXKXKXLXKX-X  -XKXKXLXKXKXXXo   o   o KXKXKXJXKXKXKXKXL.KXJXKXLXJXKXSXo.      w U Y x x F c o o o KXKXKXKXKXKXKXKX    KXKXKXKXKXKXKXJXo       LXKXLXKXKXKXKXKXq j C.KXJXKXJXKXLX-Xo   O P E P U F P       KXKXKXKXKXKXKXKXKXSX& JXKXLXKXKXKXKX      o KXKXKXKXKXJXKXJXX   KXKXKXKXKXLXKXKX      P j o     KXKXKXKXKXLXKXLX  o   k g k x x U c c c u c g x o     KXKXKXKXKXKXKXKXo   o       KXKXKXKXKXKXKXKX    KXKXKXLXKXLXKXJX      u u i i u e       KXKXKXKXKXKXKXLXo     t t       KXKXKXKXKXSXKXSXq # X X q     X o ~ KXKXKXKXKXKXOXo sXKXKXKXKXKXL.X         KXKXKXKXLXKXKXKXOXKXKXLXKXJXKXJX!   o   * - w w w w e e e w w w - - - & - & & & & & & * & & & * & & & 3 & & & & & & & & $ % & & & 3 3 3 & 3 3 3 3 3 3 3 3 3 3 3 3 3 3 3 3 3 & & 3 3 3 3 & & 3 3 3 & & & & & & & & 3 3 3 & & & 3 3 3 3 3 % & & & & & $ $ % % % % % % % % $ $ % % % $ $ $ $ $ & q y a k P U R ! { %.*.j.j.",
"T T T T / _ _ _ _ $.$.d.d.d.d.P.P.K././././.OXOXOXOXOX/././././.OXOX/./././.L.L.L.L.P.C.C.C.M.M.M.M.C.C.J.J.J.J.J.J.J.J.J.J.J.J.J.J.|.|.|.|.|.|.|.|.|.|.|.|.|.|.|.J. X X-X*X*X-X. .   LXKXKXLXKXKXKXLX            KXKXLXKXKXKXKXKX  = SXKXJXKXKXKXLXKX    . dXdXdXdXdXdX      KXKXKXKXKXLXKXLX  . . SXcX      KXJXKXKXKXKXKXKXIXKXKXKXfXf o X   o.LXKXKXKXKXKXC.  C.KXKXLXKXKXfXo         KXKXKXKXKXKXKXKXSXKXKXKXKXLXKXsXg     o u Y Y x x x x o o o KXKXKXKXKXKXKXKX    KXKXKXKXKXKXKXJXo       LXKXLXKXKXKXKXKXgXJXLXKXSXJXKXKXSXC.      x x U Y U P       KXKXKXKXKXKXKXKXKXKXo.JXKXLXLXLXKXKX      o KXKXKXKXKXJXKXJXX   KXKXKXKXKXLXKXKX      I U o     KXKXKXKXKXLXKXKX      U U U F F x H F F u c c F o   o KXKXKXKXKXKXKXKXo   o       KXKXKXKXKXKXKXKX    KXKXKXLXKXLXKXJX      u u i i u e       KXKXKXKXKXKXKXLX      t t       KXKXJXLXKXKXKXKXIXJXKXJXfXq o o   ! KXLXKXKXKXLXC.  L.KXKXKXKXKX=XX         KXKXKXKXKXKXKXKXfXKXLXKXKXLXKXsXw   o   * - w w w e t u e e e w w w > q > > z z > > & & * * * * $ $ & & & & & & & & & & $ * & & & & & & 3 3 3 3 3 3 3 3 3 6 3 3 3 3 3 3 & 3 3 3 3 & & & & & 3 3 3 & & & & & 3 & & & & 3 & & 3 3 3 & & & % % & & & & $ $ % % % % % % % % $ % % $ % $ $ $ $ $ & q y a h V R R ! ' %.*.=.j.",
"T T T T / _ _ _ _ $.$.8.d.d.d.P.P.K.Q./.(./.OXOXOXOXOXOX/./././.OXOXOX/.OX/.^.L.L.L.P.J.C.C.C.M.M.M.C.C.J.F.J.J.J.J.J.J.J.J.J.J.J.J.|.|.|.|.|.|.|.|.|.|.|.|.|.|. X|.-X|.|.|.-X*X  .   LXKXKXLXLXKXKXLX            KXKXLXKXKXKXKXKX  = SXKXJXKXKXKXLXKX    . dXdXdXjXdXdX      KXKXKXKXKXLXKXLX  . . SXcX      KXLXKXJXKXLXJXJXKXKXSXKXSX#   X   H.KXKXKXLXKXKXo.X *.KXKXLXKXKXSXX         KXKXKXKXKXKXJXKXKXKXKXKXKXKXKXC.#     * c Y U Y F c x o o o KXKXKXKXKXKXKXKX    KXKXKXKXKXKXKXJXo       LXKXLXKXKXKXKXKXKXKXLXKXKXKXLXfXC.x   o o Q E U E U U       KXKXKXKXKXKXKXKXKXKX&XKXJXKXLXLXKXKX      o KXKXKXKXKXJXKXJXX   KXKXKXKXKXLXKXKX    o I I o   o KXKXKXKXKXLXKXKX      U U U U Y F x F Y c H F c     o KXKXKXKXKXKXKXKXo   o       KXKXKXKXKXKXKXKX    KXKXKXLXKXLXKXJX      p u u u u e       KXKXKXKXKXKXKXLX      t t       KXKXKXKXKXKXJXKXKXKXKXKXJX#   X   L.KXJXKXLXKXKX*.  -.KXKXKXKXKXfX*         KXKXKXKXKXKXKXKXKXKXLXKXLXKXKXP.o     X & - - w w w e t e e e e w w w w q , > > > > > & * * * * $ $ * * & & & & & & & & $ * & & & & & & 3 3 3 3 q q 3 3 6 6 3 3 3 3 3 3 & 3 3 3 3 3 & & & 3 3 3 3 & & & & & 3 3 & & & & & & 3 3 & & & & % % & & & & $ $ % % % % % % % % % % & & % $ $ $ $ $ 3 q y a f V P R ! ' %.*.=.j.",
"T T T T / _ _ _ $.$.$.=.d.d.d.d.P.P.(./././.$XOXOXOXOXOXOX/.OXOXOXOXOXOXOXOX^.^.L.J.J.P.J.J.F.C.C.M.C.C.J.F.J.J.J.J.J.J.J.J.J.^.^.|.|.|.|.|.|.|.|.|.|.|.|.|.|.|.J.|. X X*X|.*X-X. .   LXKXKXLXLXKXKXLX            KXKXLXKXLXKXKXKX  = SXKXJXKXKXKXLXKX    . dXdXdXjXdXkX      KXKXKXKXKXLXKXLX  . . SXcX      KXKXKXSXKXKXKXJXKXKXKXKXJX#   X   &XKXKXKXLXKXKXP o ! KXKXJXKXJXJX* o X     KXKXKXKXKXLXLXJXKXJXKXLXKXKXKXQ   X   i Y Y U Y U c c o o   LXKXKXLXKXKXKXKX    KXKXKXKXKXKXKXJXo       LXKXLXKXKXKXKXJXKXJXJXKXKXfXL.-.&     o   Q E U E I U     o KXKXKXKXKXKXKXKXKXKXSXKXJXKXKXKXKXKX      o KXKXKXKXKXJXKXJXX   KXKXKXKXKXLXKXKX  o o I I X   o KXKXKXKXKXLXKXKX  o o E E Y E ^ E Y Y E Y ! E U o   o KXKXKXKXKXKXKXKXo   o       KXKXKXKXKXKXLXKX    KXKXKXLXKXLXKXJX    o p p u u u e       KXKXKXKXKXKXKXLX      t t       KXKXKXKXLXKXKXKXKXJXJXKXLXX   X   &XKXLXKXJXKXLXI   Q KXLXKXKXKXKXt         KXKXKXKXJXLXKXKXKXKXKXKXLXKXLXQ   X   # - - > w w q w w w e t e e w w e w , > > > > > z * * * * * * * * & & & & & & & & $ % & & 3 3 & 3 3 3 3 3 3 3 3 3 3 6 3 3 3 3 3 3 3 3 3 3 & & & & & 3 3 3 3 & & & & & 3 3 & & & & & & & 3 & & & & % % & & & % $ $ % % % % % % % % & & & & % $ # # & % 3 q y y f V U R ! { %.*.=.j.",
"T T T T / / _ _ $.$.$.8.8.d.d.d.P.P.Q././.+X$XOX$XOX$XOXOXOXOXOXOXOXXXOXOXOXOX|.L.L.J.J.J.J.J.J.J.J.C.C.J.J.J.J.J.J.J.J.J.J.^.|.|.|.|.|.|.|.|.|.|.|.|.|.|.|.|..X.X X|.).2X|.*X-X. .   LXKXKXLXLXKXKXLX            KXKXLXKXLXKXKXKX  = SXKXJXKXKXKXLXKX    . dXdXdXjXdXkX. .   KXKXKXKXKXLXKXLX  . . cXcX      KXKXKXJXKXSXKXJXJXKXKXKXSX#   o o sXKXKXKXJXKXKXt   P KXKXLXKXJXKXq X X     KXKXLXLXKXJXKXLXKXLXKXJXKXKXSXt   *   x E Y U Y Y p c o     LXKXKXLXLXKXKXKX    KXKXKXKXKXKXKXJXo       LXKXLXKXKXKXKXJXKXLXKXKXKXKXSXo.X   = *   E x Y E Y U     o KXKXKXKXKXKXKXKXKXKXLXKXJXKXKXKXKXKX      o KXKXKXKXKXJXKXJXX   KXKXKXKXKXLXKXKX  o   U I o     KXKXKXKXKXLXKXKX    o Q Y Y Y E H Y Y Y F Y Y F o   o KXKXKXKXKXKXKXKXo   o       KXLXLXKXKXKXLXKX    KXKXKXLXKXKXKXLX  o o p p u u u e       KXKXKXKXKXKXKXLX      t t       KXKXJXKXLXLXKXLXLXKXKXKXKXX   #   gXLXKXKXSXKXSXf   U KXJXKXLXKXKXj         KXKXKXKXKXKXKXLXKXKXKXKXJXKXSXf   #   q w > w w w w w w w e t e e w e e w , > > > > > z & * * * * * * & & & & & & & & & $ % & 3 3 3 3 3 & & 3 3 3 3 3 3 3 6 3 3 3 3 3 3 3 3 3 3 3 3 3 3 3 3 3 3 3 3 & & & & 3 3 & & & & & & & & & & & & % % & & & & $ $ % % % % % % % % % % & & % $ $ # & & 3 q y y f j U R ! ' %.*.=.j.",
"T T T / / / _ _ $.$.$.8.8.d.d.d.P.K././././.OX$X$X-X$XOXOX/././.-XOXOXOXOXOXOX|.|.^.L.J.J.J.J.J.F.J.J.J.J.J.J.J.J.J.J.J.J.J.^.^.|.|.|.|.|.|.|.|. X X|.|.|.|.|.|. X X X X X X*X*X.   . LXKXKXKXKXKXKXLX            KXKXLXKXKXKXKXKX  = SXKXJXKXKXKXJXKX    . dXdXjXjXdXkX. .   KXKXKXKXKXLXKXLX  X . SXcX  .   LXKXJXJXKXKXSXKXKXKXJXKXSX*   o   JXJXLXKXLXKXKXo   & KXKXLXKXJXKXC.        KXJXKXKXKXKXJXKXKXLXKXKXKXKXKX=.  o   > I I Y Y x U c     o LXLXLXKXKXKXKXKX    KXKXKXKXKXKXKXJX        LXKXLXKXKXKXKXKXsXKXSXKXSXKXKXKX=Xt   *   ! F Y Y Y Y o     KXKXKXSXKXLXKXKXKXKXKXKXKXKXKXKXKXKX  o   X JXKXKXKXKXJXKXJXX   KXLXKXLXKXLXKXLXo     / /       KXKXKXKXKXLXKXKX      E T T ^ E ^ ^ Y E Y Y Y E       KXKXLXKXKXKXKXKXo   o       KXLXKXKXKXKXKXKX    KXKXLXKXKXKXKXKXo     g x c c g g   o o KXKXKXKXKXLXKXKX      t f o     KXKXKXKXLXKXSXKXLXKXKXKXJX#     X SXKXKXKXKXKXKX#   * KXJXKXKXLXKX=.    X   LXKXKXKXKXLXKXJXKXKXJXKXKXKXLXC.    &   w w w > > w w w w e e u e e w w q > > > , , > & & & & * * * * * & & & & & & $ # $ % & & & & & & & & & & & & & & 3 3 3 3 3 3 3 3 3 3 3 3 3 3 3 3 3 3 3 3 % % 3 3 3 & & & & & & & $ $ & & & & $ $ % % % % % % % % % % % % % % % % % % % % % % % % % % & 7 y a k F U R W ' o.%.*.j.",
"T T T T / / _ _ $.$.$.8.8.q.d.d.P.K.L./././.OX$X-X-X$X-XOXOX/./.OXOXOXOXOX|.|.|.|.|.L.J.J.J.J.J.J.J.J.J.J.J.J.J.J.J.J.J.J.).).).|.|.|.|.|.|.|.|. X X|.|.|.|.|.|. X X X X X X X*X.   o KXKXKXKXKXKXKXLX            KXKXLXKXKXKXKXKX  = SXKXJXKXKXKXJXKX    . dXdXjXjXdXkX. .   KXKXKXKXKXLXKXLX      SXSX    X KXKXJXLXLXLXJXKX7XKXKXKXSXq   #   JXKXKXKXJXKXJXo   # KXKXJXKXKXKXL.    o   KXLXKXKXKXKXJXKXKXKXKXKXKXKXKXOX#     # P I U U x Y x     o LXLXKXKXKXKXKXKX    KXKXKXKXKXKXKXJX        LXKXLXKXKXKXKXJXj ! =.KXKXKXLXKXfXo.  #   Q c Y Y Y Y o     KXKXKXJXKXJXKXSXKXKXKXKXKXKXKXKXKXKX  o   X JXKXKXKXKXJXKXJXX   KXLXKXLXKXKXKXLXo o o / /       KXKXKXKXKXLXKXKX  o   ^ ^ ^ / ^ ) ) Y ^ ^ E Y /       KXKXKXKXKXKXKXKX    o       KXKXKXKXKXKXKXKX    KXKXLXKXKXKXKXKXo     g c c g c g   o o KXKXKXKXKXLXKXKX      t t       KXKXJXJXSXKXLXKXgXSXKXJXfXq     # SXKXKXKXJXKXSXX # X KXJXJXKXKXKXL.    X   KXKXKXKXLXKXJXKXKXKXKXKXKXKXKXOX#   #   - - * * - w w w e u p p p u u u q > & * * & & > > > z z & & & & # $ $ $ $ $ $ $ & 3 3 3 3 3 3 3 & & & & & & & & 3 3 3 3 3 3 3 3 3 3 3 3 3 2 2 2 3 2 3 2 2 2 2 3 3 & & & & & & & $ $ % & & & $ $ % % % % % % % % % % % % % % % % % % % % % % % % % * % 7 y a k F U R W ' o.%.=.j.",
"T T T T T / _ #.$.$.$.8.8.d.d.d.P.P././././.OX-X$X$X-X-X-XOXOXOXOXOXOXOXOX|.|.|.|.|.|.L.J.J.J.J.J.J.J.J.J.J.J.J.J.J.J.).).).|.|.|.|.|.|.|.|.|.|. X|. X X|.|.|.|. X X X X X X X*X.   o LXKXKXKXKXKXKXLX            KXKXLXKXKXKXKXKX  = SXKXJXKXLXKXJXKX    . dXdXjXjXdXIX. .   KXKXKXKXKXLXKXLX      SXSX  . X LXKXKXKXKXKXKXSXF   X X t     X f KXKXKXKXKXKXSX      SXKXKXKXKXKXsXo   X   KXKXKXKXKXKXLXKXfXKXKXKXKXJXKXfXj       k I U P x Y U     o LXKXKXKXKXKXKXKX    KXKXKXKXKXKXKXJX        LXKXLXKXKXKXKXKX    f KXKXKXLXKXKXOXX o   Q F Y Y Y Y o     KXKXLXLXKXJXKX=XKXKXKXKXKXKXKXKXKXKX  X   X JXKXKXKXKXJXKXJXX   KXKXKXLXKXKXKXKXo o o / /       KXKXKXKXKXLXKXLX    o / / ^ / ^ / / ^ / ^ ^ T /       KXKXKXKXKXKXKXKX    o       KXKXKXKXKXKXKXKX    KXKXLXKXKXKXKXLXo     c c c c c g   o o KXKXKXKXKXLXKXKX      t t       KXKXKXKXKXKXLXSXj q # X q     o j KXKXKXKXKXKXfX      SXKXKXKXKXLXsX    o o KXKXKXJXJXKXSXKXfXKXKXKXKXKXKXgXm     X & & - - > w w > > w e e e e w w q q q > & & > q & & % * * * * * $ & 3 & $ $ % 3 $ $ $ % & & % % & & & & 3 & & 3 & 3 3 3 3 3 3 3 3 3 3 3 2 2 2 2 3 2 3 2 2 2 2 3 3 & & & & & & & $ $ & & & & $ $ % % % % % % % % % % % % % % % % % % % % % % % % * * % 6 y t k F U R W ' o.%.=.j.",
"T Y T T T / _ $.#.$.$.8.8.d.d.d.P.P.L./././.OX-X-X-X-X-X-X-X-XOXOXOXOXOXOXOX|.|.|.|.|._._.J.J.J.J.J.J.J.J.J.J.J.J.J.J.).).).|.|.|.|.|.|. X X|.|.|.|. X X X X|. X X X X X X X*X*X.   o KXKXKXKXKXKXKXLX            KXKXLXKXKXKXKXKX  = SXKXJXKXLXKXJXKX    . dXdXjXzXdXIX. .   KXKXKXKXKXLXKXLX  = o cXSX. X = LXJXJXKXKXKXKXSX  X *       #   Q KXKXLXLXLXSXsX* * w gXLXLXKXKXKXSX#   X   KXKXLXKXKXJXKXKXH.KXKXKXKXJXKXKX*.  o   t I U x x Y U       LXKXKXKXKXKXKXKX    KXKXKXKXKXKXKXLX        LXKXLXKXKXKXKXKXX   q KXJXLXKXJXKXgX=     Q U Y Y Y Y o     KXKXKXKXKXKXLX*.KXKXKXKXKXKXKXKXKXKX  X   X JXKXKXKXKXJXKXJXX   KXKXKXKXKXKXKXLXo o o / /       KXKXKXKXKXLXKXLX    o / / / / / / / ) / / / / /       KXKXKXKXKXKXKXKXo   o       KXKXKXKXKXKXKXKX    KXKXLXKXKXKXKXLXo   o x x c c c g   o o LXKXKXKXKXLXKXKX      t t       KXKXLXKXKXKXKXSX        X   X   I KXKXKXKXKXKXsX# # # sXLXLXSXLXJXJXX     o KXKXKXJXKXKXJXKXH.KXLXKXKXKXKXJX=.    = = * w w w > - * q w e u u e u u q q w e e q > & > z & & & & & & 3 3 3 & $ $ $ $ & & 3 3 3 3 3 3 & & & & 3 & & 3 & 3 3 & 3 3 3 3 3 3 3 3 2 2 2 2 3 2 3 2 2 2 2 3 3 & & & & & & & % % & & & & $ % % % % % % % % % % % % % % % % % % % % % % % % % * $ * 6 7 t d F P R W ' o.%.=.j.",
"T Y T T T / _ #.#.#.$.$.8.d.d.D.P.P.L./././.-X-X-X-X-X-X-X-X-X-XOXOXOXOX-XOXOXOX|.|.|._._.J.J.J.J.J.J.J.J.J.).).).).).J.).).|.|.|.|.|.|. X X X X X X X X X X X X X X X X X X*X*X.     KXKXKXKXKXKXKXLX            KXKXLXKXKXKXKXKX  = SXKXJXKXKXKXLXKX    . dXjXjXjXjXIX. .   KXKXKXKXKXLXKXLX    o cXcX    . KXKXLXKXLXSXKXJXo X   q &   #   C.KXKXKXKXKXKXKXfXSXfXKXKXKXKXLXKXKXq   X   KXKXLXKXKXSXKXSXU KXKXKXKXJXKXKXL.X     z P U c F U P       LXKXKXKXKXKXKXKX    KXKXKXKXKXKXKXLX        LXKXLXKXKXKXKXLX# o # SXKXKXKXSXKXSXX   o E Y Y Y Y Y o     LXKXKXKXLXKXLXt KXKXKXKXKXKXKXKXKXKX  X   X JXKXKXKXKXJXKXJXX   KXKXKXKXKXKXKXLXo o o / / o     KXKXKXKXKXLXKXLX    o / / / / / ( / / ( ( / / o.      KXKXKXKXKXKXKXKXo   o       KXKXKXKXKXKXKXKX    KXKXLXKXKXKXKXLXo   o x m c x x g o o o LXKXKXKXKXLXKXKX    o t t o o   KXKXJXLXLXJXKXKX# X # # # X X   =.KXKXKXKXKXKXKXSXKXSXKXKXKXJXKXKXLXq     o KXKXKXKXKXKXKXLXI KXLXKXLXLXKXKXOX*   X   @ w w - * - - w e e e e e u u e q > > q q > * & & & % % % * * 3 % $ $ $ & $ # & & 3 3 3 3 3 3 3 3 3 & & & & & & & 3 3 3 3 & 3 3 3 3 3 3 3 3 3 3 3 3 3 1 1 2 3 3 & & & & & & & % % & & & & % % % % % % % % % % % % % % % % % % % % % % % % % % $ $ $ 6 7 t d V P R W ' o.%.=.j.",
"T Y T T T / _ #.#.#.$.$.8.d.d.P.P.P.L./././.-X-X-X-X-X-X-X-X-X-X-X-X-X-X*X-X-X-X|.|.|._._.J.).J.J.J.J.J.).).).).).).).).).).|.|.|.|.|.|.|. X X X X X X X X X X X X X X X X*X*X*X.     LXKXKXKXKXKXKXLX            KXKXLXKXKXKXKXKX  = SXKXJXKXKXKXLXKX    . dXjXjXjXjXIX. .   KXKXKXKXKXLXKXLX    $ HXJX#     KXKXKXKXKXJXKXJXX o o SXSX  o X L.KXLXKXJXLXSXKXKXKXKXKXJXKXJXLXKXKXU   o   KXKXKXKXKXSXKXSX# SXKXKXKXKXKXKXgXf     = g P x U U U       JXKXKXKXKXKXKXKX    KXKXKXKXKXKXKXJX        LXKXLXKXKXKXKXKX#   X JXKXKXKXJXKXJX#   O U E Y Y Y Y o     KXLXKXKXLXKXKXX SXKXKXKXKXKXKXKXKXKXo X   X JXKXKXKXKXJXKXJXX   KXKXKXLXKXLXKXLX  o o { / o     KXKXKXKXKXLXKXLX    o / ( ( ( / } ( / } ( ( / o.      KXKXLXKXKXKXKXKXo   o       JXKXKXKXLXKXKXKX    KXKXKXKXKXKXKXJX    o x U x c x x o o o LXKXKXKXKXLXKXKX    o t t   o o KXKXKXKXKXSXKXLX                L.KXKXKXKXLXJXKXKXKXKXJXJXKXSXKXKXKXU o     KXKXKXKXKXJXKXJX& fXKXKXLXLXKXKXfXU       @ > > - - w u w e e e e e e u u e > > > q q > * * * # # * * % $ $ $ % 3 3 & & % & & & 3 3 & & 3 3 & & & & & & & & 3 3 3 3 & & 3 3 3 3 3 3 3 3 3 3 3 3 1 1 2 & & & & & & & & & % % & & & & % % % % % % % % % % % % % % % % % % % % % % % % % % $ $ * 6 7 t d V P R W ' o.%.=.j.",
"T Y T T T / _ _ _ #.$.$.8.d.d.P.P.P.L././.OXOX-X-X-X-X-X-X-X-X-XOXOXOX-X*X*X-X-X|.|.|.|._._.).).J.J.J.).).).|.|.|.|.).).).).|.|..X.X.X.X|. X*X*X*X X X X X X X X X X X X X*X*X*X.   . LXKXKXKXKXKXKXLX            LXKXJXKXKXKXKXKX  = SXKXJXKXKXKXLXKX    . dXjXjXjXjXkX.     KXKXKXKXKXLXKXJX  . # =X8Xz & X KXLXJXKXKXKXKXLXX   * SXfX* o o =XKXLXKXJXKXKXKXKXLXKXJXKXKXKXKXLXKXo.X   o KXKXKXKXLXKXKXKX  L.KXKXJXKXKXKXKX*.      w x U Y U Y       JXKXKXKXKXKXKXKX    KXKXKXKXKXKXKXJX        LXKXLXKXKXKXKXKXX     JXKXJXSXKXKXKX#   # F ! E E Y Y o     LXKXLXKXJXKXKX  L.KXKXKXKXKXKXKXKXKXo X   o SXKXKXKXKXJXKXJXX   KXKXKXLXKXLXKXJX  o o { / o     KXKXKXKXKXLXKXKX    o o.O.( ( ( } ( ( O.( O.o.o.      KXKXLXKXKXKXKXKXo   o       SXKXKXKXLXKXKXKX    KXKXKXKXKXKXKXJX    o m U x x x x o o o LXKXKXKXKXLXKXKX      q q   o o KXKXKXJXKXLXKXKX    X q X * o o =XJXKXKXKXKXKXKXKXSXKXLXKXKXJXKXJXKXo.#     KXKXKXKXLXLXKXKX  H.KXKXKXKXJXKXLX=.      # > q q q q > q q q q q q q w > , q q > * * & * * % % % % * & # $ & & * # # # * & & & & & & & 3 3 3 3 & & 3 3 & 3 3 3 3 & & & 3 3 3 3 3 3 3 3 3 3 3 3 1 $ 2 & & & & & & & & & % % & & & & % % % % % % % % % % % % % % % % % % % % % % % % % % $ $ * 6 q t f F P R E ' o.%.=.j.",
"Y T T T / / / _ _ #.$.$.8.q.d.P.P.P.L././.OXOX-X-X-X-X-X-X-X-X-XOXOXOX-X*X*X-XOXOX|.|.|.|._.).).J.J.).).).|.|.|..X|.|.|.).|..X|. X|..X.X X X*X*X*X X X X X X X X*X X X X X*X*X*X.     LXKXKXKXKXKXKXLX            LXKXJXKXLXKXKXKX  = SXKXJXKXKXKXLXKX    . dXjXjXzXjXkX.     KXKXKXKXKXLXKXJX  X   y t   X . JXKXKXKXKXJXKXJXX   o #     X   SXJXKXKXJXKXLXKXKXJXKXJXKXLXLXKXLXKX=.#   o KXLXKXKXJXKXKXKX  Q KXKXJXKXKXLXKXL.=     & x Y Y Y Y       JXLXKXKXKXKXKXKX    KXKXKXKXKXKXKXJX        LXKXLXKXKXKXKXKXo   * KXKXJXKXKXLXKX*   # j { E E E Y o     KXKXLXKXJXLXKX  ! KXKXKXKXKXKXKXKXKXo X   o SXKXKXKXKXJXKXJXX   KXKXKXLXKXLXKXJX  o o { / o     KXKXKXKXKXLXKXKX    o O.+.} O.( O.( ( O.O.o.o.#.      KXKXLXKXKXKXKXKXo   o       SXLXKXKXKXKXKXKX    KXKXKXKXKXKXKXJX    o P U x x x x o o o LXKXKXKXKXLXKXKX      & &       KXKXKXSXKXJXKXKX    o #       o fXKXLXKXLXLXKXLXLXKXKXKXJXKXKXKXLXKX=.q     KXKXKXKXLXKXKXKX  I LXKXKXKXJXKXKXL.#     o * > q & X                     = > q * o                     . # & * .                       3 3 3 3 3 3 3 3 & & 3 3 & & & & & 3 3 3 3 3 3 3 3 3 3 3 % $ % & & & & & & & & & % % & & & & % % % % % % % % % % % % % % % % % % % % % % % % % % * $ % 6 y t k V F R E ' o.%.=.j.",
"Y T T T T / _ _ $.$.8.8.8.q.d.d.P.P.L.^./.OX-X-X-X-X-X-X-X-X-X-XOX-X-X-X*X*X-X-X-XOX|.|.|.).).J.).).).)._.|.|.|.).).`.).|.|..X X X X X X X X X X X X X X X X X X X X X X2X2X2X*X    o KXKXKXKXKXKXKXKX  #     o X =XKXLXJXKXKXKXKX  = KXKXSXLXKXKXLXsX*   . PXdXdXjXjXIX.     KXKXJXJXKXSXKXKX        >   #   KXKXJXKXKXJXKXKX    o X   X     LXKXKXKXJXKXKXSXKXKXKXKXKXJXKXKXKXKXfX    & KXKXLXKXKXKXKXKX  q gXJXKXKXKXJXKXJX#     O g E x / x X   * =XKXJXJXKXJXKXKXo o KXKXJXKXKXLXKX=X*   #   LXKXLXKXKXKXKXKXo   o LXKXKXKXKXKXKX      Q ! ^ E ^ ! o   o LXKXKXKXLXKXKX  o KXKXKXKXKXJXKXLXLXo o   # =XKXLXLXLXJXKXKX#   KXJXLXKXJXLXKX=Xo o O { #.  o   KXKXKXKXKXLXKXKX    o #.&.O.+.} O.O.( O.@.+.o.#.      KXKXLXKXKXKXKXKX  X   X     fXKXKXKXJXSXKXJXo X LXKXJXKXKXJXKXfXO   * Y x T m U U   o   KXKXKXJXKXKXKXJX=       q   #   JXKXKXSXKXLXKXKXX     X   X   t fXKXKXKXKXSXKXJXKXKXKXLXKXKXKXKXKXKXfX    X JXKXKXJXKXJXKXKX  q =XKXKXKXKXJXKXfXj     o # > * e     X *         * X     w e e       =   o     %   * X # q *   *       X .   3   #   & & & & & & 3 3 3 3 & & 3 3 3 3 & & 3 3 3 3 3 & & & & & & & & & & & & & & & & & $ % % & & & % % % % % % % % % % % % % % % % % % % % % % % % % % 3 % & 3 6 y d j P R ! ' o.%.*.=.",
"Y T T T T / _ _ $.$.$.8.8.q.d.d.P.P.L.^./.OX-X=X-X-X-X-X-X-X-X-X-X-X-X-X*X*X-X*X-X|.|.|.|.|._.).).).).).).).).).).).).).).|.|..X.X X X X X X X X X X X X X X X X X X X*X2X2X2X*X    o KXKXKXKXKXKXKXKX  #   X   # -XKXKXLXKXKXLXLX# & JXKXLXKXLXJXKXXXX . . dXjXdXkXjXIX.     KXLXJXJXKXKXKXSXq = # = j   o . KXLXSXKXKXKXKXSXw   X X # t   & KXLXLXLXLXKXKXfXJXLXKXfXKXKXKXJXJXKXSXX   # KXKXLXKXKXKXKXKX  # L.KXKXLXKXLXKXLXQ     o e E c Y Y o   * XXKXJXKXKXKXKXJX# # JXKXKXKXKXLXKXOX*       LXKXLXKXKXKXKXKXo   o LXKXKXKXKXKXKX      Q ! ^ E ^ ! o   o LXKXKXKXLXKXKX  o gXKXKXKXKXKXKXKXKXo     X L.KXKXKXKXKXKXLX# * KXLXKXKXLXLXKX-X- o O o.#.  o   KXKXKXKXKXLXKXKX    o #.&.+.O.O.@.@.} 1.@.+.o.$.      KXKXLXKXKXKXKXKX  X   X   o =XJXKXKXKXLXKXKX  # JXKXKXKXKXKXKXOXO   O Y Y T U U Y   o   KXKXKXKXKXKXLXfX# o # X f   X o KXKXKXKXKXKXJXSX# X   X X t   t JXKXJXLXKXLXKXfXJXJXSXfXKXKXKXKXJXJXSXX   X LXKXKXLXKXKXKXKX  # L.KXKXKXKXLXKXJXo.      X w q t       & o     o &     o e t e               # t     o # & *       f   X # o f   + X 3 3 & & & & 3 3 3 3 3 & 3 3 3 3 & & 3 3 3 3 3 & & & & & & & & & & & & & & & & & % % % & & % % $ % % % % % % % % % % % % % % % % % % % % % % % % & % & 3 6 y d j F R W ' %.%.=.j.",
"Y T T T / / _ _ $.$.$.8.8.d.d.d.P.P.L.^./.OX-X-X-X-X-X-X*X-X-X-X-X-X-X*X*X*X*X-X-XOX|.|.|.|.|.|.).)._.).).).).).).).).).).`..X.X.X X X*X*X*X X X X X X X X X X X*X*X*X*X2X2X2X2X    o KXKXKXKXKXKXKXKX  =   #     C.JXKXLXLXKXKXJX' o.SXJXJXKXJXKXLX*.  = X 8XcXjXzXjXIX.     KXKXKXLXLXLXKXKXfXKXKXSXfX& o   JXKXKXKXSXKXKXKXfXKXKXSXSXsXq P KXKXKXKXLXJXsXt & X # t sXLXKXKXKXKXSXe   X KXKXLXKXKXKXKXKX    ! KXKXLXKXKXKXKX-X      # E P U Y       =.JXKXKXKXLXLXKXo.o.LXLXKXLXKXKXLXC.X       LXKXLXKXKXKXKXKXo   o LXKXKXKXKXKXKX      Q ! ^ E ^ ! o   o LXKXKXKXKXKXKX  o =.KXKXJXKXKXKXKXKX        -.SXKXKXKXKXKXJXQ o.KXKXKXKXJXKXSX=.    O o.+.  o   KXKXKXKXKXLXKXLX    o #.&.O.@.@.<.4.@.4.1.#.$.&.      KXKXLXKXKXKXLXKX  X   X   o C.LXKXJXKXKXJXJX! ! KXKXKXKXJXKXKXo.o O   T / Y Y Y Y   o   KXKXLXKXJXLXKXKXIXKXKXSXfX& o   JXJXLXKXJXLXKXKXfXKXKXLXLXSX& I LXLXKXLXKXJXsXt * # * f sXJXKXKXJXKXSXt   X KXKXKXKXLXKXKXKX    o.KXKXJXKXKXKXKXOXX o   o q q t     f fXKXKXKXKXfXu   o e u u       KXKXKXKXKXSXj & X # # # X   & sXKXKXKXSXfX& # . 3 3 3 3 & 3 3 3 3 3 & & & & 3 3 & 3 3 3 3 3 3 & 3 & & & & & 3 3 & & & & & & & & & & & & & % $ $ % % % % % % % % % % % % % % % % % % % % % % % % & % * 3 q y d j F R E ' %.%.=.j.",
"T T T T / _ _ _ $.$.$.8.8.d.d.d.P.P.L././.OX-X-X-X-X-X-X*X-X-X-X-X-X*X*X*X*X*X*X-X-X|.|.|.|.|.`.|.|.|.|.|.|.|.|.`.`.|.|.).|..X.X X X X*X*X*X X X X X X2X*X*X X X*X*X*X2X2X2X2X3X    o KXKXKXKXKXKXKXKX  o   q     Q fXKXKXSXJXKXKXfXIXKXJXLXKXKXKXfXF   . $ 8XcXjXzXkXIX.     KXLXKXKXKXLXLXLXKXKXKXKXJX#     LXKXLXKXJXKXJXKXKXKXKXKXKXKX& *.KXLXLXKXKXKXsXo         gXKXKXLXKXKXJXI     KXKXLXKXKXKXKXKXo   q SXKXKXKXKXLXKXSX* o     x Y Y U       U fXKXKXSXLXLXKXSXSXKXKXKXSXKXKXgXU   o X   LXKXLXKXKXKXKXKXo   o LXKXKXKXKXKXKX      Q / / ^ ^ ! o   o LXKXKXKXKXKXKX  o j JXKXSXKXKXLXKXKX    X   U sXKXKXLXKXLXKXJXLXKXKXJXSXKXKXgX~     @ +.+.o o   KXKXKXKXKXLXKXKX    o $.8.#.1.1.1.9.1.9.8.&.&.&.      KXKXKXKXKXKXKXKXo o   #   o f SXKXJXSXKXKXKXKXSXKXKXLXLXJXKXSXg   o   / _ Y T Y Y   o   KXKXJXKXSXJXKXKXJXKXKXKXLX*   o KXKXJXKXJXJXLXKXJXKXKXKXKXKXX o.KXKXKXJXKXKXgX        X sXKXKXKXKXKXJXQ     KXKXKXKXKXKXKXKXX   t fXKXJXKXKXLXKXgX& X     & * &   o   SXKXKXKXKXSX      w t u       KXJXKXKXKXSXX   X * # X X   * KXKXKXKXKXKX#     3 3 3 3 3 3 3 3 3 3 & & & & 3 3 & 3 3 3 3 3 3 & 3 & & & 3 3 3 3 & & & & & & & & & & & & & $ $ $ % % % % % % % % % % % % % % % % % % % % % % % % % $ % 3 q y f j F U E ' o.%.j.j.",
"T T T T T / _ _ $.$.$.$.8.q.d.d.P.P.L././.OXOX-X-X=X=X=X=X-X-X-X-X*X*X*X*X*X*X*X*X-X|.|._._._.).|.|.|..X.X.X.X.X.X.X.X.X`.`.`..X X X X X X X X2X X<X2X2X<X<X<X<X*X*X*X2X2X2X2X3X    o KXKXKXKXKXKXKXKXo     P     & C.SXKXKXJXLXKXKXKXKXSXJXLXKXSXP.#     h dXdXjXzXkXkX.     KXKXJXKXKXKXKXSXSXKXLXKXJXX   X KXKXSXKXLXKXKXJXSXJXKXIXKXJX  C.KXKXJXKXKXKXfXq X t # # fXKXKXJXLXKXKX*.    KXKXKXKXKXKXKXKXX     OXKXKXKXKXJXKXKX!     o u U Y U = =   # C.JXKXKXKXJXKXKXKXKXJXKXKXKXSXC.X   = o   LXKXLXKXKXKXKXLX      KXKXKXKXKXKXKX      Q / / ^ / ^ o   o LXKXKXKXKXKXKX  o # fXKXJXKXKXJXKXKXo   #   * C.SXKXKXKXLXKXKXKXJXJXJXKXKXSXC.-     ; #.#.o     KXKXKXKXKXLXKXLX    o &.8.1.4.4.5.9.4.0.8.8.w.=.      KXKXKXKXKXKXKXKXX     q       H.KXKXKXKXKXKXKXKXKXSXJXKXKXKXC.=     O / / / T T T   o   KXKXJXKXKXKXKXKXJXKXSXSXSXo   # KXKXJXKXKXKXKXKXJXKXLXJXKXJX  C.KXKXKXJXLXKXfX* # q X & fXKXKXKXJXLXKX=.o   KXKXKXKXKXKXLXKX#   o L.KXKXKXKXJXKXLXQ     o # # &     o KXKXLXLXKXKXo     > e t       JXSXKXJXKXLX& o   * * # #     LXLXSXSXKXJXX   o & 3 3 3 3 3 3 3 3 3 3 3 & & & 3 & & 3 3 3 3 & & & & & & & & & & & & & & & & & & & & & & & $ $ $ % % % % % % % % % % % % % % % % % % % % % % $ $ % $ % 3 q y f k V U R ' o.%.=.j.",
"T T T T T / _ _ $.$.$.$.8.8.d.d.P.P.^./.OXOXOX-X=X=X=X=X=X-X-X-X*X*X*X*X*X*X*X*X*X*X X|.|.|._.).).`.`.`.`.|..X.X.X.X.X.X`.`.`.`. X X X X X X X2X2X2X2X2X<X<X<X<X*X*X*X*X2X2X2X3X    o KXKXKXKXKXKXKXKXo     *.X o   & L.KXKXKXKXJXKXJXLXJXKXKXSXD.g   X   -.IXqXjXzXkXcX.     KXKXJXLXLXJXKXKXKXKXLXKXLXX   X KXKXJXKXKXLXKXKXKXKXKXLXKXKX  -XLXKXKXKXLXKXsX          sXKXLXKXKXKXKXH.X   KXKXKXKXKXKXKXKXX     Q JXKXKXKXJXKXKX-X    # u c Y Y # #     u L.JXKXKXKXLXKXKXJXKXKXKXSXL.f     #     LXKXLXKXKXKXKXLX      LXKXKXKXKXKXKX      Q / / ^ / ^ o   o LXKXKXKXKXKXKX      OXKXKXKXKXLXKXKXX   X     j P.SXKXKXKXKXLXKXKXKXKXKXJXP.*   = O p &.&.o     KXKXKXKXKXLXKXLX    o &.q.8.9.9.9.9.5.0.8.8.w.w.      KXKXKXKXKXKXKXKXX     j o     q C.LXKXKXKXKXSXJXSXKXKXKXSX-X&   o O i _ / o.! T Y   o   KXKXKXKXJXLXKXKXKXKXKXKXKX#   X LXJXLXKXJXLXKXKXKXKXKXKXKXKXX -XKXKXKXLXJXKXsX          sXKXJXKXLXLXKXL.X   KXLXKXKXKXKXLXKX#     Q KXKXKXKXJXKXKXOX      # # q       KXKXKXKXKXKX      & q e       KXKXKXSXKXSX      * q % *   X KXKXKXKXKXKX#   X & & 3 3 3 3 3 3 3 3 & & & & 3 3 & & 3 3 3 3 & & & & & & & & & & & & & & & & & & & & & & & % $ $ % % % % % % % % % % % % % % % % % % % % % % $ $ $ $ % 6 r y f j F U E ' o.%.=.j.",
"Y T T T T / _ _ $.$.$.$.8.8.d.d.P.P.^./.OXOXOX-X-X-X=X=X=X-X-X-X-X*X*X*X*X*X*X*X*X-X X X X|.|._.|..X`.`.`.`..X.X.X.X.X.X`.`..X.X X X X X X X<X<X<X<X X X<X<X<X<X*X*X*X*X2X2X2X3X    o KXKXKXKXKXKXKXLXX   X OXt #     j L.gXJXKXKXKXKXKXLXLXsX/.u o   # 9 *XkXdXzXzXkXkX.     KXLXLXKXKXJXJXKXJXKXJXKXJX=   o LXJXKXKXKXJXSXKXJXJXKXLXKXKXX gXLXLXLXKXKXKXgXX X X X # gXKXKXKXLXKXKX&X#   KXJXKXKXLXKXKXKXo o   * fXKXJXKXJXKXKXSX>   = i F U x - X       u C.sXJXKXKXKXKXKXKXJX=X=.f     X X     LXKXLXKXKXKXKXKXo     KXKXKXKXKXKXKX    o Q / / / / ^ o   o LXKXKXKXKXKXKX      *.JXKXLXKXKXKXKXo   o     o t OXfXLXKXKXKXKXKXKXSXsXC.f     O ; Y x.=.o     KXKXKXKXKXLXKXLX    o &.q.8.0.0.r.9.9.t.8.8.q.w.      KXKXKXKXKXKXKXKX    X o.*   X   q C.SXKXKXKXKXKXJXKXKXsXC.y     o & T #./ _ / E T o o   KXKXKXJXKXKXKXKXKXLXLXLXSXo   X KXKXLXLXKXKXKXKXKXLXJXLXJXJXo sXKXKXKXKXKXKXgX= X X X o gXKXKXKXKXLXKX=X#   KXJXKXKXKXLXKXKX      & fXKXKXKXKXJXKXSX* o   # * q   o X KXKXKXKXKXKXo     & > w       LXJXKXJXKXKXX o X # & = o   # LXJXKXLXKXJXo     & & & & 3 3 3 3 & & & & & & & 3 & & 3 3 3 & & & & & & & & & & & & & & & & & & & % & & & & & % $ % % % % % % % % % % % % % % % % % % % % % % % % $ $ % 3 y y f k P R E ' { %.=.j.",
"Y T T T T / _ _ #.$.$.$.8.8.d.d.P.P.L./.OXOXOX-X-X=X=X=X=X-X-X-X*X*X*X*X*X*X*X*X*X*X*X X X X.X.X.X.X.X.X.X.X.X.X.X.X.X.X.X.X X X X X X2X2X<X<X X X X X X X X<X<X2X X*X X*X2X3X3X.   . KXKXKXKXKXKXKXLX=   * 8XI   X       t =.3XIXJXSXSX-X=.y     o   % K cXdXcXzXzXkXcX. .   KXKXKXJXKXKXLXKXJXKXJXKXJX#   . LXKXKXKXKXKXJXKXLXKXKXKXJXJXX SXKXKXKXKXLXJX=X  o       =XJXKXKXKXKXKXsX%   KXJXKXKXLXKXKXKXo X     sXKXJXKXLXKXKXKXP =   7 E U u g o X *     X u *.=XfXJXJXgX=X*.j #     o X o o   LXKXLXKXKXKXKXKXo     KXKXKXKXKXKXKX  o o ! / / / / / o   o LXKXKXKXKXKXKX      I fXKXJXKXKXKXKX      X X       j -.OXIXKXSXfX=X=.e       X   d / D.=.o     KXKXKXKXKXKXKXLX    o 8.q.9.q.0.t.9.9.t.9.q.C.q.      KXKXLXKXKXKXKXKX    & =.q o         e =.=XfXJXKXfXsX=.w #   # X   - #.$./ ! / / Q o o   KXKXKXJXKXLXJXKXKXKXKXKXLX#   o SXKXKXLXKXLXJXLXKXKXKXKXKXKXX SXKXKXKXKXKXLX=X      o   sXKXJXKXKXKXKXsX#   KXJXKXKXKXJXKXKX  o     &XKXJXKXKXSXKXKXU #   # * q   X   KXKXKXKXKXKX      & > q       KXKXKXSXKXKX    X X q & X   * JXLXKXLXLXSXo   X & & & & 3 3 3 & & & & & & & & 3 & & 3 3 3 & & & & & & & & & & & & & & & & & & & $ % & & & & & % % % % % % % % % % % % % % % % % % % % % % % % % $ $ % 3 y y f k U R E ' { %.=.j.",
"Y Y T T T / _ _ $.$.$.$.$.d.d.C.P.P.L.XXOX-X-X=X=X=X=X=X*X-X-X-X=X*X=X*X=X*X*X*X*X*X X X.X.X.X.X`.`..X.X.X.X`.).`.`..X.X.X.X.X X X X X*X X<X<X<X<X<X<X<X<X<X<X<X2X2X2X*X2X2X3X3X.               .     =   # 8XsX~ %     . o . .         . . . . # . .  .eXcXxXkXmX8XHXdX+   3                                                               o                   o o o o                         . .           o     o o     o o   X   o p U g e w - @         X                           >   X                                     o   o o ^ { / / / ! O                       o                       q     X                 o     o o o o : 0.#.&.o.O   o               o o o O #.q.8.0.t.t.9.t.q.t.$.C.w.o                     =     C.w.e X o       o         o       o o   o w / $.O./ / E / / o   O o                                                                                                                                                   X     X * # X o                   X * w &                         * q * o                       3 3 3 3 3 3 & 3 3 3 3 3 3 3 3 3 & & 3 3 3 & & & & & & & & & & & & & & & & & & & % % & & & & $ $ % % % % % % % % % % % % % % % % % % $ % % % % % $ $ & q y y h V F R ! ' { %.*.=.",
"Y T T T T / _ _ $.$.$.$.$.d.d.C.P.P.E./.OX-X-X=X=X=X=X*X*X-X-X-X*X*X*X*X*X*X*X*X*X*X X X X.X.X.X.X.X.X.X.X.X.X.X.X.X.X.X.X.X X X X X X*X X*X<X<X<X<X*X*X*X*X X*X2X2X2X2X*X2X3X3X.               + .   .   = gXHX|. .l =                       . . 9 ..2XcXcXjXdXcXwXDXgX$   #                                                                                   o o             . .         . .                   o o o         o o   o i k u i p u e - =       o o o o o o o o X     # g Q =                                           o O { +./ { +./ o     X o o o o     o o o               X     = ! U &                     o o o o : c } 1.8.q.#.O     o             o o o O 8.Z.t.0.q.q.q.t.8.t.q.D.$.o o o             o   O   O P./.=.w * o       o O             o o O c #.&.o.{ { ( { / / o   o   o o o o o o X o o                                                                                                                                       # - #                       o & e & o             o o . .   # q # o                       3 3 3 3 3 3 & & 3 3 3 3 3 3 3 3 & 3 3 3 3 & & & & & & & & & & & & & & & & & & & % % & & & & $ $ % % % % % % % % % % % % % % % % % % $ % % % % % $ $ % 3 r y f j V R ! ' { %.*.l.",
"Y T T T / / _ _ $.$.$.$.$.d.d.C.P.P.L./.OX-X-X-X=X=X=X*X*X*X*X-X*X*X*X*X*X*X*X*X*X*X*X X X.X.X.X.X.X X X X.X.X.X.X.X.X.X.X.X.X X X X X*X*X*X*X*X<X<X*X*X*X*X<X X2X2X2X2X*X2X2X3X+ . . . + + + +   . . = + 9 *XdXHXdX|.%.l $ + . + + . . + + + + h. XjXNXzXdXjXzXcXdXzX3X0 . + . . . . . . . . . . . . . . . . . . . . . . . . . . . . . . . . . . . . . . . . . X X o . . . . . = + . . .       + . . o X X o   o O O o o o o o o o   o - - - w u p g p i > * @                   O i Y / / O               o   o   o           o o o   O O E / } } } ^ O     o o o o       o o             o o o o o * { o.Y c o o o o o o o o   o o * u ^ 1.t.@.9.9.O.: o   O   o o o o o o o o O O.8.8.8.q.q.9.t.8.t.Z.D.$., o                 o o   O 8.G.K.S.$.T i O o       o o o O O ; ; / 8.c.&.O.#.@.} #./ / O o o   o                 o o o o o o o o X o                                             o o                             o o o           o o o o o     o o o O - - * X o                 o O - e > X o X                 X * & # X X X .                 3 3 & & & & & & & 3 3 3 3 3 & & & & 3 3 3 3 & & & & & & & & & & & & & & & & & & % % & & & % $ $ % % % % % % % % % % % % % % % % % % % % % % % % $ $ % 3 q y a h V U E ' { %.=.=.",
"Y T T T / / _ _ $.$.$.$.$.d.d.C.P.P.L./.OXOX-X-X=X=X*X*X*X*X*X*X*X*X*X*X*X*X*X2X*X*X*X X X.X.X.X.X X X X X X.X.X X.X.X.X.X.X.X.X X X X<X*X*X*X<X<X<X2X*X<X<X<X<X2X2X2X2X2X2X2X3X2X3X3X3X3X8X8X8X8XdXdXdXkX8XHXcXdXdXkXdX8XgXdXdXdXdXdXdXdXdXdXdXjXzXkXwXqXdXzXcXzXxXNXGXqXdXcXIXcXcXcXcXcXcXcXcXcXcXcXcXcXcXcXcXcXcXcXcXcXcXcXcXPXPXPXPXPXPXPXPXcXcXcXcXcXcXcXcXSXSXcXcXkXkXkXjXqX8X3X*X|._.J.J.o.Q U j x U m M M M M m c c c c Y Y U c c p u g i p g c x x m P ^ ^ / / / / / / ^ ( +.+./ #.E O.} } { { { } } } } } } { { { } { o.{ { / / E &.+.} { } &./ #.+.#.+.+.+.o.o.o.+.+.#.#.#.#.#.#.#.#.#.&.#./ 8.&.&.#.&.&.&.&.4.4.&.&.&.$.#.#.8.c.q.1.@.9.8.t.O.&.$.w.q.q.q.q.q.q.q.q.Z.8.T.D.D.q.q.8.8.d.q.t.Z.d.d.O.S.S.S.S.S.G.G.G.E.Q.T.D.q.XXS.E.Q.E.D.D.D.Z.D.S.D.D.D.d.q.q.D.Z.G.q.&.@.4.1.O.O.( / #.T { o.o.$./ / / / / / ! Q Y Y U m x x c x g u e w w w w w > > - > > > - & * * & & & - > > - - - - - * * * w w w w w w w w - - - & * * * * & & & & & & & & > & * - - * * - > > - - * * * * * * - > > * & w u t t t t q q q # & & # # # $ # % $ $ & & & & & 3 & & & & & & & & 3 3 3 3 3 3 & & & 3 3 3 3 & & & & & & & & & & & & & & & & & & % % & & & % $ $ % % % % % % % % % % % % % % % % % % % % % % % % & $ & 3 q y a k V U E ' { %.=.j.",
"Y Y Y T T / _ _ #.$.$.$.$.d.d.C.P.P.L./.OXOX-X-X=X=X*X*X*X*X*X*X*X*X*X*X3X3X3X3X*X*X X X X.X.X.X X X X X X X X.X X X.X.X.X.X.X.X X X<X<X<X2X<X<X<X<X<X<X<X<X<X<X2X2X2X2X2X2X2XeX9XeX8X8XqXqXqXqXqXdXqXqXzXqXjXqXwXdXjXdXdXzXNXcXkXkXkXkXkXkXkXzXjXdXdXjXzXmXzXjXjXjXwXcXjXPXcXcXPXDXHXHXHXDXDXDXDXHXHXDXHXDXDXDXDXDXDXDXDXDXDXDXGXGXGXGXGXGXGXGXGXGXGXGXGXGXGXGXHXHXHXDXNXNXmXmXjXdXqX2X X_.F.C.J.=.;.~ T / / / / / ^ T Y Y Y Y Y T Y g i i i i g c c x U Y Y E ^ ^ ^ ^ / / / / } ( Y ^ ^ @.} 6./ / / / / / / / / / / / / / / / +.+.#.+.@./ @./ @.{ ^ +./ #.+./ { { { { { { { { } +.+.+.+.+.+.@.O.1.4.( 0.4.4.+.1.1.4.4.4.4.4.4.&.8.8.&.@.4.0.r.9.r.<.9.8.q.8.w.q.q.q.q.q.q.q.q.D.1.q.#.q.9.t.q.8.d.d.d.t.t.S.U.t.q.t.D.D.Z.Z.Z.D.S.S.Q.E.!.C.S.K.G.S.K.T.E.T.S.G.D.D.d.q.q.q.q.D.8.8.t.q.O.} @.O._ &./ &.O.O.+./ / / / / ! T Y / / / ! T T Y T U x c g p u u u e w q q q w q q - - > > q w q q > > > > > - - - & & & & * * * * w q w - & & & & q q z z > q q q e w > - - - > e w w > > - - - - - - - > q w e u t t t q q & * * z z & * * & & & & & 3 3 3 3 3 3 & & & & & & & & & & 3 3 3 3 & & & & 3 3 3 3 3 & & & & & & & & & & & & & & & & & & & & & & & $ $ % % % % % % % % % % % % % % % % % % % % % % % % 3 & & 3 q y a h V U R ' { %.=.j.",
"Y Y Y T T ! _ _ o.#.$.$.=.d.d.C.P.P.L./.OXOX-X-X=X=X*X*X=X=X*X*X*X*X*X*X3X3X3X3X2X*X*X X X X.X.X X X X X X X X X X.X.X.X.X.X.X.X X<X<X<X2X2X2X2X2X<X<X2X<X<X2X<X2X2X2X2X4X4X9X9XqXqXqXqXwXwXwXdXjXjXjXqXkXwXzXzXcXxXzXjXwXdXjXqXjXjXdXjXjXjXjXjXjXhXcXNXmXjXjXjXVXVXzXNXkXNXjXjXcXcXcXcXcXcXmXcXcXcXcXcXcXcXcXbXmXmXmXmXmXmXmXmXZXZXZXZXZXZXZXZXVXVXVXVXVXVXVXNXNXcXcXcXzXjXhXhXvXhXwXqX2X X_.J.C.#.T U m m M M M M c c c v c c x Y Y p i p c c c c c Y Y Y T T ( ( ( ( ( ( } } ) ( ( 4.@.4.( ( } } } } } } } } } } } } } } } } / / { / @./ @.} } } / @.( #.+.+.+.+.+.+.+.+.+.+.+.@.@.@.@.#.@.@.O.1.5.} 5.<.4.@.5.4.5.4.5.4.5.4.9.9.8.4.4.9.9.9.9.r.5.c.8.Z.q.q.q.q.q.q.q.q.q.q.9.9.Z.9.Z.q.t.d.q.t.t.Z.Z.Z.Z.Z.Z.Z.S.U.U.T.T.T.T.Q.S.Q.Q.+XS.Q.W.Q.Q.Q.T.T.S.Z.S.D.D.D.Z.S.S.S.0.q.0.9.8.1.1.4.#.+.&.( 8.O.@.#.O.+._ _ / / / / Y Y Y U x x c m m x g p u i w w q > & & > > & * & & & & & & - - - - - - - * * * & & & & & & & & - - - & # # # * & * * * * * & & > - - - & - - - - - * * * * * * * * - , e e t t e e t t t q q q & & * * * * & & $ $ $ $ $ % % % 3 3 & & 3 & & & & & 3 3 3 3 & & & & 3 3 3 3 3 3 & & & & & & & & & & & & & & & & % & & & & & $ $ % % % % % % % % % % % % % % % % % % % % % % % % 3 & & 3 q y a k V U R ' ' %.=.=.",
"Y Y Y T T T _ _ o.#.$.$.=.d.d.C.P.P.E./.OX-X-X=X=X=X=X=X=X=X*X*X*X*X*X*X3X3X3X3X2X2X*X X X X X X X X X X X X X X X X.X.X.X X X X X<X<X2X2X2X2X2X<X<X2X2X2X<X2X2X2X2X2X2X4X9X9X9X4X4X9X9XqXqXqXqXwXwXjXqXjXwXjXzXwXwXjXjXjXcXmXjXjXjXjXjXjXjXhXjXjXjXjXjXwXwXjXbXtXhXtXmXjXNXcXNXNXNXDXNXNXVXVXVXVXVXVXVXVXVXCXCXCXCXVXCXCXCXCXCXFXFXFXFXFXFXFXFXFXFXDXDXDXDXDXDXDXDXDXVXNXMXbXbXhXyX0X9X2X X|.J.C.=._ T T T T Y Y Y M M M M Y Y Y Y H p i i i i c c Y Y T ^ ^ / / / ( ( ( ( ( ( } <.} <.( } ( <.} } } } } } } } } } } } } } ( ( 4.@.&.} @.} } } } } } 4./ +.} @.+.+.+.} +.+.+.+.+.+.+.O.O.@.@.@.} <.5.} <.} 5.r.<.<.<.<.<.<.<.1.9.1.1.9.t.t.5.3.e.e.9.Z.<.t.q.q.c.c.t.t.c.t.c.D.8.q.Z.q.U.q.q.t.Z.r.d.Z.Z.Z.Z.q.Z.Z.Z.S.U.U.T.T.Q.W.S.Q.S.Q.U.Q.T.T.U.Q.W.!.W.Q.Q.T.S.S.S.S.Z.D.S.Z.q.1.1.0.0.8.8.8.1.( 8.@.8.@.O.( ( ( / / / / / / ^ T Y Y T Y Y Y U m x c c g f u e e u u e w e e e e e e e e e e u u e w w w & & & & - - - - i i i w - - - w q q q q q q t t * * * * - - - * e w , > - > > > * * - - w e e w e e e e t e q q * * * * * % * & 3 q 6 6 q q q q 3 3 3 3 3 3 & & & & & 3 3 3 & & 3 3 3 3 3 3 3 3 & & & & & & & & & & & & & & & & % % & & & % $ $ % % % % % % % % % % % % % % % % % % % % % % % % & $ $ & 3 r a k V R R ! ' %.-.-.",
"Y Y Y T T T _ _ _ #.$.$.=.d.d.C.P.P./.OXOX-X-X=X=X=X=X=X=X=X*X*X*X*X*X*X3X3XeXeX2X2X2X2X<X X X X X X X X X X X X X X X X X X X X X<X<X2X2X2X2X2X<X<X2X2X2X<X<X<X<X2X2X2X4X4X9X9X9X9X0X0XrXrXrXtXjXwXzXwXkXjXhXhXbXjXjXjXtXtXhXhXhXhXhXhXhXhXhXhXhXhXhXhXzXmXmXbXbXmXhXmXkXNXkXkXNXNXNXNXNXMXMXNXNXNXNXZXZXZXZXZXZXZXZXZXZXZXVXVXVXVXVXVXVXVXVXVXVXVXVXVXVXVXVXVXVXVXNXNXMXbXbXvXnXhXtX0XeX*X X|.s.$.! m M M M M M M c c c c c M Y c v v i v c c H Y Y Y ^ / ( O.( ( ( } } } } } <.} ) <.} 2.} @.} } } } } } } } } } } } } } } } } } @.( <.} } } } } } 4.} @.} @.O.O.O.O.O.O.O.O.@.@.@.@.@.@.<.@.4.<.<.} r.<.4.} 5.5.5.5.5.5.5.5.9.9.r.t.e.2.9.v.r.5.5.Z.<.t.t.8.0.0.9.9.9.9.0.0.Z.Z.q.1.S.q.D.t.Z.r.Z.Z.t.Z.U.t.Z.Z.Z.U.U.R.R.W.W.!.Q.!.U.W.W.Q.W.Q.Q.Q.Q.Q.U.Z.T.T.S.S.T.T.U.S.Z.S.U.Z.9.1.1.9.8.9.8.O.t.8.9.@.#.O.O.( _ ( _ ( / ^ Y Y Y c c c Y Y U m m x x g f t w e e u w w w w w w w w w w w w w w w > - - & & - - 6 6 w w w e w - * * & - - & & & & > q q > - & * - > > - w > - - & - - > , > - * - w e e t t t t t q q & * * * & * # % & $ $ $ % % & & & 3 3 3 3 3 3 & & & & 3 3 3 3 & & 3 3 3 3 3 3 3 3 & & & & & & & & & & & & & & & & % % & & & & $ $ % % % % % % % % % % % % % % % % % % % % % % % % % $ $ & 3 q a j V R R ! ' %.-.-.",
"Y Y Y T T / _ _ #.$.$.$.$.d.d.C.P.L.^./.OX-X=X=X=X=X=X*X=X*X*X*X=X*X*X=X3X3X3X2X2X2X2X2X<X X X X<X X X X X X X<X X X X.X.X.X X X X X X<X<X<X<X<X2X2X<X<X<X<X2X2X<X<X2X2X4X9X9X9X9X9X9X0X0XrXiXiXtXtXjXjXyXjXjXjXhXhXkXzXhXhXjXhXhXhXhXhXhXhXhXhXyXhXlXlXzXzXzXlXvXvXvXbXbXmXvXvXmXmXmXNXMXMXMXMXMXNXNXNXMXMXVXVXVXVXVXVXCXVXVXVXCXCXDXDXDXCXVXVXDXVXVXVXVXVXBXMXVXVXVXNXMXMXbXnXuXyXhXtX9X2X`.N.C._ Y m m M Y M M M c M c v c Y Y c c c c c c v H H Y Y / ( ( ( } ( ( ( } } } } @.@.} } } } } } } } } } } } } } } } } } } } } O.} } } } } } } } } } } } } @.<.<.} O.O.O.O.} } } O.@.@.@.@.@.<.<.4.4.<.<.<.<.<.<.5.5.5.<.4.5.5.9.4.9.9.e.e.e.e.e.2.5.e.r.r.e.9.9.e.e.9.9.r.y.t.t.t.t.t.t.t.t.d.Z.d.Z.Z.Z.Z.Z.Z.I.Z.Z.I.I.U.R.R.!.W.T.R.W.W.T.T.W.!.Q.W.Q.W.W.R.W.Q.Q.T.U.A.A.S.S.A.A.Z.c.t.0.9.9.t.q.q.9.9.9.9.9.8.O.( O.@.#.+.( / T Y T Y M c m Y m c c x U m m F k f u g g u e w w e e w w e e e e u i e w w w - - & * - w w - w e e - - - w - w > - > q e w q - * * - - - - , , > - - - - > > , - - - , e e e t u u t e q > & & * * * * * & & & & & & 3 3 3 3 & & & & & 3 3 3 3 3 3 3 & & 3 3 3 3 & & & & & & & & & & & & & & & & & & & & & & % % & & & & $ $ % % % % % % % % % % % % % % % % $ % % % * & & & $ $ $ & 3 y d h V R Q ! ' %.-.-.",
"Y Y Y T T / _ _ #.$.$.$.$.w.d.P.P.L.L./.OX-X=X=X=X=X=X=X=X*X*X*X=X*X*X=X3X3X3X2X2X2X2X2X<X X X X<X X X X X X X<X X X X X.X.X X X X X<X<X<X<X<X<X2X2X2X<X<X2X2X2X<X2X2X2X4X9X9X9X9X9X0X0XrXrXiXiXtXtXjXyXjXjXjXhXhXhXhXkXhXhXhXhXhXhXhXhXhXhXhXhXyXhXlXlXzXzXzXlXlXvXvXvXbXmXmXmXmXmXmXMXMXMXMXMXMXNXNXNXNXNXVXVXVXVXVXVXCXVXVXVXDXDXDXDXDXDXVXVXDXDXVXVXVXVXBXBXVXVXVXBXMXMXbXnXbXhXyXwX2X X).h.o.! U U M M M M M M M M M M M Y Y c c c c c v v Y Y Y ^ / ( ( } } } ( } } } } <.@.} } } } } } @.O.} O.@.O.} } } O.} } } } } } } @.} } } } } @.@.@.} } } @.@.@.@.@.@.@.@.@.@.O.} @.@.@.@.<.<.<.<.4.4.<.<.<.<.4.4.5.5.5.5.5.5.5.9.5.9.e.e.e.e.e.e.5.e.r.y.y.r.t.t.e.e.9.e.y.t.t.t.d.t.t.t.t.t.t.Z.Z.Z.Z.d.Z.Z.I.Y.Y.Y.Y.U.U.R.R.R.W.R.W.!.!.W.W.W.!.Q.W.Q.Q.W.R.W.Q.Q.T.T.U.U.U.U.S.A.Z.Z.t.t.t.c.t.t.t.q.q.t.q.q.9.@.O.#.1.#.O._ / / / / Y m x c c c g g c x m m E Y U P x g i e w w w e e w - & e e i i e w w - w - * * 6 e e 6 w e e w - - > - - & & > w q w > > * * - - - - , , > - - - - - - > - - - > w w w e p f u t e q & & * * $ * * & * * & & & 3 3 3 3 & & & & 3 3 3 3 3 3 3 3 & & 3 3 3 3 & & & & & & & & & & & & & & & & & & & & & & % % & & & & $ $ % % % % % % % % % % % % % % % % $ $ $ $ * * * % $ $ $ & 3 y a k V P W Q ' o.-.-.",
"M M Y T T / _ _ o.$.$.$.=.d.C.P.P.L.L.L.OX-X=X=X=X=X=X=X=X=X*X*X*X*X3X3X3X3X3X2X3X2X2X2X2X<X<X X X X X X X X X X X X X X.X.X X X X<X<X2X2X2X2X<X2X2X<X<X2X2X2X2X<X<X2X4X4X4X9X9X9X0X0XrXrXrXiXiXyXyXjXjXjXjXjXjXhXhXhXkXlXlXlXhXhXhXhXhXhXhXhXhXjXjXlXzXlXlXlXzXlXlXzXvXbXmXmXNXNXmXNXNXZXZXZXZXNXZXZXZXZXZXVXDXZXVXZXZXVXVXCXDXDXDXDXDXDXDXDXDXDXDXDXVXVXVXVXBXVXVXVXMXMXMXbXnXbXyXwXqX2X`.N.-.o.T T T Y M M M M M M c M Y Y c c c c v v c c Y Y ^ ) / ( ( } } } } } } } @.@.@.} O.@.@.@.@.@.<.O.O.O.@.O.O.O.O.O.O.} } } } } } @.@.} } } <.<.<.<.<.<.<.@.@.@.<.@.@.<.<.<.@.@.O.@.@.@.<.<.<.<.<.1.1.<.<.4.4.4.6.<.4.4.5.5.5.0.9.9.9.e.e.e.e.e.e.e.r.y.y.t.y.y.y.y.r.e.r.y.y.t.t.y.d.t.t.t.t.t.t.Z.Z.Z.y.v.Z.Y.~.~.R.~.U.U.U.R.R.W.W.Q.!.!.!.!.!.!.R.W.Q.Q.W.R.W.Q.Q.Q.Q.Q.T.T.T.U.S.S.Z.Z.Z.Z.Z.Z.Z.Z.Z.D.Z.Z.D.q.8.$.8.8.&.+.o._ / / / T Y x m x c g p p p c c P Y E E U c g g u u i i u i w 7 e e u u u e w w e 6 * * 6 u u w w i u e > > - - * * - > q q > > , - * - - - > , , > - - * * * - , - - - > , w w e p g g f u e > & * $ # % * * % * * & & & & & 3 & & 3 3 3 3 3 3 3 3 & 3 & & 3 3 3 & & & 3 3 & & & & & & & & & & & & & & & & & & % & & & & % $ $ % % % % % % % % % % % % % % % % $ $ $ $ $ $ $ $ $ $ $ & 3 y a k V P R W ' o.%.-.",
"M M T T T T / _ _ #.$.$.=.d.C.P.P.L.L.^.XX-X-X-X=X=X=X=X=X=X*X*X*X=X3X3X3X3X3X3X3X2X2X2X2X<X<X X X<X X X X X X X<X<X<X X X X X X<X<X2X2X2X2X2X2X2X2X2X2X2X2X2X2X<X<X4X4X4X4X9X9X9X9X0XrXrXrXtXtXyXyXhXhXhXhXjXhXhXhXhXkXzXzXlXlXlXlXlXlXlXlXhXhXjXhXlXzXlXlXlXzXlXzXzXzXmXmXmXNXmXNXNXZXVXZXZXZXNXNXZXZXZXZXVXVXZXZXZXZXVXCXCXDXDXDXDXDXDXDXDXDXDXDXDXDXVXVXVXBXVXVXVXMXMXMXbXnXlX0XqX9X X).N.j.o.! T T Y M M c c M M c c M c c c c c v c c Y E ^ ^ / ( } } ( ( } } } } } @.<.<.} O.@.<.<.<.<.<.<.<.@.@.O.O.@.O.@.O.O.O.} } } } @.<.} } @.@.<.<.4.4.<.<.<.<.<.<.<.<.<.<.<.<.@.@.<.<.<.<.<.<.1.1.<.<.<.<.4.4.6.5.<.4.6.0.0.0.0.9.9.9.e.e.e.9.9.9.e.r.y.y.t.y.y.t.y.y.r.y.t.y.y.y.Z.y.d.t.t.t.t.t.y.d.d.Z.Z.I.Y.~.~.R.~.U.R.T.R.R.W.W.!.!.!.!.!.!.!.Q.W.W.W.R.W.W.Q.Q.Q.Q.Q.Q.Q.T.T.T.T.S.A.Z.D.Z.Z.Z.Z.S.S.S.A.Z.q.q.q.w.8.&.#.+.O.( / / / T U m Y m c p i i u p p c P U U U U U F g u i u g g g i u u p g p i e w w 6 - 6 w e w w e i e w - - - - - > w e e w w , - * * * - > , > > - - * - * - , , > > > , , w e p g g f f t q & * % # # * % $ * * & & & & & & 3 3 3 3 3 3 3 3 3 3 & & & & 3 3 3 & & & 3 3 & & & & & & & & & & & & & & & & & & % % & & & % $ $ % % % % % % % % % % % % % % % % $ $ $ $ $ $ $ $ $ $ $ & 3 y a f h K I Q ' o.%.*.",
"M M T T T T / _ _ #.$.=.=.d.C.C.P.L.L.OXOX-X-X=X*X*X=X=X=X*X*X*X*X=X3X3X3X3X3X3X3X2X2X2X2X<X<X X<X<X<X<X<X<X<X<X<X<X<X<X<X X X<X<X<X2X2X2X2X2X2X2X2X2X2X2X2X2X2X2X2X4X4X4X4X9X9X9X9X0X0XrXrXtXtXyXjXjXhXjXjXkXjXjXjXjXzXzXlXlXlXlXlXzXlXjXlXjXlXjXlXlXlXjXlXlXxXlXzXzXzXbXmXNXNXNXNXNXZXZXZXZXZXmXNXZXZXZXZXNXZXZXZXZXZXVXZXCXCXDXDXDXDXDXDXVXVXDXDXDXVXVXVXVXVXVXVXBXMXMXMXbXlXyX0X0X9X X).F.M. .I P U m m c c c M M c c M c p c c c c c c Y ^ ^ / ( ( ( ( ( ( } } } } } <.<.<.} <.<.<.<.<.4.4.1.<.<.@.@.@.@.<.<.<.@.O.O.O.O.O.} } @.@.@.@.@.@.<.<.<.<.<.<.<.<.<.<.<.<.<.<.@.@.<.<.1.1.1.1.1.1.<.<.<.<.<.4.5.5.<.<.5.0.e.e.0.9.9.9.9.9.9.u.u.9.e.r.y.y.y.r.t.t.y.t.y.y.y.y.y.y.d.d.d.d.d.d.d.t.t.d.Z.I.U.U.U.U.R.U.U.T.R.W.R.W.!.!.!.!.!.W.W.Q.W.Q.W.W.W.Q.W.W.Q.Q.Q.Q.Q.Q.T.U.S.U.T.T.T.S.S.S.S.S.S.S.G.S.S.D.x.C.x.w.w.&.#.#.o./ / / / / T m Y m x p i w i i p g c c x P P U Y x g u d g g g i i i u g p u e 7 e u e 7 7 w w - w e e > - * * > , w e w w w w > ; ; * ; ; - > , , > ; ; ; ; - , , , , w w w e e u g g g p t q & & * % * * % $ * * & & & & & & 3 3 3 3 3 3 3 3 3 & & & 3 3 3 3 3 3 3 3 3 & & & & & & & & & & & & & & & & & & & & & & & & & $ $ % % % % % % % % % % % % % % % % $ $ $ $ $ $ $ # $ $ $ & 3 r y f j V I Q ! o.*.*.",
"M M T T T T / _ _ #.$.$.=.d.C.C.P.L.^.OXOX-X-X-X*X*X*X*XUX*X*X*X*X=X3X3X3X3X3X3X3X2X2X2X2X<X<X<X<X<X<X<X<X<X<X<X<X<X<X<X<X<X X<X<X<X2X2X2X2X2X2X2X2X2X2X2X2X2X2X2X4X4X4X4X4X9X9X9X9X0XrXrXtXtXtXyXjXjXhXjXjXkXjXkXjXkXkXzXzXlXlXzXzXzXzXzXxXzXzXxXlXlXlXlXlXlXxXxXxXzXzXmXcXNXNXNXNXNXNXZXZXZXZXmXNXZXZXZXZXZXZXZXZXZXZXZXZXCXCXCXDXDXDXDXDXVXVXDXDXDXVXVXVXVXVXVXVXVXmXMXMXbXvXyXyXwX9X X|.J.j.' U :.m m m M c c M Y M c c x c c c c c c Y Y ^ ^ / ( } ( ( } } } } } } <.<.<.<.} <.<.<.<.4.4.<.1.<.<.@.@.@.<.<.<.<.@.@.@.@.<.<.} } @.@.@.@.@.@.@.@.@.@.<.4.4.6.<.<.<.<.<.<.@.@.1.1.1.1.1.1.1.1.<.<.<.<.<.<.4.5.<.4.5.0.e.e.9.9.9.9.9.9.9.9.9.e.e.r.t.t.r.e.r.r.y.y.y.y.y.y.y.y.y.d.Z.Z.Z.Z.d.d.y.Z.Y.U.U.U.U.U.U.U.T.R.W.W.!.!.!.[.[.W.W.W.Q.Q.W.W.Q.W.!.Q.W.Q.Q.W.!.!.W.Q.T.T.A.S.T.E.Q.T.T.E.T.K.G.K.T.K.G.S.D.D.D.w.w.=.&.#.#._ / ! / _ ! U U m c p i e w w p u u g g c x P Y U x c c x g p i i i i u u i e w u g d e w w e - - w w > * * - > > w q > > > , - > - * ; ; > - , , , , > > > - , , e e w e e u e p g g p p t q q & * * * * * $ * * % & & & & & 3 3 3 3 3 3 3 3 3 & & & & & 3 3 3 3 3 3 3 & & & & & & & & & & & & & & & & & & & % & & & & & $ $ % % % % % % % % % % % % % % % % & % % $ $ $ $ $ $ $ & & 3 r y a k V I I ! o.*.=.",
"M M T T T T T _ _ #.$.$.=.d.d.C.P.L.^.OXOX-X-X-X*X*X*XUXUXUX=X*X*X3X3X3X3X3X3X8X3X3X2X2X2X<X<X<X<X<X<X2X2X<X<X<X<X<X2X<X<X<X X X<X<X2X2X2X2X2X2X2X2X2X2X2X2X2X<X2X4X4X4X4X4X9X9X9XqX0XwXwXtXtXtXtXyXjXjXjXjXjXjXkXkXzXzXzXzXhXjXjXzXzXzXxXxXxXxXxXxXxXxXxXxXxXxXxXxXzXcXcXcXcXcXcXNXNXNXZXZXZXZXmXZXZXZXZXZXZXZXZXZXZXZXZXZXCXCXCXCXDXDXDXCXVXVXVXVXVXVXVXVXVXVXVXVXVXNXNXMXMXbXvXjXtX9X2X*X_.j.! I U U m x x x c M Y M x c c c c c c c Y Y E ^ / ( } } ( ( } O.} } <.<.<.<.<.<.3.<.<.2.5.<.<.<.2.1.<.<.O.<.<.3.<.<.<.<.<.<.<.<.} @.@.<.<.4.4.&.&.@.@.@.<.<.4.4.1.1.1.1.1.<.@.@.4.4.4.1.1.1.1.1.5.5.5.<.<.5.5.5.5.5.5.e.e.e.9.9.9.9.9.9.9.9.r.y.r.r.y.r.r.e.r.t.d.t.t.y.t.y.y.y.y.y.Z.Z.Z.Z.Z.Z.Z.I.Y.U.U.Y.U.U.R.R.R.W.Q.W.!.!.!.+X+XW.W.!.W.Q.Q.Q.Q.!.!.W.Q.Q.W.Q.!.Q.Q.Q.Q.Q.E.Q.Q.E.E.E.Q.Q.Q.Q.E.T.E.T.G.K.H.H.D.w.w.w.w.&.#.#._ / / _ / T Y m x p p u , > , e i u u g c P P P P F x c x c g g u u u u i w w i i e w e e w 7 - - w , - - , w w w > & * - > - , > - ; , , - - - > , , , , > , , i i i i u u u p g g p p u w q 9 & * * * % $ $ * % % % % & & & 3 & & & & 3 3 3 3 & & & & & & 3 3 3 3 & & & & & & & & & & & & & & & & & & & & % % & & & % $ $ % % % % % % % % % % % % % % % % & & & % $ $ $ $ $ $ & & 3 q y a h F U U Q o.*.=.",
"M M T T T T T _ o.#.$.=.=.w.d.C.C.P.L.^.OX-X-X-X*X=XUXUXUX8X8X8X*X3X3X3X3X3X3XeXeXeX2X2X2X2X2X<X<X<X2X2X2X2X<X<X<X2X2X<X<X<X X X<X<X2X2X2X2X2X2X2X2X2X2X2X<X<X<X2X4X4X4X4X4X9X9X9XqX0XtXtXtXwXwXtXyXjXjXjXjXjXjXkXzXzXzXzXzXhXjXzXzXzXzXzXzXzXxXxXxXxXxXxXxXlXxXxXxXcXcXcXcXcXcXcXNXcXNXZXZXZXZXNXZXZXHXCXZXZXZXZXZXZXZXZXZXCXCXCXCXDXDXDXCXVXVXVXVXVXVXVXVXVXVXVXVXVXBXBXVXBXmXvXhXwX2X3X8X Xh.W I I U k p p p c x M m x p g c c c c Y Y T ^ ^ / ( O.O.( ( O.<.O.<.<.<.<.<.<.<.<.<.<.<.5.<.<.<.2.<.<.O.O.<.<.<.O.O.O.O.<.<.<.1.@.@.<.<.6.4.4.4.&.&.@.@.@.<.<.4.1.1.1.1.1.1.1.<.4.4.1.4.4.4.4.1.5.5.5.5.5.5.5.5.5.5.5.5.0.0.5.9.9.9.9.e.e.t.t.y.t.t.t.t.r.e.t.t.d.y.t.y.y.t.y.y.y.y.Z.I.Y.Y.Y.Y.U.Y.Y.Y.Y.Y.U.U.R.R.W.Q.Q.W.W.!.W.+X[.!.!.+X!.W.Q.Q.Q.!.!.W.Q.Q.W.!.!.!.!.!.!.!.+X+XQ.E.G.K.Q.Q.'.'.Q.E.E.K.K.K.G.G.D.x.w.x.x.=.#.#.#./ / / / / / T U x g p w - ; e u u i i d x g g g g g g c P U x g p p u i e w - - - 7 e e 6 w - - w , - - e e w w - * * - > - , , > , , , - - ; - > , , , , - , i i i i u p p g g g p p u e w q & & & * * * $ $ $ $ % % % & & & & & & & 3 3 3 & & & & & & & 3 3 3 3 & & & & & & & & & & & & & & & & & & & & % % & & & & $ $ % % % % % % % % % % % % % % % % & & & & % $ $ $ # $ & 3 3 q y a h V F U Q { *.*.",
"Y Y Y Y T T ! _ o.o.$.$.=.d.d.C.P.P.L.^./.OX-X-X*X*X=X=X=X=X8X8X*X*X3XeX8XeX3X2X4X2X2X2X2X2X2X2X<X<X<X<X<X<X<X<X<X<X<X<X<X<X<X<X1X<X2X4X4X2X4X2X2X2X2X<X2X<X2X2X2X2X4X4X4X9X9XqXqXqX0XwXwXwXtXtXtXjXjXjXjXjXjXhXjXjXjXhXhXhXzXzXhXhXhXhXhXhXhXjXzXzXzXzXxXzXzXzXxXxXxXxXxXcXbXcXcXcXNXZXZXZXNXNXNXZXZXZXCXZXCXZXCXZXZXZXmXZXCXCXDXVXDXDXDXDXVXVXDXVXVXVXVXVXVXVXVXCXVXZXZXmXmXbXvXyXtXqXeX3X).-.~ I P P x c p p x m U m c p c c c c x m Y T / ( / ( ( ( ( ( O.O.O.O.@.<.@.@.O.O.<.<.<.<.<.<.1.1.5.1.<.O.O.O.<.<.<.<.<.<.<.<.<.<.} <.<.4.6.6.6.6.<.4.4.@.@.@.@.4.4.4.4.1.@.@.@.1.1.1.1.4.4.4.4.4.5.<.<.2.5.5.1.<.<.5.5.5.5.5.5.5.5.e.r.r.r.r.r.t.t.t.t.t.t.t.t.t.y.y.y.y.y.Z.y.y.y.y.Z.Z.Z.Z.Z.Z.U.U.Y.Y.Y.Y.Y.U.!.Q.T.T.W.W.W.W.!.[.+X+X!.W.W.!.Q.W.!.!.!.Q.W.T.W.!.+X[.!.!.[.'.+X+X[.'.W.Q.!.'.'.Q.Q.E.E.K.K.K.G.H.D.D.x.w.=.=.#.#.o.o.o./ / ! ! Y m m x p , - ; ; - , , - e g i u u e u p g g U x c x x p i i * * - > w > w > w > > , w w - - w w w - - * * - - - - - , , , , , , - ; , , , ; ; , i i i i i i p p p p u u u t q q z & & & & $ 3 & & & & $ % & & & & & & & & & 3 & & & 3 3 3 3 3 3 3 3 3 3 3 3 3 3 3 3 & & & & & & & & & & & & % % & & & & % $ % % % % % % % % % % % % % % % % % % % % % % % % $ $ $ & 3 q y f f V U Q ! { o.%.",
"M Y Y Y T T ! _ o.o.$.$.=.d.d.C.C.P.^.^.^.OX-X-X*X*X*X=X=X=X3X8X*X*X3XeX8XeX3X3X4X4X2X2X2X2X2X2X<X<X<X<X<X<X<X<X<X<X<X<X<X<X<X<X1X2X4X4X4X4X4X4X2X2X<X<X<X<X4X4X4X4X4X4X4X9X9XqXqXqX0XwXwXwXtXtXtXjXjXjXjXjXjXlXhXjXjXjXzXzXzXzXzXjXzXzXjXjXjXjXzXzXzXzXjXjXzXzXxXxXbXcXxXbXcXNXcXcXNXZXNXNXNXNXZXZXZXZXCXCXCXCXCXZXZXmXZXZXCXCXVXVXDXDXDXDXVXVXDXVXVXVXVXVXVXVXVXVXVXZXZXmXbXbXlXyXtXqX2X*XF. .I I P x c c p p g x m m g p c c c x U Y Y / / ( ( } O.O.O.O.O.O.O.O.@.<.1.1.<.<.1.<.<.<.1.1.1.1.1.1.<.<.<.<.<.<.<.<.<.<.<.<.<.<.<.<.<.6.6.6.4.4.4.4.4.4.@.@.&.4.4.4.4.4.<.<.1.4.1.1.1.4.4.4.4.4.5.2.<.5.5.5.5.5.5.5.5.5.5.5.5.5.e.e.r.r.r.r.r.t.r.r.r.r.t.t.c.c.y.y.y.y.y.y.y.y.d.f.Z.Z.Z.Z.I.Y.Y.Y.Y.Y.Y.Y.Y.U.W.R.T.W.W.!.!.!.W.!.[.!.W.W.W.!.Q.W.W.W.Q.R.R.R.W.[.+X[.[.[.[.[.+X+X[.'.'.'.'.'.].Q.Q.E.E.L.E.E.K.G.H.D.x.w.=.$.+.O.O.+._ / / / E Y U Y U x i w - - , w , - - , e u p i w w e u g g c U Y x g p - - - > w w w w w w w w , , - - i w , - * - - > - - ; ; ; - , , , ; ; ; ; , , , , , , i i i i i p g g g p p u t q q & * & & & * 9 & & & & % % & & & & & & & & & 3 3 3 & 3 & 3 3 3 3 3 3 3 3 3 3 & & 3 3 & & & & & % & & & & & & % % & & & & % $ % % % % % % % % % % % % % % % % % % % % % % % % $ $ % & 3 q a f f j U I ! { o.*.",
"M M Y Y T T / _ o.o.$.$.=.d.d.C.C.P.^.^.^.OX-X-X*X=X=X=X=X=X*X*X*X*X3XeX8X8X3X2X4X4X4X2X2X2X2X2X<X<X<X2X2X2X<X<X<X<X<X<X<X<X<X<X<X2X4X4X4X4X2X2X2X2X<X<X<X2X4X4X4X4X4X4X9X9XqXqXqXqX0XwXwXwXtXtXjXjXjXjXjXjXhXzXzXzXzXzXzXzXzXzXzXzXzXzXzXzXzXzXzXzXzXzXzXzXzXzXxXcXbXbXbXbXmXNXmXmXNXNXNXNXNXZXZXZXZXZXCXCXCXCXCXCXZXZXZXZXCXCXCXCXDXDXDXDXCXCXDXVXVXVXVXVXVXVXVXVXVXZXZXAXvXlXhXyXyXwX2X|.j.W I U m x c p u p p k m x g g c c x U T E / / / ( O.O.#.O.O.O.O.O.} O.@.<.1.4.4.4.1.1.1.1.1.1.5.5.<.<.<.<.<.<.1.1.<.<.<.1.1.1.1.1.5.5.6.6.4.4.<.<.4.4.4.4.@.@.&.4.4.4.4.1.1.1.1.4.@.@.1.1.1.4.4.4.5.5.5.5.5.2.5.5.5.5.5.5.5.5.0.0.e.r.t.r.r.r.r.t.9.9.0.r.t.c.v.Z.y.y.y.y.y.y.t.y.I.I.Z.Z.Z.Z.U.U.Y.Y.Y.Y.Y.U.~.~.U.U.T.Q.!.[.[.!.W.!.!.W.Q.W.!.[.!.!.W.Q.R.R.R.R.[.+X#X[.[.+X@X@X@X+X+X'.'.'.'.oX'.].Q.E.E.E.E.E.K.K.G.H.D.w.=.#.o.( / o./ T E / E T Y Y Y x p e - - - w w - - * > e p u w - w e u p x Y T Y x x w > - > w e w w e w w , , , - - i w , - * - > w - ; - ; ; ; - , - ; ; - ; , i i e , , , i i i i p g g k g g p t w q * * * & & & 3 & & & & % % 3 & & 3 3 3 3 3 & 3 3 3 3 & & & & 3 3 3 3 3 3 3 3 & & & & & & & & & & & & & & & & % % & & & % % $ % % % % % % % % % % % % % % % % % % % % % % % % $ % & & 3 r a f f V U I ! { o.-.",
"M M Y Y T T / _ _ o.$.$.=.=.d.C.C.P.^.^.^.OX-X-X*X=X=X=X=X*X*X*X*X*X3X3X8X8X3X2X9X4X2X2X2X2X2X2X2X<X2X2X2X2X2X2X<X2X<X<X<X<X<X<X2X2X4X4X4X4X2X2X2X2X2X2X4X4X4X4X4X4X4X4X9X9XqXqXqXqXwXwXwXwXtXtXjXjXjXjXjXjXhXzXjXzXzXzXzXzXzXzXzXzXzXzXzXzXzXzXzXzXzXzXzXzXzXzXxXxXcXcXbXbXcXNXmXNXNXNXNXNXZXZXZXZXZXCXCXCXCXCXCXCXZXZXZXZXCXCXCXCXDXDXDXDXCXCXDXCXVXVXVXVXVXVXVXVXVXBXZXmXzXlXhXuXyXqX*X).-.W U P x c c p i p k x m m x c c M Y Y Q ! / / ( O.O.O.O.O.O.O.O.O.O.O.@.<.1.4.4.4.1.1.1.1.5.5.1.1.<.<.<.1.5.5.1.1.<.<.1.1.1.1.5.5.5.5.6.6.4.4.<.<.4.4.4.&.@.@.&.1.4.1.1.1.<.<.1.1.@.@.1.1.1.4.4.5.5.5.5.5.5.<.2.e.e.e.0.5.5.0.e.e.r.r.r.r.r.r.r.r.9.e.r.t.b.c.v.v.y.y.y.y.y.y.y.d.Z.I.Z.Z.Z.I.Y.Y.I.I.Y.Y.Y.U.T.~.U.U.W.!.[.[.[.!.!.!.!.W.W.W.!.+X{.[.!.!.W.W.!.!.+X#X+X[.[.+X#X$X@X@X#X+X[.'.+X+XXXXX'.Q.E.E.L.L.K.K.G.G.D.x.w.$.#.( / o./ Y E o.E Y Y Y Y m p e - - ; , i w - - - > e u e w e u g g c x Y Y U m u w - - > w > - e e e w , - - w i e w , - - - > - - - ; - ; - , , ; ; ; ; , i i i i , , i u u i i p g g g k f t t q & * * * & & 3 & & & & % & 3 & 3 3 3 3 3 3 3 3 3 3 3 & & & & 3 3 3 3 3 3 3 3 & & & & & & & & & & & & & & & & % % & & & % % $ % % % % % % % % % % % % % % % % % % % % % % % % % & & & 3 q y f k V U I ! { o.-.",
"M M I Y T T ! _ _ o.$.=.=.=.d.C.C.P.^.^.|.OX*X*X=X=X8X8X=X*X*X*X*X*X3XeX3X8XeX9X9X9X9X4X4X2X2X2X2X2X2X2X2X2X2X2X2X2X2X<X1X<X1X<X2X4X4X4X4X4X2X2X4X4X4X4X4X4X4X4X4X4X4X4X9X9XqXqXqX0X0XtXwXwXtXjXjXjXjXjXjXjXzXzXhXhXzXzXzXzXzXzXzXzXzXzXzXzXzXzXzXzXzXzXzXzXzXzXzXxXxXxXxXcXmXmXNXNXNXNXNXZXZXZXZXZXCXCXCXCXCXZXZXZXZXZXZXCXCXCXCXDXDXDXDXDXCXCXDXVXVXVXVXVXVXVXVXVXVXZXZXbXlXlXhXuXtXqX*XJ.-.W U m x c g i i g x m m m x c c c Y Y T ^ ^ / ( +.O.O.O.O.O.O.O.<.O.@.@.@.<.1.1.1.<.<.1.1.1.1.1.1.<.<.1.5.5.5.5.5.<.1.1.1.1.1.1.5.5.5.4.4.4.4.4.4.4.4.@.@.@.@.@.@.<.1.1.<.@.@.1.1.<.<.1.1.1.4.5.5.1.5.5.5.<.<.1.e.e.e.9.5.5.e.e.r.r.r.r.r.r.r.e.e.r.r.t.t.t.t.t.t.y.y.y.y.y.y.Z.Z.v.Z.U.Y.U.U.I.I.Y.Y.Y.Y.U.T.Q.Q.T.W.W.!.[.!.!.W.!.!.!.W.W.!.+X+X$X+X[.!.!.[.+X+X+X@X+X'.'.+X#X$X#X$X$X@X+XoX+X@X$X@XXX].E.E.K.K.G.G.G.G.H.D.w.&.$.o.o.o./ E E / Y T Y T T Y x u w ; ; - w e w w - * - e u e e i p p p c m Y U x k u w > w w - * w e e w w , w w w i i i , - - * - ; ; ; - - - - , - ; ; ; , < i p i , , i p p p w i p p g k g u t t q * * * & & & * % & & & & 3 & & & 3 3 3 & & & 3 & 3 3 & & & 3 3 3 3 3 3 3 3 & & & & & & & & & & & & & & & & & & & & & & * $ % % % % % % % % % % % % % % % % % % % % % % % % % & & & 3 q y d k V P R ! ' o.-.",
"M M I Y Y T T / _ o.$.$.=.=.d.C.C.P.^.^.OX-X*X=X=X=X8X8X=X=X*X*X*X*X3XeX3X8XeX9XqXqX9X9X4X2X2X2X2X2X2X2X2X2X2X2X2X2X2X<X<X<X2X<X2X4X4X4X4X4X4X4X4X4X4X4X4X4X4X4X2X4X4X4X9X9XqXqXqX0XtXtXwXwXtXjXjXjXjXjXjXjXzXzXhXhXzXzXzXzXzXzXzXzXzXzXzXzXzXzXzXzXzXzXzXzXzXxXxXxXxXxXxXcXmXmXNXNXNXNXNXZXZXZXZXZXCXCXCXCXZXZXZXZXZXCXCXCXCXCXCXCXDXDXDXDXCXCXDXVXVXVXVXVXVXVXVXVXBXZXZXmXvXlXnXyXtXqX*XJ.-.W P m x x p u p g x m m x x c c c T Y T E / / O.O.O.O.O.O.O.O.3.1.<.1.<.@.@.<.<.<.<.<.1.1.5.1.1.<.<.1.1.5.5.5.5.5.1.1.1.1.1.1.1.1.4.4.4.4.4.4.6.6.6.<.@.@.@.<.<.@.@.@.@.@.O.@.<.1.<.1.1.1.1.4.4.5.1.5.5.5.<.<.<.e.9.9.e.9.e.e.r.r.r.e.e.r.r.r.r.e.t.t.t.c.c.t.t.t.y.y.r.y.y.Z.Z.I.y.I.Y.U.U.U.Z.Z.Y.Y.Y.U.U.T.Q.Q.W.W.!.[.[.W.W.W.[.!.!.!.!.[.+X+X$X+X+X[.+X+X#X#X+X@X+X'.'.@X#X@X@X#X$X@X@X+X@X@X$X$XXX'.Q.E.K.K.G.G.G.G.H.D.w.=.&.#.o.o./ / / / T T Y Y T T Y x p w - - , w w w > * * w e w > > - w i g U T Y x m k u e e w > - > w e e w , w w , w i i w > & * - ; - - - - - - , , ; ; ; , , , p i , , e u p p w e e i p g f t t q q & * * * * & * % & & & & 3 & & & & 3 3 & & 3 3 & & 3 3 3 3 3 3 3 3 3 3 3 3 3 3 & & & & & & & & & & & & & & & & & & & % * $ % % % % % % % % % % % % % % % % % % % % % % % % $ % & & & q y a f j P I Q ' o.-.",
"I I I I Y T T ! _ o.$.$.=.=.d.C.C.P.^.^.OX-X*X*X*X=X8X8X8X=X3X*X*X*X2XeXeX8XeXqXqXqXqX9X2X4X2X2X2X2X2X2X2X2X2X2X2X4X4X2X1X2X2X<X2X4X4X4X4X4X4X4X4X4X4X4X4X4X4X2X4X4X4X4X9X9XqXqX0X0XtXtXwXtXtXtXjXjXjXjXjXjXzXzXzXzXzXzXzXzXzXzXzXzXzXzXzXzXzXzXzXzXzXzXzXzXzXxXxXxXxXxXxXcXmXNXZXZXNXNXNXZXZXHXVXVXCXCXCXCXZXZXZXZXZXCXCXCXCXCXCXCXDXDXDXDXCXCXDXVXVXVXVXVXVXVXVXVXBXZXZXAXbXvXvXjXtX0X2XJ.%.I K j x x p u p g x x x x x x M Y ^ T T ^ / +.O.O.@.@.3.O.O.O.3.1.1.1.1.1.<.1.1.1.<.1.1.5.5.5.1.1.1.1.5.5.5.5.5.5.5.5.5.5.5.1.1.1.4.4.1.<.<.<.4.4.4.4.<.<.<.1.<.@.@.<.<.<.@.@.1.1.1.1.1.4.4.4.4.5.5.5.5.5.<.3.5.e.5.5.5.e.e.r.r.r.r.r.e.r.y.y.t.r.t.t.y.v.v.y.t.t.y.e.9.e.y.I.I.Z.Z.I.Y.U.U.U.U.U.U.U.U.U.U.T.R.W.Q.W.[.[.!.W.!.!.[.!.!.!.+X+X+X+X[.[.[.[.+X$X#X#X@X@X+XXX+X@X$X@X@X$X&X&X@XoX@X@X@X@XXX'.Q.Q.Q.E.T.K.G.G.H.D.w.=.&.$.o./ _ o./ / T T T Y T T U x g i , - , - , w w - - e e > - > - - w u x T T P x k g u e e w w - w e e w w w w - , w w w > - - ; ; ; ; - - - - , , ; - , , , , u i e w , i u p u u e w e u u w q q & & & & & * & * % & 3 & & 3 & & & & 3 3 & & 3 & & & 3 3 3 3 3 3 3 3 3 3 3 3 3 3 3 & & & 3 & & & & & & & & & & & & & % % * $ % % % % % % % % % % % % % % % % % % % % % % $ % $ % % % & 3 y a f h V U Q ! o.%.",
"T T T I Y T T ! _ o.$.$.=.=.d.C.C.P.^.^.OX-X*X*X*X=X8X8X8X3X3X*X*X*X*XeXeXeXqXqXqXqXqX9X9X2X2X2X2X2X2X2X2X2X2X2X2X4X4X2X2X4X2X1X2X2X4X4X4X4X4X4X4X4X4X4X4X4X2XeX4X4X4X4X9X9XqX0XqX0XtXtXwXtXtXjXyXjXjXjXjXjXhXzXzXzXzXzXzXzXzXzXzXzXzXzXzXzXzXzXzXzXzXzXzXzXzXxXxXxXxXcXcXmXmXZXZXZXNXNXNXZXZXCXVXCXCXCXCXCXVXZXZXZXZXCXCXCXCXCXCXCXDXDXDXDXCXCXDXVXVXVXVXVXVXVXVXVXZXmXmXAXbXbXbXjXtXwX2XJ. .K K x x x p u p c x m m m m m Y Y ^ T T / O.#.O.O.1.1.<.O.O.O.3.O.1.1.1.1.1.1.4.5.<.1.5.5.5.5.5.1.5.5.5.5.5.5.5.5.9.9.9.5.5.5.1.1.4.4.<.<.<.<.<.1.5.4.<.<.4.4.<.<.<.<.<.<.<.<.1.4.4.4.4.4.4.4.4.4.9.5.5.5.5.<.5.e.2.5.5.e.r.r.r.r.r.r.r.y.v.v.v.t.r.t.y.v.v.v.t.t.t.e.2.9.y.I.I.Z.U.Y.U.U.U.U.U.U.U.U.U.U.U.U.R.R.Q.W.!.!.!.W.!.[.[.!.!.[.+X+X[.!.!.!.!.[.+X+X$X#X@X$X@X+X@X$X$X@X@X@X&X&X@X@X@X@X+X+X'.'.Q.Q.Q.Q.Q.E.K.G.D.x.w.&.#.#.o./ _ #.o.! / ! T U U Y m p p i , - , - , e w > w u e > > u w w - , g Y E U k g g u e w w w * > e i e w w w ; - , w w > w w - ; ; ; ; ; - , , ; ; - , , < e i i e w , , u p p p e w e t e w & & * * & & & * & * $ & 3 & & 3 & & & & & 3 & & 3 & & & 3 3 3 3 3 3 3 3 3 3 3 3 3 3 3 & & & 3 3 & & & & & & & & % % & & % % * $ % % % % % % % % % % % % % % % % % % % % % % $ % $ $ $ $ & 3 y y f k V U I ! o.%.",
"T m M I T T T _ _ o.$.$.=.=.d.d.C.P.^.^.OX-X-X-X*X*X=X=X=X=X3XeXUXUXeXeXeX8X9XqX9X9X9X9X9X4X2X2X<X2X2X2X2X2X2X2X4X4X2X2X2X2X4X4X<X2X4X4X4X4X4X4X4X4X4X4X4X4X2X2X2X2X2X9X9X9X0XqXqX0X0XtXtXtXtXtXhXjXjXjXjXhXhXhXzXzXzXzXzXzXzXzXzXzXzXzXzXzXzXzXzXzXzXhXhXhXjXzXxXxXxXxXxXbXmXmXZXZXNXZXZXDXDXZXZXZXCXCXCXCXCXVXZXZXZXZXZXCXCXDXZXVXCXVXCXCXCXCXDXDXCXVXVXVXVXVXVXVXVXZXZXAXbXbXbXbXkXwX5XN.! K k j x g p p c c k m U x c m Y T Y Y ^ / O.O.@.@.O.O.O.3.<.3.O.O.O.1.4.1.<.@.1.5.5.5.5.5.5.5.5.5.1.5.5.9.9.9.5.1.5.5.5.1.1.1.5.5.5.4.4.<.<.<.1.4.@.@.<.4.5.5.<.<.1.<.<.@.<.1.1.5.9.5.1.1.1.1.4.5.e.0.5.5.5.5.2.2.2.5.9.e.e.e.e.e.e.e.r.r.y.y.y.y.v.y.y.y.y.Z.v.y.y.r.9.9.y.I.U.U.I.I.U.U.U.T.T.R.T.U.U.U.U.U.T.W.Q.!.!.W.W.!.[.[.!.W.Q.Q.!.+X+X+X[.+X+X!.!.[.$X$X+X+X+X+X+X@X#X@X%X$X@X@X&X&X@XoX@X+X+X'.Q.Q.W.'.Q.T.G.G.G.D.w.&.$.+.o.o./ o.o./ / ! T U x T T u i w e i w - ; , w e e e > > > w w w - - w c Y T U m x g w w u w * * > e i w , w w - - - w w w , - ; ; ; ; - - - - - , , ; , , e u i , - , i i u g p e w w e e q & & & & * * & & & & & & & & & & 3 3 3 3 3 3 & & & 3 3 3 & & & & 3 3 3 3 3 3 3 3 3 & & & $ $ % 3 & & & & & & & & % % & & & % % * % % % % % % % % % % % % % % % % % % % % % % % % $ $ $ $ % 3 y y f j P R Q ! o.%.",
"Y m M Y T T T _ _ o.$.$.=.=.d.C.C.P.^.^.OX-X-X-X*X=X=X=X=X=X3X*XUXUXeXeXeX8X9XqXqXqXqX9X9X4X2X2X2X2X2X2X9X9X9X4X4X4X4X2X2X2X2X2X2X4X4X4X4X4X4X4X4X4X4X4X4X4X4X4X2X4X4X9X9X9XqX0X0X0X0XtXtXtXyXtXjXjXjXhXhXzXzXzXzXzXzXzXzXzXzXzXzXzXzXzXzXzXzXzXzXzXzXzXzXzXzXzXxXxXxXxXbXmXmXmXZXZXNXZXZXDXVXZXZXZXCXCXCXCXCXVXZXZXZXZXCXCXCXDXCXCXCXDXDXDXDXDXFXDXCXVXVXVXVXVXVXVXBXZXZXmXmXbXbXbXjX0X*Xj.R V f j x g p p c x x m m m m U Y Y Y Y / ( O.+.@.8.#.<.<.<.3.3.3.<.O.<.1.1.<.@.1.5.5.5.5.5.5.5.5.5.1.5.5.9.9.5.5.5.5.1.1.1.1.1.2.5.5.4.4.<.<.1.4.4.<.<.<.4.5.4.<.<.<.<.O.O.@.<.1.4.9.5.1.1.1.1.5.5.0.0.5.5.5.5.5.2.5.9.9.e.e.e.e.e.e.e.r.r.y.y.y.y.y.y.t.y.y.v.v.y.y.r.e.y.v.I.U.U.I.I.U.U.U.U.U.T.T.U.U.U.U.U.T.W.W.!.!.!.!.!.+X+X!.!.W.!.!.+X+X+X+X$X$X+X!.+X$X#X$X$X$X$X$X$X$X%X%X$X@X@X#X&X@X+X#X@X+X[.'.Q.Q.'.Q.E.K.G.G.D.w.&.$.o.o.o./ / _ ! / ! T U k U U k i w w w w , - w > w w w > > w w w e e w w i x U U m x g e e t > - - > w e , - - - - - - w e e i w - - ; - - ; ; - , , , , , , e u i w , w i i u g p i w w e w 6 & & & & * * & & & & & & & & & & 3 & 3 3 3 3 & & & 3 3 3 3 & & & 3 3 3 3 3 3 3 3 3 & & & $ % % 3 & & & & & & & & % % & & & % % * % % % % % % % % % % % % % % % % % % % % % % % % $ $ $ $ % 3 y y f j P R Q ! o.%.",
"M m M I Y T T ;.;.o.$.$.=.=.d.d.C.P.^.^.OX-X-X-X=X=X8X8X3X=X3X*XUXUXeXeXeX8X9XqXqXqXqX9X9X9X4X2X2X4X4X9X9X9X4X4X9X9X4X4X2X2X2X1X4X4X4X4X4X4X4X4X4X4X4X4X4X4XeX9XeXeXeXeX9X9X9X9X0X0XtXtXtXyXyXyXjXjXjXhXzXzXzXbXzXzXzXzXzXzXzXzXzXzXzXzXzXzXzXzXzXzXzXzXzXzXbXzXvXvXvXvXbXmXmXmXZXmXNXZXZXCXCXZXZXZXCXCXCXCXCXCXZXZXZXZXCXCXCXDXDXDXDXFXFXFXFXFXFXFXDXCXVXVXVXVXVXVXBXZXZXZXmXmXbXbXjX8X X-.R k f k k p i c c m m x m U Y Y Y M Y T / ( ( O.1.9.1.1.1.1.1.3.3.<.O.@.1.1.<.@.1.4.5.5.5.5.5.5.5.5.5.5.5.5.5.5.5.5.1.1.1.<.1.1.5.5.5.4.1.1.1.1.1.1.5.1.1.5.5.<.3.O.3.<.<.<.<.1.1.5.5.5.2.1.2.5.5.9.0.0.0.5.5.5.5.5.e.9.9.9.9.e.e.e.e.e.e.y.r.y.y.y.y.y.y.y.y.y.y.v.y.t.t.c.Z.U.U.U.U.U.U.U.U.U.U.U.T.U.U.T.T.T.T.W.Q.!.!.!.!.+X+X+X!.!.'.!.!.+X+X$X$X#X#X+X+X+X$X$X#X#X#X#X#X%X%X%X%X$X@X@X#X&X#X+X@X#X#X+X[.'.'.'.'.Q.E.K.G.D.w.=.$.o.o.o./ / / T / / ! U j x U U p i - w w w w w - > w w w w w w w w i i w w u m U m k g u u u > e > > w w , ; ; - ; - - > w u p i w - ; - ; ; ; - , , , , , , i u u i w w i u p p p u e e e q & & & & & * * & & & & & & & & & & & & & & 3 3 & & & & 3 3 3 3 & & 3 3 3 3 3 3 3 3 3 & & & % % & & & & & & & & & & % % % & % % % $ % % % % % % % % % % % % % % % % % % % % % % % % $ $ $ $ & 3 y y d k P I I ! o.%.",
"M m M Y T T T ;.;.o.$.$.=.=.s.d.C.P.^.^.|.-X*X*X=XUX8X8X3X=X3X*XUXUXeXeXeX8X9XqXqXqXqXqX9X9X4X4X4X4X4X4X4X4X4X4X9X4X4X4X4X2X4X2X4X4X4X4X4X4X4X4X4X4X4X4X4X4X9X9X9X9X9X9X9X9X9X9X0X0XtXtXtXyXyXyXjXjXjXhXzXzXzXzXzXzXzXzXzXzXzXzXzXzXzXzXzXzXzXzXzXzXzXzXzXzXbXmXmXmXvXbXbXmXmXmXZXZXNXZXVXCXCXZXZXZXCXCXCXCXCXCXCXCXZXZXCXCXCXDXDXDXFXFXFXFXFXDXFXFXDXCXVXVXVXVXVXVXBXZXBXZXBXMXMXbXjX2X_.%.P k k k k p p c c U U m m U Y Y M Y T ^ / ( ( +.&.8.1.1.1.1.1.1.3.1.O.<.1.1.1.1.1.4.5.5.5.5.5.5.5.5.9.5.5.5.5.5.5.5.1.1.1.1.1.5.5.5.4.4.4.4.4.4.5.2.5.1.1.5.5.5.<.3.2.2.1.1.1.5.5.5.2.2.2.2.5.5.9.9.5.5.0.0.5.5.5.5.e.e.2.2.2.u.e.e.e.e.e.y.r.y.y.y.y.y.Z.Z.y.y.y.Z.t.t.t.Z.I.U.U.U.U.U.U.U.U.U.U.U.T.U.U.R.T.T.T.W.Q.!.!.W.!.!.+X+X!.'.+X+X[.[.+X$X$X#X#X+X+X$X$X$X#X#X#X#X#X#X#X#X%X$X@X+X#X#X#X+X+X+X#X#X+X[.'.Q.'.Q.E.K.G.D.w.=.$.o.o.o./ / / T _ o._ T U k x T g u - - w w , w - > w w w w w w - ; - u i i p U U m k p p g u w u w - , w w - ; ; - - , > w u g u i w - ; ; ; - - , , , , , i i p u u i i i u p g g p u t e w * & & & & * * & & & & & & & & & & & & & & 3 3 & & & & 3 3 3 3 & & 3 3 3 3 3 3 3 3 3 & & & % % & & & & & & & & & & % % % % % % % $ % % % % % % % % % % % % % % % % % % % % % % % % % $ $ $ & 3 y y a h P I I ! o.%.",
"m m I T ~ ~ T ! ;._ $.$.=.=.d.C.C.P.L.^.^.-X*X=X=XUX8X8X=X=X=X*X*XUXeXeXeX8XqXqXqXqXqXqXqX9XeX4X4X4X4X4X4X4X4X4X9X4X4X4X4X4X4X4X9X4X4X4X4X4X4X9X4X4X4X4X4X4X9X9X9X9X9X9X9X9X9X9X0X0X0XtXtXtXyXyXhXjXhXhXzXzXzXzXzXzXzXzXzXzXzXzXzXzXzXzXzXzXzXzXzXzXzXzXzXzXzXvXvXxXxXxXvXvXmXmXZXZXZXZXZXCXCXZXZXCXCXCXCXCXCXCXCXCXCXCXCXCXCXCXDXDXDXDXFXDXDXDXFXFXDXDXCXVXCXCXVXVXBXZXVXBXNXMXBXNXjX5X).%.P h j j x g c c Y Y m m m U m m Y ^ / ^ / / O.#.@.@.1.1.1.1.3.3.3.1.<.@.1.1.1.1.1.4.9.5.5.5.5.5.5.9.9.9.5.5.1.5.5.5.5.5.5.5.5.5.5.5.1.4.4.4.4.4.2.2.1.1.<.2.5.5.5.2.5.2.2.2.2.2.2.2.1.1.1.2.2.5.9.9.5.5.e.e.9.5.5.5.e.9.2.2.2.u.e.e.e.e.e.e.e.y.y.y.e.y.f.y.y.y.y.Z.r.t.c.Z.A.I.U.I.T.T.T.T.T.T.T.T.T.T.T.W.W.T.Q.Q.Q.!.!.Q.Q.!.!.!.!.[.+X+X!.!.+X+X$X$X$X+X+X$X$X+X+X+X#X#X#X#X+X+X#X#X#X+X@X#X@X#X[.+X#X#X+X[.'.Q.Q.Q.E.L.G.D.w.w.$.#.o.o._ _ _ ! / o.o./ T g p P c p w , w , - - w w e i u e w > w ; ; u p u g x Y U k p g k p u u w > w e e w w - w w w > w e p p u i w - ; ; - - , , , , , i i p p p u i i u p g k g f u e q & & & & & * * & & & & & & & & & & 3 3 3 & & & & & & & & 3 3 3 3 3 3 3 3 3 3 3 3 3 3 3 & & % % & & & & & & & & & % % % % % % % % $ % % % % % % % % % % % % % % % % % % % % % % % % $ $ $ $ & 3 y a a k V U I ! o.o.",
"m m I T ~ ~ T T ;._ $.$.=.=.d.d.C.P.L.^.^.-X*X=X=X=X8X8X=X=X3X8X*XUXeXeXeX8XqXqXqXqXqXqX9X9XeX4X9X9X9X9X9X9X9X9X4X4X4X4X4X4X4X4X4X4X4X4X4X4X4X9X9X4X4X4X4X4X9X9X9X9X9X9X9X9X0X0X0X0X0XtXtXtXyXyXhXhXhXhXjXjXjXjXzXzXzXzXbXbXzXzXzXzXzXzXzXzXzXzXzXzXzXzXzXzXzXzXvXxXxXxXvXbXmXmXZXZXZXZXVXCXCXZXZXCXCXDXCXCXCXCXDXCXCXCXCXCXCXCXDXDXDXDXDXDXCXCXFXFXDXCXCXVXCXDXVXVXBXZXVXVXNXMXMXNXjX2XJ. .P j k x x c c U Y Y m m P m m m Y / / ^ / ( #.1.@.O.1.1.1.1.3.3.3.1.1.1.1.1.4.4.4.4.9.5.5.5.5.5.5.9.9.9.5.5.5.5.5.5.5.5.5.5.5.5.1.1.1.1.1.4.4.4.2.2.<.<.<.1.5.5.5.5.1.1.1.1.1.1.1.1.1.1.1.2.2.2.2.5.5.5.5.e.9.5.5.5.9.2.2.2.2.u.e.e.e.e.e.e.e.e.y.y.r.y.y.f.y.y.y.y.r.t.c.v.Z.A.I.I.T.T.T.T.T.T.T.T.T.T.T.W.W.Q.Q.Q.Q.Q.!.Q.Q.!.!.W.!.!.+X+X+X!.[.+X+X+X+X[.+X#X$X+X+X+X#X>X>X#X#X+X#X#X#X#X+X+X@X@X{.+X#X#X+X[.'.'.Q.Q.E.E.G.D.x.w.$.#.o.o./ _ o.! T o.o.! T k w g x p i w , - - - w e i u p u w > i - - i p p p g U U x g k k p p e w > w i w w w w w w w w w w e i u u i , - - - - , , , , , i i p p p p i i u p g k k f u e q & & & & & * * & & & & & & & & & & 3 3 3 & & & & & & & 3 3 3 3 3 3 3 3 3 3 3 3 3 3 3 3 & & % % & & & & & & & & % % % % % % % % % $ % % % % % % % % % % % % % % % % % % % % % % % % & & $ $ & 3 y a a k P U I ! o.o.",
"m m I T T I T T ;._ o.$.=.=.s.d.C.P.L.^.^.OX*X=X*X=X=X8X8X=X8X8XUXUXeXeXeX8XqXqXqXqXqXqX9X9XeX4X9X9X9X9X9X9XqXqX9X9X4X4X4X4X4X4X4X4X4X4X4X4X4X9X9X9X9X9X4X4X4X4X9X9X9X9X9X9X0X0X0X0XrXtXtXyXyXyXhXjXhXhXzXzXzXzXzXzXzXbXbXzXzXzXzXzXzXzXzXzXzXzXzXzXzXzXzXzXzXzXxXxXxXvXvXmXmXZXZXZXmXZXZXCXCXZXVXCXCXDXDXCXCXCXDXDXCXCXCXCXCXCXFXFXFXFXFXDXCXCXDXDXCXCXVXDXDXDXVXVXVXVXVXZXMXMXbXvXqX XN.' C j j x x c c U Y U x m m x m Y T ^ E ^ / O.&.8.1.@.1.1.1.1.3.3.1.1.1.1.1.1.4.5.5.5.9.9.5.5.5.5.9.9.9.9.5.5.5.5.5.5.5.5.5.5.1.<.<.<.<.1.1.4.4.4.1.1.5.1.<.<.2.5.5.2.<.1.1.1.1.1.3.3.1.1.1.2.2.2.1.1.2.5.5.0.9.5.5.2.2.2.2.2.2.e.e.t.y.y.y.y.e.y.y.y.y.y.y.y.Z.f.y.t.t.b.v.v.Z.A.I.U.U.U.U.U.T.T.T.T.T.T.T.W.Q.Q.Q.Q.Q.!.!.Q.Q.!.!.!.!.!.!.[.+X+X!.!.[.+X+X[.$X#X$X+X+X#X#X>X>X#X#X+X#X#X#X#X+X{.+X#X+X#X#X#X+X+X+X[.W.Q.Q.Q.K.H.D.C.&.$.o._ / / _ ! T o._ T ! m e g g u i w , - - w w w e p f p e w i w w i u u p g x U m k x k u u w w w w w , - w , , w w e e w w w i u u e , - - ; - , , , , i i p d p p i i u p g k g u e w q 6 - & & & * * & * & & & & & & & & 3 3 3 3 & & 3 3 3 3 3 3 3 3 3 3 3 3 3 3 3 3 3 3 3 3 & & % $ % & & & & & & & & & % % % % ; % % $ % % % % % % % % % % % % % % % % % % % % % % % % & & & & & 6 y a a h P I Q ! o.%.",
"m m I Y Y I T T ;.;.o.$.$.=.d.d.C.P.L.^.^.OX=X=X*X=X=X8X8X8X8X8X*XUXeXeXeX8X9XqXqXqXqXqX9X9X4X4X9X9X4X4X4X9X9XqX0X9X9X4X4X4X4X4X4X4X4X4X4X4X4X9X4X4X9X9X9X4X4X4XeXeX9X9X9X0X0X0X0XwXtXtXyXyXjXjXhXjXhXlXzXzXmXmXzXzXzXbXbXzXzXzXzXzXzXzXzXzXbXbXbXbXzXzXzXzXzXzXxXxXxXvXmXZXZXZXZXmXmXZXVXCXCXZXCXCXCXDXDXDXCXCXDXDXCXCXCXCXCXCXFXFXFXFXFXDXDXCXDXDXDXVXVXVXDXDXCXVXVXVXVXBXMXmXvXkXqX Xj.' V j j x x c x U U m x m x x x T T Y Y ^ ( @.1.8.8.8.9.1.1.1.1.1.2.2.1.1.1.1.5.9.5.5.9.9.5.5.5.5.9.9.9.9.5.5.5.5.5.1.1.1.1.1.<.<.O.} <.<.1.1.5.5.1.1.5.5.1.<.2.2.2.3.2.2.2.2.2.2.1.1.1.1.1.1.1.1.1.1.2.5.5.5.5.5.5.2.1.2.2.2.9.e.e.t.y.y.y.y.y.y.y.y.y.y.y.y.Z.Z.y.y.y.v.v.v.Z.A.I.U.A.A.U.U.U.T.T.T.T.T.T.Q.Q.Q.Q.Q.Q.!.!.Q.Q.!.[.!.!.!.!.!.+X+X!.W.!.[.[.+X$X%X#X+X[.{.#X#X#X#X{.{.#X#X#X#X{.{.+X#X#X#X%X#X#X+X+X+X'.'.'.Q.E.G.H.D.=.#.o./ ! / / T T #.o.Q / ~ f k i i e w w - w e - > e u g f i w , w i w w u g g p m m x m g e e w w w e , - - - - - - w e e w > , e u u i w - - ; - , , , , i i p p g p i i u p p g g u w w w - - & & & * * * * & & & & & & & & 3 3 3 3 3 & 3 3 3 3 3 3 3 3 3 3 3 3 3 3 3 3 3 3 3 3 3 & $ $ 2 & 2 2 2 2 3 3 3 3 % % ; ; ; % % $ % % % % % % % % % % % % % % % % % % % % % % % % & & & & & 6 y a a h P I Q ! o.%.",
"M M M Y Y T T ! / o.$.$.=.d.C.C.C.P.L.^.OXOX-X=X=X=X8X8X8X3X3X8X*XeXeXeX8X8XqXqXqXqXqXqX9X4X4X4X4X4X4X9X9X9X9X9X4X4X4X4X4X4X4X4X4X4X4X9X9X9X9X4X9X9X9X4X4X9X9X9X9X9X9X9X9X9X0XwXtXtXtXtXyXyXyXyXyXyXjXlXzXzXbXbXzXzXmXbXbXbXzXzXzXzXzXzXzXzXzXzXzXzXzXzXzXzXzXzXbXbXbXbXbXbXZXZXZXZXZXZXZXZXCXDXVXVXCXCXCXCXCXCXVXCXCXCXCXCXCXVXFXFXFXFXFXFXDXDXCXCXDXDXCXCXCXVXCXVXCXCXVXBXNXVXmXjX3XJ.%.W V j g x x x x x U x m x c c c Y Y Y ^ / ( +.#.&.8.9.1.1.<.1.1.5.5.5.1.1.1.1.2.2.2.5.5.5.5.5.9.9.e.9.r.9.5.5.1.1.5.5.<.1.5.5.1.<.O.O.@.<.<.<.2.2.2.2.<.1.5.5.<.3.3.<.5.5.2.2.5.5.5.2.<.<.1.<.<.3.<.2.5.5.5.5.5.5.5.5.5.5.2.2.5.e.r.y.r.y.y.y.y.y.y.y.y.v.v.y.t.y.y.v.e.y.v.Z.I.I.U.T.U.U.U.U.S.U.R.Q.T.T.W.W.T.T.T.Q.Q.W.!.!.Q.Q.'.+X!.[.!.!.!.!.Q.Q.Q.!.+X#X$X$X+X$X#X+X{.{.{.[.+X#X#X#X+X+X+X#X#X+X#X#X&X%X%X%X#XoX'.'.oXXX].K.H.C.w.&.o./ / / / ! / o.o.! ! ! P y e e e w q w 6 w w w y u g f t w e i e > w p g g u x m k p p u > w w w w w w - & - - w w e e w w w , w e i w - ; ; ; , , , < i e u p p u i i u u p u u u e - * - w q & * * * * & * * * * & * & & & & & & & & 3 3 3 3 3 3 3 3 3 3 3 3 3 3 3 3 3 3 2 3 3 3 2 2 1 $ 2 2 2 2 2 2 2 2 % % % % % % % % $ $ * % % % & % % % % % % % % % % % % % % % % % $ % & & 3 q y a a k V U Q ! o.%.",
"M M Y Y Y Y T ! ! o.#.$.=.d.C.C.C.P.L.^.OXOX-X=X=X=X8X8X8X=X8X8X*X*XeXeX8X8XqXqXqXqXqXqX9X9X4X4X4X4X4X9X0X9X9X9X9X4X9X4X4X4X4X4X4X4X9X9X9X9X9X4X9X9X9X4X4X9X9X9X9X9X9X9X9X9X0XwXtXtXtXtXyXyXyXyXlXlXlXlXzXzXzXzXcXmXmXbXbXzXzXzXbXbXbXbXzXzXzXzXzXzXbXbXbXbXzXzXbXbXbXbXbXmXZXZXZXZXZXZXZXCXCXDXCXCXVXCXDXVXVXVXVXCXCXCXCXCXCXCXFXFXFXFXFXFXDXDXDXDXDXDXDXDXCXCXVXVXVXVXVXNXNXBXmXdX*XF. .U j g g x x x c m U x x c c c U Y T ^ / / O.#.&.4.8.8.1.1.1.1.4.5.5.5.5.2.1.1.1.2.5.9.9.9.5.5.9.9.5.5.9.5.5.1.1.1.1.5.1.5.5.5.1.<.<.<.<.<.<.<.5.2.2.<.<.<.5.2.1.<.2.5.5.5.1.1.5.5.5.5.<.2.2.1.<.1.5.5.5.5.5.5.5.5.5.5.5.5.5.5.5.e.r.t.r.y.y.y.y.y.y.y.y.t.y.y.y.y.y.y.v.m.I.I.I.I.I.U.T.T.U.U.S.U.U.T.T.R.Q.Q.Q.R.Q.Q.W.!.!.!.Q.Q.!.+X[.[.[.!.!.!.!.!.+X+X+X$X$X+X+X+X+X[.{.{.{.[.[.+X#X#X#X+X@X#X#X+X@X@X&X%X%X%X&X@X@XoXoXoX].L.H.D.w.$.#./ / / ! T ! o.o.o.{ ! U k e e e y w w w w w w q e d f t y u u e w w e p p u g k g p p e , > w w q w w > - - - > w e e w w w w w e i i , , ; ; - - , < i i i p p p p p p u p u i u i - - - q > & * * * * & * * * * * & & & & & & & 3 3 3 3 3 3 3 3 3 3 3 4 3 3 3 3 3 3 3 3 3 2 2 2 2 2 2 2 3 3 2 2 2 2 2 2 2 2 2 2 2 2 2 % $ $ * % & & & % % % % % % % % % % % % % % % % % $ $ % & 3 6 y a f h V U Q ! o.%.",
"Y U Y T Y Y T ! ! _ #.$.$.d.C.C.C.P.L./.OX-X-X=X=X=X8X8X8X=X3X3X3XeXeXeX8X8XqXqXqXqXqXqX9X9X4X9X4X6X9X9X9X9X9X9X9X9X9X9X4X4X4X4X4X9X9X9X9X9X9X9X9X9X9X4X4X9X9X9X9X9X9X9X9X9X0X0XwXrXtXtXtXyXyXyXlXlXzXzXzXzXzXzXmXmXmXmXbXbXzXzXbXbXbXbXbXbXbXmXzXbXbXbXbXbXzXzXxXbXmXmXmXmXNXZXZXZXZXZXZXCXCXCXCXDXDXDXDXCXVXCXCXCXCXCXCXCXCXCXFXFXFXFXFXFXDXDXDXFXFXFXFXDXDXCXVXVXVXBXNXMXNXNXmXwX Xj.! V f f g x x x m U U c c c c c Y Y ^ / / _ +.&.4.8.8.8.4.1.1.1.4.5.5.2.5.2.1.3.1.2.9.e.e.9.5.5.5.5.5.5.5.1.<.<.<.1.1.5.5.5.5.1.<.<.<.1.<.<.2.5.5.5.<.<.<.<.5.5.2.2.5.5.5.1.<.<.5.5.5.5.5.5.5.2.2.5.5.e.e.9.e.e.9.5.5.5.5.5.5.9.e.r.r.r.r.t.y.y.y.y.y.y.e.r.y.y.r.y.y.y.Y.Y.I.I.I.I.I.I.R.R.T.U.S.S.U.U.R.Q.W.W.Q.Q.R.R.Q.W.!.!.!.Q.!.'.+X[.!.!.!.[.+X+X$X$X$X$X+X+X+X+X{.{.[.{.{.[.[.[.+X#X#X#X#X#X@X[.@X@X@X&X%X%X%X&X&X&X@XoX'.E.G.D.C.8.$.o.! ! ! ! ! o.#.*.o.! I P t e e e e e e e e w w q e u u u e u e w w e p g u u u p u e , w > > > q w w w > - - > w e e e w w w , w e i e w - - > > , < i p i i p p c c p u g u i i i , - - 6 & & * * * * & * * * & & & & & 3 3 3 3 3 3 3 3 q 3 3 3 3 2 3 3 3 3 3 3 3 3 3 3 3 3 3 2 2 2 2 2 2 2 2 2 2 2 2 2 2 2 2 2 2 2 2 2 $ * % % & % & % % % % % % % % % % % % % % % % % $ $ $ % & 3 y a f k V U Q ! o.%.",
"U U Y Y Y Y T ! ;.o.$.$.=.w.C.C.P.P.L./.OX-X-X=X=X=X8X8X8X=X3X3X8XeXeXeX8X8XqXqX9XqXqXqX9X9X9X9X9X9X9X9X0X9X9X9X0X9X9X4X4X4X4X4X4X9X9X9X9X9X9X9X9X9X9X9X9X9X9X9X9X9X9X9X9X9X9X0X0XwXrXtXtXyXyXyXlXlXlXzXzXzXzXzXmXmXmXmXmXbXzXzXbXbXbXbXbXbXbXmXbXbXbXbXbXbXbXzXxXcXmXZXZXNXNXNXZXZXZXZXZXCXCXCXDXDXDXDXDXCXCXCXCXCXCXVXVXCXCXCXFXFXFXFXFXFXDXDXDXDXFXFXDXDXCXCXVXVXBXmXMXBXNXMXmXqX_.-.~ j d d g g x x Y Y c c c c c c c Y T / ( o.@.4.8.8.8.8.4.4.1.1.2.5.5.2.2.1.1.1.1.2.9.e.9.5.5.5.5.5.5.1.<.<.<.3.<.1.1.5.5.1.<.<.O.<.<.<.2.2.5.5.5.5.<.<.<.2.5.2.<.<.2.5.1.<.<.<.5.5.5.5.5.5.5.2.<.2.5.9.e.e.e.e.5.5.5.5.5.5.e.r.r.r.r.r.r.y.y.y.y.y.y.y.e.e.r.r.r.y.y.y.I.Y.Y.Y.I.I.I.I.R.R.R.U.U.S.U.U.Q.Q.Q.W.Q.R.R.R.Q.W.!.!.'.'.'.+X+X[.!.!.!.+X+X#X$X+X+X+X+X+X+X$X+X{.{.+X+X[.W.W.'.+X#X#X$X#X#X+X#X&X&X&X%X%X%X&X&X&X&X&XoX].K.D.D.d.$.#./ ! ! / ! / o.*.o.! I U f d u e e e e e e w q q y t u u w w e w w e g x g u t p u > > e > > > w e e e w - - > w e e e w w , , , w e i i , , , , , i p c p p p p x c g p p u i e w , - & & & & * * * * & & & & & & & & & 3 3 3 3 3 3 3 3 r q 3 3 2 2 2 3 3 3 3 3 3 3 3 3 3 3 3 3 3 3 3 3 2 2 2 2 2 2 2 2 2 2 2 2 2 2 2 2 % % % & & & % % % % % % % % % % % % % % % % % % $ $ $ $ & 3 y y f h V U Q ! o.%.",
"U M U Y T T T ! ;.o.$.$.=.d.C.C.P.P.L./.OX-X-X=X=X=X8X8X8X8X8X8X3XeXeXeX8X8XqXqX9XqXqXqX9X9X9X9X9X9X9X9X0X9X9X9X0X0X4X4X4X4X4X4X9X9X9X9X9X9X9X9X9X9X9X9X9X9X9X9X9X9X9X9X9X9X0X0XwXwXrXtXyXyXhXhXhXhXlXlXzXzXmXmXmXmXmXmXmXbXvXzXbXzXzXzXzXzXbXbXzXzXzXzXzXzXzXzXxXbXmXZXZXmXmXmXZXZXZXZXCXCXCXCXCXCXVXVXCXCXVXVXCXCXCXCXCXCXCXCXDXFXFXFXFXFXFXFXCXDXDXDXDXVXCXCXVXVXVXNXBXVXVXmXkXeXJ. .R k f f k g x m Y Y x c c c c c c Y Y ^ ( +.@.8.8.8.8.8.9.4.1.1.2.5.5.2.<.3.1.1.2.2.2.2.2.2.2.5.9.9.5.5.1.1.1.1.1.1.5.5.5.1.<.O.O.<.<.<.2.2.5.5.5.2.1.<.5.5.2.<.<.<.<.1.2.<.<.<.5.5.5.5.e.e.5.5.<.<.1.5.e.5.5.5.5.5.5.5.5.5.e.r.r.r.r.r.r.r.y.y.r.y.t.y.e.r.y.y.y.y.y.v.v.m.I.m.Z.I.I.Y.U.T.R.T.T.U.T.R.R.Q.Q.Q.Q.Q.R.R.T.Q.W.!.!.+X+X+X[.!.!.!.!.[.$X#X+X+X[.!.[.+X+X$X+X{.{.+X[.W.T.T.W.[.#X%X%X;X%X#X%X%X&X&X%X%X&X&X&X&X&X&X@X].K.D.D.C.=.$.o.! ! / ! ! { o.o.! U P j k d u e e e y w w w y e t u t w e e e e u g x k u u p u > - w w w w w i u u u > > > w e e e e w , , , , e i i , , , , , e p g p p i p g c g p p u u e w > - & & * * * * * & & & & & & & & & & 6 6 6 6 6 6 6 6 r q 3 3 2 2 3 2 3 3 3 3 3 3 3 3 3 3 3 3 3 3 3 3 2 2 2 2 2 2 2 3 2 2 2 2 2 2 2 2 % & & & & & % $ % % % % % % % % % % % % % % % % $ $ $ $ & 3 y y f j P U Q ! o.%.",
"U M Y Y T T T ! _ o.$.$.=.d.C.C.P.P.L./.OX-X-X=X=X=X8X8X8X8X8X8X*X3XeXeX8X8XqXqXqXqXqXqX9X9X9X9X9X9X9X0X0X0X0X0X0X0X9X4X4X4X9X9X9X9X9X9X9X9X9X9X9X9X9X9X9X9X9X9X9X9X9X9X9X9X0XwXrXrXtXtXyXyXhXhXhXhXlXlXzXzXmXmXmXmXmXmXmXbXvXzXbXbXzXzXzXzXbXbXzXzXzXzXzXzXzXzXxXbXmXZXZXZXZXZXmXZXZXCXCXFXVXCXCXCXCXCXCXCXVXVXVXVXCXCXCXCXCXCXDXFXFXFXFXFXFXFXCXCXDXDXVXCXCXCXVXCXVXBXBXCXVXmXdX*XM.' K k f g k g x m U x c c c c c c c Y Y ^ ( +.&.8.8.8.4.1.9.4.1.1.5.5.5.2.<.3.1.2.2.2.1.<.1.1.1.5.9.9.5.5.1.1.1.2.1.5.5.5.5.1.<.<.<.1.1.1.<.1.2.5.5.5.1.<.2.2.1.3.<.<.<.2.5.2.<.2.5.5.5.5.9.9.5.5.<.<.3.<.5.5.5.5.5.5.5.5.5.9.e.r.r.r.r.e.e.e.r.r.e.r.y.y.r.y.y.y.r.y.y.y.v.v.v.v.v.I.I.U.I.U.U.T.T.T.W.R.U.R.Q.Q.Q.Q.R.Q.Q.Q.Q.W.!.+X+X$X[.!.!.!.!.[.+X$X[.[.!.!.[.+X+X$X[.{.{.[.[.W.T.T.E.[.#X%X%X;X;X%X%X%X%X%X%X%X&X&X@X&X&X&X@X].L.H.D.w.*.$.o.! Q ! / ! Q ! ! ! I F P x f u u u e y q w e t u u u t f e e e e e u p g u u p u > > w w w w e u u u u w w w w e e e e w , , , , e e e , , > > > , i p p p i i p g g g p g p e > - - & * * * * * * & & & & & & & & & & 3 3 3 3 3 3 3 3 q 3 3 3 3 2 3 3 3 3 3 3 3 3 3 3 2 3 3 3 3 3 3 4 2 2 2 2 2 2 3 3 2 2 2 2 2 2 2 2 & & & & & % $ $ % % % % % % % % % % % % % % % % $ $ $ $ & 3 y a k V P I Q ! o.%.",
"M M M Y T T T ! _ o.$.$.=.d.C.C.C.P.L.^.OXOX-X=X*X=X8X8X8X8X8X8X*X*XeXeX8X8X8XqX0X0X0XqX9X9X9X9X4X9X9X9X0XrXrX0XrXrX9X9X9X9X9X9X9X9X9X9X9X9X9X9X9X9X9X9X9X9X9X9X9X9X9X9X9X0XwXtXtXtXtXyXyXyXhXhXlXlXlXlXzXzXmXmXmXmXmXmXmXbXbXzXmXmXmXmXbXbXbXmXbXbXmXmXmXmXmXbXvXbXmXZXZXZXZXZXmXZXVXCXFXCXCXCXCXCXCXCXCXCXCXCXDXDXVXCXCXCXDXFXDXFXFXFXFXFXFXFXDXDXDXDXDXVXVXCXVXCXVXBXVXDXVXzXqX.Xh.W V k j g x k x m m x g c c x c c c Y ^ / ( O.1.9.9.9.9.9.9.5.4.1.4.5.5.2.1.1.2.2.1.1.1.3.1.1.2.5.5.5.5.1.1.1.1.1.1.1.1.1.5.1.<.<.<.1.1.<.<.3.<.1.5.5.2.<.<.<.<.3.3.<.5.5.5.5.5.5.5.5.5.5.5.5.5.5.5.2.1.1.5.5.5.5.5.9.e.e.5.e.e.e.e.r.r.e.e.e.r.r.r.y.y.y.y.y.y.y.y.r.y.y.v.v.v.v.v.m.I.I.I.I.U.U.T.T.R.W.U.R.Q.Q.Q.Q.Q.!.!.W.Q.Q.!.+X+X$X[.[.[.[.+X+X+X+X+X+X+X+X+X+X+X+X[.[.[.{.[.W.W.W.!.+X;X;X%X%X;X%X%X%X%X%X%X=X%X%X&X&X&X@XoXoX].L.D.w.*.*.+./ Q ! { ! Q I Q ! Q U U F k f f f f t q y e t t t t d g e w w t e e e u u u p u , , e w w w w e u u u e e w e e e e e w > > > w e e e w w , , , w u p p p p p g g p p u g g e - - - - * * * * * * * * & & & & & & & & 3 3 3 3 3 3 3 3 3 3 3 3 3 3 3 4 3 3 3 3 3 3 3 3 2 2 2 3 3 3 3 4 2 2 3 2 3 3 3 3 3 3 3 3 2 2 3 3 3 3 & & & & % $ % % % % % % % % % % % % % % % % $ $ % & 3 6 y a k V P I Q ! o.%.",
"M M M Y T T T ! _ o.$.$.=.d.C.d.C.P.L.^./.OX-X*X*X=X8X8X8X8X8X8X*X*XeXeX8X8X8XqXwXwX0XqXqX9X9X9X4X4X9X0XrXrXrXrXiXrXrX9X9X9X9X0X9X9X9X9X9X9X9X9X9X9X9X9X9X9X9X9X9X9X9X9X0X0XtXyXtXtXyXyXyXyXhXhXlXlXlXvXzXzXzXzXmXmXmXmXmXbXbXzXmXmXmXmXmXmXmXmXmXmXmXmXmXmXmXmXbXbXmXmXmXZXZXZXmXZXVXCXCXDXCXCXCXCXCXDXDXDXDXDXDXDXDXDXCXDXFXFXDXFXFXFXFXFXDXDXDXDXDXDXDXDXDXDXZXVXVXBXVXDXVXzXeX).-.R j j j k x k x m x g p c c c c c Y Y / ( ( O.1.9.9.9.9.9.9.9.4.1.4.5.5.2.u.2.2.1.1.1.1.1.2.2.5.5.5.5.1.<.1.1.1.1.1.1.1.1.1.<.O.O.<.<.<.O.<.<.3.<.5.5.2.2.<.<.3.3.<.5.e.r.9.5.5.5.5.5.5.5.<.5.5.e.5.5.5.5.5.5.5.5.5.e.r.r.9.9.e.e.e.e.e.r.r.r.r.r.r.y.y.Z.y.y.y.y.e.e.y.y.I.I.m.v.v.v.I.I.I.I.Y.U.U.U.U.U.~.R.Q.!.!.!.!.!.+X!.W.Q.W.!.+X+X[.+X+X+X+X+X+X+X$X$X$X+X+X+X[.+X[.{.{.{.+X[.[.[.[.#X;X;X#X%X%X%X%X%X&X%X=X%X=X%X=X&X&XoXoXoXoXoXH.x.=.=.=.o.! ! ! ! Q I Q ' ! Q I P j f g j g f t t t t e t d f u w - w u e e e w e e u u e e e w w w w e e i i u e e e e e e e e e w w e e e e u u u e e e p p p p c c g g p p u x k e * * - - * * * * * * * * * * & & & & & & 3 3 3 3 3 3 3 3 3 3 3 3 3 3 3 4 3 3 3 3 3 3 3 3 2 2 2 2 3 3 3 3 3 2 3 3 3 3 3 3 3 3 3 2 2 2 3 3 3 3 3 & & % % $ % % % % % % % % % % % % % % % % $ % & & 3 q y a k V P I Q ! o.%.",
"Y U Y Y T T T / ;.o.$.$.w.w.C.C.C.P.L.^.OX-X-X=X=X=X8X8X8XUX*X8X3X3X2X3XeX8XqXqX0X0XqXqXqX9X9X9X4X9X9X9X9X0X0X0XrX9X9X9X9X4X9X9X9X9X9X9X9X9X9X9X9X9X9X9X9X9X9X9X9X9X9X9X9X0X0XwXtXtXyXyXyXhXhXlXlXlXlXlXzXbXmXmXmXmXmXmXmXbXbXbXzXzXzXzXbXmXmXmXmXmXmXmXmXbXzXxXbXbXmXmXmXmXZXZXmXmXZXCXCXDXDXDXZXZXVXCXVXVXVXVXDXDXDXDXDXDXDXDXDXDXCXDXFXFXFXFXFXDXDXDXVXCXCXCXCXCXVXVXDXCXMXjXqX|.-.R j j P P x x m m x g p g c c M Y Y ^ ) ( ( 3.9.9.9.9.9.9.9.9.2.2.1.9.1.1.u.2.3.<.<.1.1.1.2.2.1.1.1.1.<.<.5.5.1.1.1.5.5.5.<.<.<.<.<.1.1.<.<.<.2.5.5.5.1.<.<.<.1.1.1.2.5.5.5.5.5.5.5.5.e.e.5.5.5.5.5.5.5.5.5.5.5.e.e.e.e.e.5.5.5.5.e.r.v.v.y.y.r.e.e.y.y.v.y.y.y.y.y.y.y.y.y.v.I.I.m.v.I.Y.I.Y.Y.U.U.U.U.U.~.~.~.T.R.R.!.!.!.!.W.W.W.W.+X+X!.[.+X+X+X+X+X+X$X$X+X+X+X!.!.+X[.{.{.+X#X+X+X[.+X#X%X;X;X%X%X$X&X&X&X&X&X%X%X%X=X&X&XoXoXoXXXoXK.H.x.=.*.{ ! { ' ' ! Q I ! ' Q Q U j f f j f e t t u f u t u f g w & > e w w u , e u p u e , , w w w w i u u i i i i i e w w w > w w > , > e u e e e , e u p u g g g c x g p p g g g p w * & w & & * * * * & & & * * * * * & & 3 3 3 3 3 3 3 3 6 3 3 3 2 2 2 2 3 3 3 3 3 3 3 3 3 3 3 3 3 3 3 3 2 3 3 3 2 3 3 3 2 2 2 2 3 3 3 3 & & & & % $ $ $ % % % % $ $ $ % $ $ $ $ $ $ $ $ & $ % 3 3 3 y a f j P U Q ! o.%.",
"Y U U Y T T T / ;.o.$.=.=.w.C.C.C.P.L.L.OX-X-X=X=XUX8X8X8XUX*X8X3X3X3XeXeX8XqXqX0X0XqXqXqXqXqXqX9X9X9X0X0X0XrXrXrX0X9X9X9X9X9X9X9X9X9X9X9X9X9X9X0X9X9X9X9X9X9X9X9X9X9X9X0X0X0XrXtXtXyXyXyXhXhXlXlXlXlXlXvXvXmXmXmXmXmXmXmXbXbXbXzXzXzXbXbXmXmXmXmXmXmXmXmXmXzXzXxXbXmXmXmXmXZXZXmXZXZXCXCXDXDXDXZXZXCXCXVXVXVXVXDXDXDXDXDXDXCXCXDXDXCXDXFXFXFXFXDXDXDXDXCXCXCXCXCXCXVXVXCXCXMXzXqX|.-.R V j P P m x x x c g p c c c c Y Y ^ ) ( } <.9.9.9.9.9.9.9.9.1.2.9.9.9.2.u.2.3.3.1.1.2.2.1.1.1.1.1.1.1.1.1.1.1.1.1.5.5.5.1.<.<.<.<.1.1.<.<.<.2.5.5.5.1.<.<.3.<.<.3.3.1.5.5.5.5.5.5.5.5.5.5.5.5.5.5.5.5.5.5.5.5.5.9.e.e.e.e.5.5.5.e.e.r.r.r.r.r.r.y.y.y.y.y.y.y.y.y.y.y.y.y.v.I.I.m.m.I.Y.I.I.I.Y.Y.Y.Y.Y.T.~.Q.~.Q.Q.Q.!.W.!.W.W.W.W.[.+X!.[.+X+X+X+X+X#X+X+X+X$X+X!.!.+X[.[.{.+X#X#X+X+X#X#X#X%X#X%X%X%X&X&X&X%X%X=X%X%X=X&X&X&X-XoXoXXXL.H.C.x.=.o.! ! ! ! ! Q I ' o.o.Q I j f f g f t t t t d e q t g g w - w w w w u w e e u u e e w w w w w i i i i i i i i i w w w e e e e , , w e u u e e e u p u g g g c x c p p u u p p w & * & & * * * * & & & & * * * * * & & 3 3 3 3 3 3 3 3 3 3 3 3 2 2 2 3 3 3 3 3 3 3 3 3 3 3 3 3 3 3 3 3 3 3 3 3 2 3 3 3 2 2 2 2 3 3 3 3 & 3 & & % $ $ $ % % % % $ $ % % $ $ $ $ $ $ $ $ & % % 3 3 3 y a k j P I Q ! o.%.",
"Y M U Y Y T T / ;.o.$.$.=.d.C.C.C.P.L.^.OX-X-X=X=XUX8X8X8XUXeXeX3XeXeXeX8X8X8X9XwX0X0X0X0XqXqXqX0X0XrXrXrXrXrXrXrXrX0X9X9X9X9X9X9X9X9X9X9X9X9X9X9X9X9X9X9X9X9X9X9X9X9X9X0X0XwXrXtXtXyXyXyXhXhXlXlXlXlXlXzXbXmXmXmXmXmXmXmXbXbXbXzXzXbXbXmXmXbXbXmXmXmXmXmXmXbXzXxXcXmXmXmXmXmXZXmXZXZXCXCXCXDXDXZXVXCXCXDXDXVXCXCXCXDXDXDXDXCXCXFXFXFXFXFXFXFXDXFXFXDXDXCXVXVXCXVXVXVXVXVXCXMXzXwX X-.W K V P P m x c c g p g c c c M Y Y ^ / ( O.1.9.9.9.9.9.9.9.9.1.1.9.9.9.9.u.2.1.3.1.2.2.2.1.1.1.1.1.5.5.5.<.<.<.<.1.1.5.5.5.5.1.1.1.1.<.<.<.<.1.5.5.2.<.<.3.<.<.1.<.<.<.2.e.5.5.5.5.5.5.5.5.5.5.5.5.5.5.5.5.5.5.5.5.5.5.5.e.e.e.5.5.5.5.9.9.e.e.y.y.y.y.y.v.y.y.y.y.v.v.v.y.v.I.I.I.I.I.Y.I.I.Y.Y.U.U.~.~.T.~.Q.~.Q.Q.!.!.!.!.!.W.W.!.!.+X[.{.{.[.[.{.+X#X+X+X+X#X$X[.!.+X{.{.{.{.+X#X#X#X;X%X#X#X#X#X;X:X%X&X%X%X=X%X=X=X=X&X&X&X&X-XoXXXL.H.C.C.x.*.{ ! ! Q Q I I ! o.o.! Q I j f f f f f t t f t q t j k e q w e w w u e e w e u u u e i w w w i i e w u i i i i w w w e u u u e , , , u p u e i p p p g g g c x x p p e w e e w - * # & & * * * * * & & * * * * & & & 3 3 3 3 3 3 3 3 3 3 3 3 2 2 3 3 3 3 3 3 3 3 3 3 3 3 3 3 3 3 3 3 2 2 3 3 3 3 2 3 2 2 2 2 3 3 2 3 & & & & & % $ $ % % % % $ $ $ % % % % % % % % % & % & 3 3 6 y a k V P I Q ! o.%.",
"Y M U Y Y T T / _ o.$.$.=.w.C.C.C.P.L.^.OXOX-X=X=X=X8X8X8XUXeXeXeXeXeX8X8X8XeXeXwXwX0X0X0X0X0XqXrXrXrXrXrXrXrXrXrXrXaX0X0X9X9X9X9X9X9X9X9X9X9X9X9X9X9X9X9X9X9X9X0X9X9X9X0XrXrXtXtXyXyXyXhXhXhXlXlXlXlXlXzXbXmXmXmXmXmXmXmXbXbXbXbXbXmXmXbXmXmXmXmXmXmXmXmXmXmXzXxXbXmXmXmXmXZXZXmXZXZXCXCXCXCXCXVXCXCXVXDXDXVXCXCXCXCXDXDXDXCXCXFXFXFXFXFXFXFXDXFXFXDXDXDXVXVXCXVXVXVXVXVXCXVXmXdX Xj.W K K P P m x c c g p v c c c M Y Y ^ ( ( <.9.e.9.9.9.9.9.9.9.1.1.5.9.9.u.u.2.1.3.1.1.1.1.1.1.1.1.5.5.5.5.1.1.1.<.<.1.1.1.5.5.5.5.1.<.<.<.3.<.<.2.2.2.<.<.2.5.5.5.5.5.5.5.e.5.5.5.5.2.5.5.5.5.5.5.5.5.5.5.5.5.5.5.9.9.5.5.e.e.e.5.5.5.5.5.9.e.e.r.y.y.y.y.v.v.y.v.y.v.Z.Z.v.v.I.I.I.Y.Y.I.~.~.~.~.~.~.~.~.~.Q.!.!.!.!.!.!.!.!.!.!.!.!.!.+X+X{.[.!.!.!.+X+X[.+X+X$X+X!.!.!.{.{.{.[.{.+X#X;X;X;X%X#X#X#X;X;X%X%X%X%X=X=X%X%X=X&X&X&X&XoXXXoXL.H.C.C.x.=.o.! ! Q ! ~ I Q ! ! ! ! Q U j f k j j f t j j t f j k u e w w w w e u w , w e u p u i i w w e e w , i i i i i e e w u u u u u e , , e u p u i p p p p p g g g g p u e > > w w - * # * * * * * * * * * * * * & & & & 3 3 3 3 3 3 3 3 3 3 3 3 3 3 3 4 3 3 3 3 3 3 3 3 3 3 3 3 3 3 3 3 3 3 3 3 3 2 2 2 2 2 2 2 3 2 2 3 & & & & & & % $ & & & & % % % & & % & & & & & & 3 % & 3 3 6 y a k V U I Q ! o.o.",
"Y M M Y Y Y T / ;.o.$.$.=.w.d.C.C.P.L.^.OXOXOX*X=X=X8X8X8XUXeX8XeX8X8X8X8X8XeXeX0XwXwXwX0X0X0X9X9X0X0X0XrXrXrXrXrXrXrXrXaX0X9X9X9X9X9X9X9X9X9X9X9X9X9X9X9X9X9X0X0X0X0X0X0XrXrXtXtXtXyXyXhXhXhXlXlXlXzXzXzXbXmXmXmXmXmXmXmXbXbXbXmXmXmXmXmXmXmXmXmXmXmXmXmXmXmXmXbXmXmXZXMXmXZXZXZXZXZXCXCXCXCXCXCXCXVXCXDXDXCXCXDXDXDXDXDXDXDXDXFXFXCXDXFXFXFXDXFXFXDXCXCXVXVXCXVXVXVXVXCXCXVXMXdX Xj.W P P P P x g c c c g c c v c M M Y ^ ( O.2.9.r.e.e.e.9.9.9.u.2.1.u.u.u.2.2.1.3.3.1.1.1.<.1.1.1.1.1.5.5.5.5.5.1.1.1.1.1.1.1.5.5.2.<.<.O.<.<.<.<.<.1.2.2.<.1.5.5.5.5.5.5.5.5.5.5.5.5.5.5.5.5.5.5.5.5.5.5.5.5.5.9.e.e.e.e.5.5.5.5.5.5.5.5.5.e.e.e.e.e.y.y.Z.v.v.v.v.y.v.Z.Z.Z.Z.Y.Y.Y.Y.Y.Y.~.~.~.~.~.~.~.!.~.~.!.!.!.!.!.~.!.!.!.!.!.!.!.[.+X#X{.!.!.!.!.[.+X[.+X+X[.W.Q.W.{.{.{.[.[.{.#X;X#X%X;X;X%X%X%X%X%X=X=X=X=X%X%X&X&X&X&X-X-X-XoXXXL.H.C.j.=.=.%.o.! ! ! Q I ~ Q Q ! o.! I j f f j :.f t j P j f f k f e e w q w e u w > , e p p p i i e e i i , , i i i i i i i i e e u p p p i e e u i i i u p p p p p g g g u e e > - - > & & * * * * * * * * * * * & & & & & & 3 3 3 3 3 3 3 3 3 3 3 3 3 3 4 4 3 3 3 3 3 3 3 3 3 3 3 3 3 3 3 3 3 3 3 3 2 2 2 2 2 2 2 2 2 2 2 3 3 & & & & & & % & & % % % % & & & & & & & & & & & % & 3 3 3 y a k V U I Q ! o.o.",
"Y M M Y Y Y T / ;.o.$.$.=.w.C.C.C.P.L.^.OXOXOX*X=X=X8X8X8X8X8X8X8X8XeX8X8X8X8X8X0X0X0XwXrX0X0X9X0X0X0X0XrXrXrXrXrXrXrXrXrXaX0X9X9X9X9X9X9X9X9X9X9X9X9X9X9X9X0X0X0X0X0X0XrXrXtXtXtXyXyXyXhXhXlXlXlXlXzXzXbXbXmXmXmXmXmXmXmXmXbXbXmXmXmXmXbXbXmXbXmXmXbXbXbXmXmXmXbXmXZXZXZXZXZXZXZXZXZXCXCXCXCXCXCXVXCXDXDXDXVXCXDXDXDXDXDXDXDXDXFXFXCXDXFXFXFXFXFXFXDXCXCXVXVXCXVXCXCXVXCXCXVXNXdX Xj.W P P P m g g c c c g v c v c M M Y ) ( 3.u.9.e.e.e.r.9.9.9.9.2.2.2.u.2.1.1.3.3.3.3.3.<.<.1.1.1.1.1.1.1.1.5.5.5.1.1.1.1.1.<.5.5.5.<.<.O.<.<.<.<.<.<.<.<.2.<.<.5.5.5.5.5.5.5.5.5.5.5.5.e.e.5.5.5.5.5.5.5.5.5.9.e.e.e.e.9.5.5.5.5.5.9.9.9.e.r.e.e.9.e.r.y.Z.y.y.y.v.y.v.Z.Z.Z.Z.I.Y.Y.~.Y.Y.Y.Y.Y.Y.Y.~.~.~.~.~.!.!.!.Q.~.!.!.!.!.!.!.!.!.!.+X{.{.!.!.!.!.!.+X[.[.[.[.W.W.!.{.#X#X{.[.[.+X#X#X#X;X:X;X%X#X#X%X%X=X=X=X%X&X&X&X&X&X&X&X-XXXXX_.H.C.=.=.=.*.o.! Q Q ! Q Q Q Q Q ! ! I j f f f j f t f j j f t g f u e w q w w e w , , w e u p i i i i i i w , i i i i i i i i e e u p p p p i , i u i i i p p p p p g g p u w u > - - > & & & * * * * * * * * * & & & & & & & 3 3 3 3 3 3 3 3 3 3 3 3 3 4 4 4 3 3 3 3 3 3 3 3 3 3 3 3 3 3 3 3 3 3 3 3 3 2 2 2 2 2 2 2 2 2 2 3 % & & & & & & & & & % % % % & & % % % % % % % % & $ $ 3 3 3 y a h V U I Q ! o.o.",
"U M M Y Y Y T ! _ o.$.$.=.=.d.C.C.P.P.^.OXOXOX*X*X=X8X8X8X8X8X8X8X8XeXeX8X8X8XqXqX0XwXwX0X0X9X9X0X9X0X0XrXrXrXrXaXrXrXrXrXaX0X9X9X9X9X9X9X9X0X9X9X9X9X9X9X0XaX0X0X0X0X0XrXrXtXtXtXyXyXyXhXhXlXlXlXlXzXzXbXbXmXmXmXmXmXmXmXmXbXbXmXmXmXmXmXmXmXbXmXbXzXzXbXmXmXmXbXmXmXZXZXZXZXZXZXZXCXCXCXCXCXCXCXCXDXDXDXCXVXCXDXDXCXCXCXCXDXDXDXFXCXDXFXFXFXFXFXFXDXCXCXCXCXCXVXCXCXVXVXVXVXMXwX Xj.W P P P P x c c c c g c c v c M M Y ) ( 3.u.9.e.e.e.t.t.9.e.9.u.2.2.1.1.1.1.3.3.1.1.1.3.<.1.1.1.1.<.<.<.<.<.<.<.<.<.1.1.5.<.4.9.5.1.<.<.<.<.3.<.<.<.<.<.1.3.3.5.5.5.5.5.5.5.5.5.5.5.5.e.e.5.5.9.9.e.e.e.e.5.5.e.e.e.e.5.5.5.5.5.e.e.e.5.5.r.e.e.e.e.y.y.y.y.y.y.y.y.v.Z.Z.y.y.I.Y.Y.~.Y.Y.Y.Y.Y.Y.Y.~.~.~.!.~.!.~.Q.Q.Q.!.!.!.[.[.!.!.!.!.[.{.{.{.[.!.!.[.+X[.!.!.!.!.[.+X#X#X>X#X[.[.+X#X+X#X;X;X;X%X$X#X&X&X%X%X=X%X=X=X&X&X&X&X&X-XoXoX_.L.F.j.=.=.*.o.' Q I Q Q Q Q ~ Q ! ! I P j j k j j f t t f j f f f u e w w w w e w w , , w u u i i i i i i i i i i i i i i u i i u i u p g p i , i p p i p p p g g g x k p u w e > > > > & * & & * * * * * * * * & & & & & & & 3 3 3 3 3 3 3 3 3 3 3 3 3 4 7 7 3 3 3 3 3 3 3 3 3 3 3 3 3 3 3 3 4 4 4 3 3 2 2 2 2 2 2 2 2 2 2 3 % & 3 3 3 & & & & & & & & & & & $ $ $ $ $ $ $ $ % $ $ & 3 3 r a f j P R Q ' o.o.",
"M m M I Y Y T ! ;.o.o.$.=.=.d.C.C.P.P.^.|.OXOX*X*XUX8X8XeXeX8X8X8XeX3X3X3X8XqXqXqX0XwXwXrX0XqX9X0X0X0XrXrXrXrXrXrXrXrXrXrXaX0X9X9X9X9X9X0X0X0X0X9X9X9X9X0XaXaX0XrX0X0X0XrXiXtXtXtXyXyXyXhXhXlXlXlXlXzXzXbXbXmXmXmXmXmXmXmXmXmXmXmXmXmXmXmXmXmXmXmXmXzXzXzXbXmXmXbXbXmXmXmXmXZXZXZXZXCXCXCXCXCXCXCXCXDXDXDXCXCXCXDXDXDXCXCXDXDXDXFXFXCXDXFXFXFXFXFXFXDXCXCXVXVXCXVXCXCXVXVXVXVXMXwX Xj.W P K P P m c g g g p c c v c M M Y / O.1.2.9.9.9.e.y.y.e.r.9.u.2.1.1.1.3.1.1.1.1.1.1.1.<.1.1.1.3.<.<.<.<.O.O.@.@.<.1.5.5.<.5.9.9.5.<.<.1.<.3.<.3.<.3.<.1.<.1.5.9.9.9.9.e.e.9.5.5.5.5.e.e.9.5.9.e.e.e.e.e.5.5.5.5.5.5.5.5.5.9.e.e.e.9.5.5.e.e.r.r.r.y.r.r.y.y.y.y.y.y.Z.Z.y.y.y.Y.Y.Y.Y.Y.U.U.Y.Y.~.~.!.!.!.!.~.~.Q.Q.Q.!.!.!.[.[.!.!.!.!.!.[.{.{.+X{.+X+X+X!.!.!.[.[.+X>X#X#X;X#X+X[.+X#X#X#X;X;X%X$X#X#X@X&X%X%X:X=X=X=X=X=X=X=X=X&XoXoX_._.H.x.=.-.*.o.o.Q I I I Q ~ I Q ! ! Q U P j j j P j t y f j j u f u e , q w w w w w w , , e u i i i i i i i i i i i i i u u i p i i i p g p i , i p p i p v c c x x x x p i w w > > > > * * * & * * * * * * * * & & 3 9 3 & & 3 3 3 3 3 3 3 3 3 3 3 3 4 4 7 7 3 3 3 3 3 3 3 3 3 3 3 3 3 3 3 3 7 4 4 3 3 2 2 2 2 2 2 2 2 2 2 3 % 3 3 3 3 3 3 & & & & & 3 3 3 & $ $ $ $ $ $ $ $ $ $ $ & 3 3 r y a h P R Q ' o.%.",
"m m m Y T T T T _ o.$.=.=.s.C.C.C.J.P.^.OXOX-X*XUXUX8X8X8XeXeX8XeXeX8XeX3X8X9XqXwXwX0X0X0X9X0X9X9X0XrXrXrXrXrXrXrXrXrX0X0X9X9X9X9X9X9X9X0X0X0X0XrXrX9X9X9X9X0X0XrX0X0X0XrXrXtXtXtXtXyXyXhXhXlXlXlXzXvXbXbXmXmXmXmXmXmXMXmXmXmXmXmXmXmXmXmXmXbXbXzXzXzXbXmXmXbXbXzXbXMXZXZXZXVXCXZXVXCXCXCXCXCXCXCXCXDXDXDXFXCXCXDXCXCXCXCXCXCXFXCXDXDXFXFXFXFXFXDXDXDXCXCXCXCXCXDXVXVXVXVXDXVXvX9X XM. .R V V V m g p p c c c c v c Y ) ) / O.1.5.e.r.e.r.r.r.5.e.e.9.2.1.1.1.2.1.1.3.1.1.1.1.1.3.3.1.1.1.1.<.<.O.@.<.1.4.4.4.4.1.<.<.<.5.5.5.5.1.1.1.3.1.1.2.2.2.1.4.2.5.2.9.9.5.5.9.9.9.5.5.5.9.9.9.9.9.9.9.9.5.9.e.e.e.e.5.2.5.5.e.e.r.e.5.2.2.7.e.e.y.y.y.e.y.y.y.y.y.f.Z.I.y.I.I.y.I.Y.Y.Y.Y.Y.~.~.!.!.~.~.!.!.!.!.~.~.!.!.!.!.!.!.!.!.+X+X{.{.{.[.!.[.+X+X+X+X[.!.!.!.+X+X#X#X#X#X#X#X+X+X#X$X$X#X#X#X$X%X$X%X%X:X%X%X%X%X%X%X%X%X%X&X$XXXXXL.H.C.=.*.*.o.! Q Q I U U I Q Q Q ! ! Q K j j j P j f f j P j f f u e e w w w e e w w w w w w i i i u i i i i i i i i , , i i i i g g p i i i i p p p i p g c x k x x x g e w > & & & q 6 * # & & & & & & & & & 3 3 3 & & & 3 3 3 3 3 3 3 3 3 3 3 3 3 4 4 4 4 3 3 2 2 2 2 2 2 3 3 3 3 3 3 3 3 2 3 3 3 3 2 2 3 2 2 2 3 3 3 2 2 3 3 3 3 3 3 3 3 $ $ 3 3 3 3 % % 2 2 2 % 2 % 2 % 1 $ 1 $ 2 3 r a f j P R Q !  .o.",
"m m m T T T T T _ o.$.$.=.s.M.M.C.J.J.^.|.OX-X*XUXUX8X8X8XeXeX8X3X3X8X3X3X8XqXqXwX0X0X0X0X0X9X9X9X0XrXrXrXrXtXtXrXrXrX0X0X9X9X9X9X9X0X0X0X0X0XrXrXrX0X0X9X0XaX0XrX0X0X0XrXrXtXtXtXyXyXyXhXhXlXlXzXzXzXbXbXbXmXmXmXMXMXMXmXmXmXmXmXmXmXmXmXmXbXbXzXbXmXmXmXmXmXmXvXmXMXZXZXZXVXVXZXVXCXCXCXCXCXCXCXCXDXDXDXFXCXCXDXDXDXCXCXDXFXDXCXDXDXFXFXFXFXFXDXDXDXCXCXCXCXCXDXVXVXVXVXVXVXzX9X XN. .R K V V j g p p c c c c v c Y Y ) ( O.4.9.9.r.r.r.r.r.5.e.9.5.2.1.1.1.1.3.3.3.3.1.1.1.1.3.1.1.1.1.3.<.<.@.<.1.1.1.4.1.1.<.<.<.<.1.5.5.5.2.1.1.1.1.2.1.2.1.2.8.8.8.u.8.8.5.9.9.e.9.9.9.9.9.9.9.9.9.9.9.9.5.9.e.e.e.9.5.2.2.5.e.e.e.e.9.5.2.7.e.e.y.y.y.y.y.y.y.y.y.f.Z.I.I.Y.I.I.I.Y.Y.Y.~.~.~.~.~.~.~.~.~.!.!.!.!.!.!.!.!.!.{.!.!.!.{.+X+X{.{.{.[.{.+X+X+X+X+X[.!.[.+X#X#X#X#X#X#X#X@X#X#X#X#X#X$X$X%X;X:X:X:X:X=X%X%X%X%X%X%X%X%X$X@XoXoX].H.F.x.=.*.o.{ ! Q I U P U I I Q ! ! Q P j j m U P f f j P j j f u e e e e e e e w e e e i i i i u u u i i i u i i i < < i p i i p p p i i i i p p p p p c x x k k x x g e w > - & & - - * # & & & & & & & & & 3 3 3 & & & 3 3 3 3 3 3 3 3 3 3 3 3 3 4 4 4 4 3 3 3 3 3 3 3 3 3 3 3 3 3 3 3 3 2 3 3 3 3 2 2 3 2 2 2 3 3 3 3 2 2 2 2 2 3 3 3 2 1 1 2 3 3 2 2 2 2 2 2 2 2 2 2 2 1 1 1 1 2 3 r a f j P I Q !  .o.",
"m m m T Y Y T T ;._ o.$.=.s.s.M.M.P.J.L.|.|.-X*XUXUX8X8XeXeXeX8XeX3X8X3X3X8XqXqXqXqX0X0X0X0X0X9X9X0XrXrXrXrXrXiXrXrXrX0X0X0X9X9X0X0X0XaXaXrXrXrXrXrXaXaXaXaXaX0XrX0X0XrXrXrXtXtXtXyXyXyXhXhXlXlXlXzXzXbXbXbXmXmXMXMXMXMXMXmXmXmXbXmXmXmXmXmXmXmXbXmXmXmXmXmXmXmXzXmXMXZXZXZXZXVXZXVXCXCXDXCXFXCXCXDXDXDXDXDXFXCXFXFXDXDXDXDXDXDXDXDXDXFXFXFXFXFXDXDXDXDXCXCXCXCXVXVXVXVXVXVXNXhX9X XN.-.W K K V j g p g c c c c c c M Y ) } 1.9.9.r.r.r.r.r.r.9.9.5.2.2.1.1.1.3.3.3.3.1.3.1.1.1.3.1.1.1.1.3.3.<.<.1.1.1.1.1.1.1.<.<.<.<.<.2.2.2.1.1.1.1.1.2.1.1.5.5.9.9.1.1.1.1.5.9.r.r.e.e.e.r.e.e.9.9.0.0.0.9.5.9.e.e.9.9.2.2.2.2.5.9.9.9.9.e.7.e.e.y.y.y.y.y.y.y.y.y.y.f.Z.I.Y.Y.Y.I.I.Y.Y.Y.~.~.~.~.~.~.~.~.~.!.!.!.!.!.!.!.#X#X+X!.!.!.+X#X{.{.{.{.{.{.{.+X$X+X+X+X+X+X$X#X#X#X#X#X#X#X$X$X$X#X#X#X$X%X;X:X:X:X:X:X%X%X%X=X%X%X%X%X$XoX@X@XoX].L.H.C.=.&.+.o.! Q I P x x P I ~ ! ! Q I :.j P I U j f j P j x k u e e e e e e e e e i i i i u u u u u i i i i i i i i i i p i i p p g g p p i p g g p g c m x x k x x k u w w - & * & & & * & & & & & & & & & 3 3 3 3 & 3 3 3 3 3 3 3 3 3 3 3 3 3 3 3 4 3 3 3 3 3 3 3 3 3 3 3 3 3 3 3 3 3 3 2 3 3 3 3 2 2 3 2 2 3 3 3 3 2 2 2 2 3 3 3 3 2 2 2 2 2 3 3 2 2 2 2 2 2 2 2 2 2 2 1 1 1 1 2 3 r a f k P I Q ! { o.",
"m m m T Y Y T T ;._ o.$.=.s.M.M.M.P.J.J.|.|.OX*X*XUX8X8XeXeXeX8XeXeX8X3X3X8XqXqXqXqX0X0X0X0X0X0XqX0XrXrXrXrXrXtXrXrXrXrX0X0X0X9X0X0XaXaXrXrXrXrXrX0XaXaXaXaX0X0XrX0X0X0XrXrXtXtXyXyXyXhXhXhXlXlXlXzXzXbXbXbXmXmXMXMXMXNXMXmXmXmXmXmXmXmXmXmXmXmXbXmXmXmXmXmXmXmXbXmXMXZXZXZXZXZXZXVXCXCXFXFXFXCXCXDXDXDXDXDXFXCXDXDXDXDXDXDXDXDXDXDXFXFXFXFXFXFXFXDXDXDXCXCXCXCXCXVXVXCXVXVXNXhXqX2X).-.' R K V k g g c c c c c c c c Y / O.8.9.9.r.y.r.r.r.r.9.5.5.5.2.2.1.1.3.<.3.3.3.3.3.1.1.1.1.1.1.1.1.3.<.1.1.2.1.1.1.1.<.<.<.<.<.<.1.2.1.1.1.1.1.1.2.1.1.9.9.9.9.9.1.1.1.5.9.e.r.e.e.r.r.r.r.r.r.e.e.e.e.5.9.9.9.9.5.2.5.5.2.2.2.5.9.e.e.7.e.e.y.y.y.y.y.y.y.y.y.y.f.Z.I.Y.Y.Y.I.I.Y.Y.Y.Y.Y.~.~.~.~.~.~.~.!.!.!.!.!.!.!.>X#X#X{.!.!.{.#X+X{.{.{.{.{.{.+X+X+X+X+X+X+X+X#X+X+X+X+X#X#X#X%X%X$X#X#X@X$X%X:X:X:X:X;X%X%X%X%X%X%X=X%X@XXXoX$XoXoX].L.F.x.&.+.o.! Q ~ U F x P I ~ Q ! ! I P j P I I P j j j j P j u e e u e e e e e e i i i u i u i u i i i i i i i i i i p p i i i p c c g p i p g g g c x m m x k x x x p e e w & * * * * * & & & & & & & & & 3 3 3 3 & 3 3 3 3 3 3 3 3 3 3 3 3 3 3 3 3 3 3 3 3 3 3 3 3 3 3 3 3 3 3 3 3 3 3 2 3 3 3 3 2 2 2 2 2 3 3 3 3 2 2 2 2 3 3 3 3 2 2 1 2 2 3 3 2 2 2 2 2 2 2 2 2 2 2 1 1 1 1 2 3 r a d h V U I ! { o.",
"m m m Y Y Y T ! ;._ o.$.=.s.M.C.C.P.J.J.|.|.-X*X*X=XeX8X8X8X8X8X3X3X8X3X3X8XqXqXqXqXwX0X0X0X0X0X0X0XrXrXrXrXrXtXiXrXrXrXrXrX0X0XrXaXaXrXrXrXrXrX0X0XaXaX0X0X0X0XrX0X0X0XrXrXrXtXyXyXyXhXhXlXlXlXlXzXzXbXbXbXmXmXMXMXNXNXNXmXmXmXmXmXmXmXmXmXmXmXbXbXmXmXmXmXmXmXmXmXMXZXZXZXZXZXZXVXCXCXCXCXDXCXDXDXDXDXDXDXDXFXDXDXDXCXCXDXDXDXFXFXFXFXFXFXFXDXFXFXDXDXDXCXCXCXCXVXDXCXVXVXNXhX0X2X`.M...W K V j g g c c c c c c v c Y / @.8.9.0.r.r.e.e.r.e.9.5.9.9.5.5.2.1.1.3.3.3.1.1.1.1.1.1.1.1.2.1.1.1.3.2.5.5.5.5.1.<.<.2.<.<.<.2.2.2.2.1.1.2.2.5.5.4.4.9.9.9.9.5.4.4.1.5.5.9.9.9.9.r.r.r.r.r.r.r.e.e.9.5.5.5.5.5.5.5.5.5.5.5.5.5.5.e.e.7.e.e.y.y.y.y.y.y.y.y.y.v.v.Z.I.Y.Y.Y.v.I.Y.I.I.v.I.~.!.!.!.!.!.!.!.!.~.!.!.!.!.>X>X+X[.!.!.{.+X+X{.+X+X+X+X{.{.[.+X+X+X+X+X+X$X+X+X+X+X#X#X#X%X%X%X$X#X@X#X$X%X$X%X;X:X:X;X%X%X%X%X=X%X@XXX@X$XoXoX].K.H.x.*.o.+./ Q Q I U P U I I Q ! ! Q P j P U I P j j j j P k f u u u e e e e i i i u u u i i i i i i i i i i i i i i i i p u i p g c g g p g c c g c x m m m x m m x g u u t w & * * # # * * & & & & & & & 3 3 3 3 & 3 3 3 3 3 3 3 3 3 3 3 3 3 3 4 4 3 3 2 2 2 2 2 2 2 2 3 3 3 3 3 3 3 3 2 3 3 3 3 2 3 2 2 3 3 3 3 3 2 2 2 3 3 3 3 3 2 2 2 2 2 3 3 2 2 2 % % 2 2 % % % % $ $ $ $ 3 3 y a a k V U I ! { o.",
"m m m Y Y Y T T ;._ o.$.=.s.C.C.C.J.J.^.|.OX-X*X*X=XeX8X8X8X8X8X3X3X8X3X3X8X8XqXqXqXwXwX0X0X0X0X0X0XrXrXrXrXtXtXiXrXrXrXrXrX0X0XaXaXaXrXrXrXrXrX0X0XaXrXrXrX0X0XrX0X0X0XrXrXtXtXyXyXyXhXhXlXlXlXzXzXbXbXbXmXmXmXMXNXNXNXNXmXmXmXmXmXmXmXmXmXmXbXbXbXmXmXmXmXmXmXmXMXZXVXMXZXZXZXZXVXCXCXCXCXCXCXDXDXDXFXDXDXDXFXDXDXDXCXCXDXDXDXFXFXFXFXFXFXFXDXFXFXFXDXDXCXCXCXDXCXDXCXBXVXVXbXtX9X XF.-.' R V j k k c c c c c c c c Y ( @.8.9.r.y.y.e.9.e.e.9.9.5.5.5.2.2.2.1.1.1.1.1.1.1.1.1.1.1.2.2.2.1.1.3.2.5.5.5.5.2.<.<.2.2.2.2.2.2.2.2.1.2.2.5.5.5.4.4.9.9.9.9.9.5.9.9.5.5.5.5.5.9.r.r.r.r.r.r.e.9.9.9.9.5.5.5.5.5.5.5.9.5.5.5.5.5.5.5.e.e.e.y.r.y.y.y.y.y.y.y.y.v.Z.Z.I.Y.I.I.I.Y.Y.m.r.I.~.!.!.!.!.!.!.!.!.~.~.!.!.!.#X#X+X+X[.!.[.{.+X+X#X#X#X#X+X[.[.+X+X+X+X+X+X+X#X#X+X+X#X#X#X%X%X;X%X%X$X#X#X$X$X%X:X:X:X:X:X:X%X%X%X%X$X$X$X$XoXoX].K.H.x.=.*.+.{ ! Q ~ I U U I I I Q ! Q U P P U U U :.j j j F j k f u e e e u u u u u u u u i i i i i i i i i i e i i i i i p p p p p g g g g c c c g g x m m m m m m x g f u t w q * * * * * * & & & & & & & 3 3 & 3 & 3 3 3 3 3 3 3 3 3 3 3 3 3 3 4 4 3 3 2 2 2 2 2 2 2 2 3 3 3 3 3 3 3 3 2 3 3 3 2 2 3 2 3 3 3 3 3 3 3 2 3 3 3 3 2 3 2 2 2 2 2 3 2 2 2 2 % % 2 2 % % % % $ $ $ $ 3 3 y y a h V P R ! { o.",
"m m m Y T T T T / ;.o.$.=.s.M.C.C.J.J.^.|.OX-X*X*X=XeX8X8X8X8X8X3X3XeX3X3X8XqXqXqXqXwXwX0X0X0X0X0XrXrXrXrXrXtXtXiXiXrXrXrXrXrXrXrXrXrXrXrXrXrXrXrXrXrXrXiXrXrX0XrXrXrXrXrXtXtXtXyXyXyXhXhXlXlXlXvXzXbXbXmXmXmXmXMXNXNXNXNXMXmXmXmXmXmXmXmXmXbXbXbXmXmXmXmXmXmXmXmXMXNXNXMXMXZXVXZXVXCXCXVXVXCXCXDXDXDXFXFXDXDXDXFXDXDXDXDXDXDXDXFXFXFXFXFXFXFXDXFXFXFXDXDXCXCXCXDXCXDXCXBXVXVXmXjXwX2X_.M. .R V k k g g g c c c c M Y ) } 1.9.q.t.y.y.e.9.e.e.9.5.5.2.1.1.1.1.2.1.1.1.1.2.2.2.2.2.2.2.2.2.1.1.1.2.2.5.5.5.5.2.2.2.2.3.3.3.3.2.2.1.2.5.5.5.5.1.1.5.9.9.9.9.9.9.9.5.5.5.5.5.9.r.t.r.r.r.r.e.9.9.9.9.5.5.5.5.5.5.5.9.9.5.5.5.2.2.2.e.e.r.r.r.y.y.y.y.y.y.y.y.v.Z.Z.Z.I.I.I.I.Y.I.y.y.I.~.!.!.!.!.!.!.!.!.~.!.!.+X[.{.+X#X+X+X[.!.[.+X+X+X#X+X+X+X[.[.+X$X$X+X+X+X$X#X#X+X+X+X#X#X%X%X;X;X;X%X%X%X%X%X%X;X:X:X;X;X;X%X%X%X%X%X%X&X$X@XoX].K.H.C.=.=.+.{ ! Q Q I U P U P U ~ ! Q I P P P P U U P j j x P P j f u u u f u u u u u i i e i i u u p u u i i i i i i i i p p p p p p g g g c x c g g x m x m P m j g f f t t t q & & * & * * * * * * & & & & 3 3 & & & 3 3 3 3 3 3 3 3 3 3 3 3 3 4 4 4 3 3 3 3 3 3 3 3 3 3 3 3 3 3 3 3 3 3 3 3 3 2 2 2 2 3 3 3 3 3 3 3 3 3 3 3 3 3 3 3 3 2 2 2 3 2 2 2 2 % % 2 2 2 2 % % $ $ $ $ 3 3 y y a f V P I Q ' o.",
"m m m m T T T T ! ;.o.$.=.s.M.M.M.J.J.J.|.OX-X*X*X=X8X8X8X8X8X8X3X3X8X3X3X8XqXqXqXqXwXwX0X0X0X0X0XrXrXrXrXrXtXuXiXiXrXrXrXrXrXrXrXrXrXrXrXrXrXrXrXrXiXiXiXiXrXrXiXrXrXrXtXtXyXyXyXyXyXhXhXlXlXlXvXzXbXmXmXmXmXmXNXNXNXNXNXMXmXmXmXmXmXmXmXmXbXbXmXmXmXmXMXmXmXmXmXMXNXNXMXMXZXVXZXVXCXCXVXVXCXCXDXDXDXFXFXDXDXDXFXFXFXDXDXFXFXFXFXFXFXFXFXFXFXDXFXFXFXDXDXDXCXCXDXDXDXCXBXVXCXBXmXjXeX XN.%.W K j k g p p p c c c M ^ ( O.1.9.t.t.y.y.e.9.e.e.9.5.2.1.<.<.<.1.1.1.1.2.2.2.2.2.2.2.2.2.2.2.1.1.1.2.5.5.5.5.5.5.2.2.3.3.3.3.3.3.3.1.2.5.5.5.5.4.1.4.5.5.9.9.9.9.9.5.5.5.5.5.9.r.t.r.r.r.e.9.9.9.9.9.5.5.5.5.5.5.5.e.9.5.5.5.2.2.2.r.r.r.r.y.y.y.y.y.y.y.y.y.v.Z.Z.y.I.I.I.Y.Y.I.y.v.I.~.~.~.~.!.!.!.!.!.!.!.+X#X{.!.{.+X#X+X[.!.!.+X+X+X#X#X+X+X[.+X$X$X$X$X$X$X$X#X#X+X+X+X#X$X%X#X%X;X:X:X;X;X;X%X%X%X%X$X$X%X%X%X%X%X%X=X%X%X$X@XoX].K.H.C.x.=.#.{ ! Q Q I P P F k j I Q Q I U U P P U I U :.j x U U P k d u f g f p u u i i i i i u u p p p p p i i i p p i i p p g p p p p c c c x c g g c x k x P m k g f f t t t q q & & z * * * * * * & & * & 3 3 & & & 3 3 3 3 3 3 3 3 3 3 3 3 3 4 4 4 3 7 7 7 7 7 7 7 7 3 3 3 3 3 3 3 3 3 3 3 3 2 2 2 2 3 3 3 3 3 3 3 3 2 3 3 3 3 3 3 3 2 2 2 3 3 2 2 2 % % 2 2 2 % % % $ $ $ $ 3 3 y y a f j P I Q ' o.",
"m m m m m Y T T / _ o.$.$.=.M.C.C.J.J.^.|.-X-X*X*X3X8XeX8X8X8XeX3X3X3X3X8X8XqXqXqXwXwXwX0X0X0X0X0XrXrXrXrXrXiXtXiXtXiXrX0X0XrXrXrXrXiXiXiXiXrXrXrXrXrXrXrXrXrXrX0X0X0X0X0XrXtXyXyXyXyXyXhXlXlXvXbXbXbXbXbXmXMXMXMXMXMXmXmXMXMXNXVXVXNXmXmXbXmXmXbXmXmXmXmXmXmXmXMXMXmXmXNXNXZXVXCXVXVXVXCXVXDXFXDXDXDXDXDXDXFXFXFXFXFXFXFXFXFXDXFXFXFXFXFXFXDXDXFXFXFXFXFXDXCXCXFXCXCXCXCXVXVXBXmXjXqX*XF.%.W V j j x k x c c v M c Y ( <.9.9.9.e.e.e.e.e.e.e.e.9.5.5.1.<.<.<.3.1.1.1.3.3.1.1.1.2.5.5.5.5.5.5.2.5.5.5.5.2.2.2.<.3.3.3.3.3.2.2.2.5.5.5.5.5.5.4.5.4.4.4.4.5.9.9.9.5.5.9.e.r.r.r.r.t.r.r.e.9.5.9.9.5.5.5.5.5.5.5.5.5.5.5.5.5.5.5.e.r.r.r.e.r.y.v.v.v.v.y.v.v.m.v.v.I.I.I.I.U.I.I.Z.v.I.R.!.R.~.R.!.~.Q.!.!.!.#X#X+X!.!.[.[.[.[.[.[.+X+X#X#X$X+X+X[.+X!.+X$X>X>X$X+X+X+X#X#X#X#X@X+X#X%X:X:X%X$X$X$X$X%X%X%X%X$X%X%X%X%X$X$X$X$X$X&X@X@XoX'.K.F.x.w.=.+.{ ! Q Y U F x x j P ~ ! ~ P P P U I I P j j P F x x k d u f x k g g u u u u w i u p p p p p i i i i i i p p i u p g g g g k g k x k p p x m k x m m j k k k u t q q z & & & * * * * * * * * & & & & & 3 3 3 3 3 3 3 3 3 3 3 3 3 3 3 4 4 4 4 4 4 4 4 4 4 4 4 3 2 3 3 3 4 4 4 3 3 3 3 3 3 3 3 7 4 2 2 1 1 2 3 2 2 3 3 3 3 3 3 3 3 2 2 2 2 3 3 $ $ % & & % $ $ % $ $ % & 3 q y a f j P R ! o.o.",
"m m M M Y T T T / _ o.$.$.=.M.C.C.J.J.^.|.-X-X*X*X8X8X8X8X8X8XeX3X3X3X3X8X8XqXqXqXwXwX0X0X0X0X0XrXrXtXtXtXtXtXtXiXtXiXrX0XrXrXrXrXrXiXiXiXiXrXrXrXrXrXrXrXrXrXrXrX0X0X0XrXtXyXyXhXhXhXhXhXlXvXvXbXbXbXbXmXmXMXMXNXMXMXMXMXMXMXNXVXVXNXmXmXmXmXmXmXmXmXmXmXmXmXmXMXMXNXNXNXBXVXVXVXCXVXVXCXCXCXDXDXDXDXDXDXDXFXFXFXFXFXFXFXFXDXDXFXFXFXFXFXFXDXDXFXFXFXFXFXDXCXCXFXCXCXCXCXVXVXBXNXkXdX3X).-.' K P F k g g c c c c c Y ( 1.9.9.q.r.t.t.r.r.e.e.e.5.5.2.1.1.1.1.1.5.2.1.1.1.1.1.2.1.2.5.5.5.5.2.1.5.5.5.5.2.2.2.2.2.2.3.3.3.3.2.2.5.2.4.5.5.5.5.5.4.4.4.4.5.9.9.9.5.9.9.r.r.r.r.r.t.r.r.e.9.5.5.9.5.5.5.5.5.5.5.5.9.5.5.5.5.5.5.5.e.e.e.e.r.r.y.v.v.y.y.v.v.I.m.v.I.I.I.I.I.I.I.I.I.U.!.!.R.~.!.!.~.!.!.!.!.{.{.!.!.[.[.+X[.[.[.[.+X+X+X+X+X+X+X+X+X+X+X$X#X>X#X+X+X#X#X#X#X#X#X@X#X;X:X:X%X$X$X$X$X%X%X%X%X$X%X%X%X%X%X$X$X$X$X&X&X&X@X'.L.H.C.x.=.+.o.! Q ~ U P x x j F I Q ~ P P P P I I U m :.P F j j j k f u g g g g p p p p u u p p p p p p p p p p i p p p u p p g g g k k x x x k g p g x k x m x j f u u t e q > z & & & * * * * * * * * & & & & 3 3 & 3 3 3 3 3 3 3 3 3 3 3 3 3 4 4 4 4 4 4 4 4 4 4 4 4 3 3 3 3 3 3 4 4 3 3 3 3 3 3 3 3 7 4 2 2 1 2 2 3 2 2 2 2 2 2 2 2 3 3 2 2 2 2 3 3 $ $ % & & % $ $ & $ $ 3 3 3 q y a h V P R ! { o.",
"m m M T Y T T ! _ _ o.$.=.=.C.C.C.J.J.^.|.-X-X*X*XeX8X8X8X8X8X8X3X3X3X3X8X8XqXqXqX0XwX0X0X0X0X0XrXrXtXiXiXtXiXiXiXiXiXrXrXrXrXiXrXrXiXiXiXrXrXrXrXrXrXrXrXrXrXrXrXrXrXrXiXtXyXyXhXhXhXhXlXnXvXvXbXbXbXbXmXmXMXMXMXMXMXMXMXMXMXMXNXNXMXmXmXmXMXMXmXmXmXmXmXmXmXmXNXNXNXMXBXVXVXVXVXVXVXVXVXVXCXCXDXDXDXDXDXDXDXDXDXDXFXFXFXFXFXFXFXFXFXFXFXFXDXDXDXFXFXFXFXDXCXCXCXCXCXCXCXCXVXBXNXmXkXqX`.j.] R I P g p p c c v v c ^ O.8.q.q.q.y.y.y.y.y.t.e.9.5.5.5.1.1.5.5.5.5.5.2.1.1.2.5.5.2.5.5.5.5.5.5.2.5.5.5.5.2.2.2.2.5.5.2.3.3.3.2.2.<.1.1.5.5.5.5.5.4.4.4.4.5.9.9.9.9.9.e.r.r.r.r.r.r.r.r.e.9.5.9.9.e.5.5.5.5.5.5.e.e.e.e.e.9.5.5.5.5.5.e.r.e.e.r.r.y.y.y.v.m.I.m.m.Z.Z.Z.I.I.I.I.I.U.R.~.~.R.R.R.!.!.!.!.Q.W.!.!.W.!.[.[.[.[.[.+X[.+X+X+X+X+X+X$X$X$X+X+X+X$X#X#X$X#X#X#X#X$X#X#X#X$X;X:X:X%X%X$X$X%X;X;X;X%X$X%X%X%X%X%X$X$X$X%X%X&X&X@XoX].G.D.C.=.*.o.! Q Q I U F c x x U Q ~ U P P P I I I P U F F j k F U x u k g g g g g g g g g p p p p p p p p p p p p p p p p g g g g k k x x m x g p p g k x m x k u t q e q q z z z & & & & & & & & & & * * & & & & & & 3 3 3 3 3 3 3 3 3 3 3 3 4 4 4 4 3 4 4 4 4 4 3 3 2 2 2 3 3 3 3 3 3 3 3 3 3 3 3 3 4 4 2 2 2 2 3 2 1 1 1 2 2 2 2 2 3 3 3 3 2 3 3 3 $ % & & & & % $ & % % & 3 3 q y d k V P I Q ' o.",
"m m M M Y T T ! _ _ o.$.=.s.C.C.C.J.J.^.|.-X-X*X*X8X8X8X8X8X8X8X8X3X3X3X8X8XqXqXqX0XwX0X0X0X0X0XrXrXtXtXiXiXiXiXiXiXiXiXrXrXrXiXrXiXiXiXiXiXrXrXrXrXrXrXrXrXrXrXiXrXrXrXtXtXyXyXhXhXhXhXlXnXvXvXbXbXbXmXmXmXMXMXMXMXMXNXNXNXNXMXMXMXMXMXMXMXNXNXmXmXmXmXmXmXmXmXNXNXNXNXBXVXVXVXCXCXVXVXVXVXCXCXDXDXDXDXDXDXDXDXDXDXDXFXFXFXFXFXDXFXFXFXFXFXDXDXDXFXFXFXFXDXDXCXCXCXCXCXCXCXVXVXNXmXkXqX|.j...R I P k g g c c v v c ^ O.9.q.q.q.y.t.y.y.t.e.9.5.5.5.5.1.1.1.5.5.5.2.1.1.1.2.5.5.5.5.9.9.9.9.5.5.5.5.5.5.5.2.2.2.5.5.<.3.3.3.2.2.<.1.5.5.5.9.9.9.5.5.4.4.5.9.9.9.9.9.e.r.r.r.r.r.r.r.e.9.5.9.9.9.r.e.5.5.5.5.5.5.e.e.e.e.e.5.5.2.1.5.r.r.e.9.e.r.y.y.y.v.m.I.I.I.v.v.Z.Z.Z.I.I.U.U.U.U.U.I.I.R.R.!.!.!.R.Q.!.!.W.!.!.[.[.[.[.[.+X+X+X[.[.+X+X#X#X$X+X+X+X#X#X#X#X#X#X#X#X#X$X#X%X%X;X:X;X%X%X$X$X%X;X;X;X%X%X$X$X%X%X$X$X$X$X$X&X&X&X@XoX].K.D.D.=.&.o.! Q Q I U F c x x P I ~ U F x U I I I P P V P j f j U P g k k g g g g g d g p g g g g p p p g g g p p p p p g g g g g g k k x m m x g g p k j x j k u e q q > z & & z & & & & & & & & & & * * & & & & & & 3 3 3 3 3 3 3 3 3 3 3 3 3 3 4 3 3 4 4 4 4 3 3 3 2 2 3 3 3 3 3 3 3 3 3 3 3 3 3 3 4 3 2 2 2 3 2 2 1 1 1 2 2 2 2 2 3 3 3 3 2 2 3 3 $ % & 3 & & % $ 3 % % 3 3 3 q y f k V P I Q ' o.",
"m m m m Y T T T ;.;.o.$.=.s.M.C.C.J.J.L.|.|.-X*X3X8X8X8X8X8X8X8X8X3X3X3X8X8XqXqXqXwXwXwX0X0X0X0X0XrXiXiXiXiXtXiXiXiXiXiXiXiXiXiXrXrXiXiXiXiXiXrXiXrXrXrXrXrXrXrXrXrXrXiXtXtXtXtXyXyXhXhXlXlXvXvXbXbXbXmXmXMXMXMXMXMXNXNXNXNXNXMXMXMXMXNXNXNXNXNXMXMXmXmXmXmXmXmXMXMXMXNXNXVXVXVXVXVXCXVXVXVXVXCXDXDXDXDXFXFXDXDXDXDXFXFXFXFXDXFXDXDXFXFXFXFXFXFXDXFXFXFXFXDXDXDXFXCXCXCXCXCXVXVXBXmXkXqX|.N.-.' R P j x x c c v c c ) O.9.q.9.q.r.t.y.y.y.e.5.2.5.5.5.4.<.<.<.<.1.1.1.1.1.5.5.5.5.5.5.5.5.5.5.5.5.5.5.4.5.2.2.5.<.<.3.<.3.<.2.5.1.1.5.9.9.r.0.0.9.5.4.4.4.9.9.9.5.5.9.9.e.e.e.e.r.r.0.9.9.9.9.9.v.r.e.5.5.5.5.5.5.9.e.e.e.5.5.<.5.9.r.t.r.e.e.e.r.r.y.v.v.m.I.I.v.v.v.Z.Z.I.I.U.R.U.U.I.I.U.R.R.Q.W.Q.R.W.!.[.!.!.!.!.[.[.[.[.[.+X+X+X+X+X$X#X#X$X$X+X+X$X$X%X>X;X%X#X#X$X#X%X%X;X;X;X;X%X%X$X#X%X%X;X;X%X#X$X$X$X$X#X#X#X#X$X$X@X@XoXoX'.E.H.D.w.&.o./ Q Q Y U F c x x F I I U k j P I ~ I P K j U P g f F U P x k g g g g d u u u p g c c g p p p g g g g p p p g g g g g g k k x x m x k g g k k j k g u e q > & & & & z & & & & & & & & & & * * & & & & & & 3 3 3 3 3 3 3 3 3 3 3 3 3 3 3 3 3 3 4 4 4 4 3 3 3 3 3 3 3 2 3 3 3 3 3 3 3 3 3 3 3 3 3 2 2 2 2 3 2 2 2 2 2 2 2 2 2 2 2 3 3 3 3 3 % & & & & % % % 3 & % & & & 6 y f k V P U I ! ' ",
"m m m m m Y T T ! ;.o.$.=.s.s.M.C.J.J.^.|.|.|.*X3X8X8X8X8X8XqX8X8XeX8X3X8X8XqXqXwXwXwXwXwX0X0X0X0XrXiXiXiXiXiXiXiXiXiXiXiXiXiXiXrXiXiXiXiXiXiXiXiXiXrXrXrXrXiXrXrXrXiXtXtXtXtXtXyXyXhXlXlXlXlXlXvXbXmXmXMXMXMXMXMXMXNXVXVXNXNXMXMXMXNXNXNXNXNXNXMXMXMXmXmXmXmXmXNXNXMXNXNXVXVXVXVXVXCXDXDXCXCXCXDXDXDXDXFXFXFXFXDXDXFXFXFXFXDXDXDXDXFXFXFXFXFXFXFXFXDXDXDXDXDXFXFXCXCXCXCXCXVXVXVXBXvX0X X).j. .I P F F F c c c c M ) 3.9.9.9.q.r.t.t.t.e.9.2.2.5.5.5.4.<.<.<.<.1.1.1.1.1.5.5.5.1.5.5.5.5.5.5.1.4.4.4.4.5.5.4.5.<.<.<.<.<.2.5.5.1.1.5.9.e.r.0.0.9.9.9.9.9.9.9.9.5.5.9.9.0.0.9.9.r.e.9.9.9.9.9.9.v.r.e.5.5.5.5.5.5.5.e.e.e.5.5.5.9.e.r.t.t.r.r.e.e.r.y.v.v.v.m.m.v.v.Z.Z.I.I.I.I.~.R.U.U.R.R.R.R.Q.W.R.R.W.!.[.!.W.!.!.!.!.[.[.[.+X+X+X+X+X$X$X$X$X$X$X$X$X$X%X;X;X%X#X#X#X#X%X%X;X;X;X%X%X%X#X#X#X#X;X%X%X#X$X%X#X#X@X@X@X@X@X@X@XoXoXoX'.].K.D.x.=.o./ Q E I U x F c x F U I U j j P I ~ I P K j U U j d k P U F x g g g g g u p u p g c c g p p p g g g g g p g g g g g g k x k x x x x x k g k f f f p u e q & & & & & & & & & & & & & & & & & * & & & & & & 3 3 3 3 3 3 3 3 3 3 3 3 3 3 3 3 3 3 4 4 4 4 3 3 4 4 4 4 3 3 3 3 3 3 3 3 3 3 3 3 3 3 3 3 3 3 3 3 2 2 2 3 3 3 3 3 2 2 3 3 3 3 3 3 % & & 3 & & % $ & % $ & & & 3 y a h j P U I !  .",
"m m m m m Y T T ! ;.o.$.=.s.s.s.C.J.J.^.|.|.|.*X3X8X8X8X3X8X8X8X8X8X8X3X8X8XqXqXwXwXwXwXwXwX0XwX0XrXiXtXtXiXuXyXiXiXiXiXiXiXiXiXrXiXiXiXiXiXiXiXiXiXrXrXrXrXiXiXiXrXtXiXuXuXtXtXyXhXhXnXvXnXvXzXvXbXmXMXBXBXNXMXMXMXNXVXVXNXNXmXMXMXNXVXVXNXMXmXmXmXmXmXmXmXmXmXMXMXMXMXVXVXVXVXVXVXCXDXDXDXCXCXDXDXDXDXFXFXFXFXDXFXFXFXDXDXDXDXDXDXFXFXFXFXFXFXFXFXFXFXFXFXFXFXFXCXCXCXCXCXVXVXDXVXmXjX2X XF.%.Q U F U P c c c c Y / 3.9.9.9.q.r.e.e.e.e.9.9.5.5.5.5.5.4.4.5.5.1.1.1.1.5.5.5.9.5.5.5.5.5.5.5.4.4.4.4.4.4.4.4.5.1.4.4.5.5.5.5.1.<.4.5.5.0.0.0.9.0.0.9.9.9.9.9.0.5.9.9.0.e.0.9.9.e.9.9.9.5.9.9.9.r.e.e.e.0.5.5.5.5.0.e.e.e.0.0.5.r.r.e.r.v.v.r.e.e.r.v.v.y.y.v.m.v.v.Z.I.I.I.I.I.R.R.U.U.R.R.!.R.Q.Q.W.R.W.!.[.!.!.!.!.!.[.[.[.+X+X+X+X$X$X$X+X+X$X$X$X$X$X$X%X;X;X%X#X#X#X$X%X%X:X;X%X%X%X%X#X#X@X#X#X%X#X#X%X%X$X#X@X@X@X@X@X@X@XoXoXoXoX'.K.H.C.=.#./ ! E Y U c F c c F U I U U P P I I U U U j U U F k f j P U x k g g x x g x g p p g c c g p p g c c c c g g k k k k j m m m m x x x j g f k f u u t e q > z & & & & & & * & & & & & & & & & & * * & & & & 3 3 3 3 3 3 3 3 3 3 3 3 3 3 4 4 3 3 3 4 4 4 3 3 7 7 7 4 4 4 3 3 3 3 3 3 3 3 3 3 3 3 3 3 3 3 3 3 2 2 2 2 2 2 2 2 2 2 2 3 3 3 3 3 & & & 3 & & % % & $ $ % % $ 3 q a f j V U Q ! o.",
"m m m m m T T T ! ;.o.$.=.s.s.s.C.J.J.^.|.|.|.-X3X8X8X8X3X8X8X8X8X8X8X8X8X8XqXqXwXwXtXtXrXwXwXwX0XrXtXiXiXuXyXuXiXiXiXiXiXiXiXiXrXiXiXiXiXiXiXiXiXiXrXrXrXrXiXiXtXtXiXyXyXyXyXtXhXhXlXvXvXvXvXvXvXbXmXMXBXBXNXMXMXMXVXVXVXVXNXmXMXNXVXVXVXNXmXmXmXmXmXmXmXMXMXMXVXVXVXVXVXVXVXVXVXVXVXDXDXDXDXCXDXDXDXDXFXFXFXFXDXFXFXFXDXDXDXDXDXDXFXFXFXFXFXFXFXFXFXFXDXFXFXFXFXDXCXCXCXCXVXBXVXVXmXjXeX*XJ.%.Q U F U P c c M M Y ( 3.8.9.9.q.y.t.e.e.9.9.9.9.5.5.5.5.5.5.5.5.4.4.5.5.5.5.9.9.9.9.9.9.9.9.9.9.4.4.4.6.6.4.4.5.5.5.5.0.5.5.4.<.<.<.5.5.5.5.5.6.0.0.9.9.9.9.9.0.0.0.e.r.r.e.e.9.9.9.9.5.5.9.9.9.5.0.e.0.e.0.0.0.0.0.e.e.e.e.e.0.b.r.0.r.v.v.b.e.r.r.v.y.r.r.b.v.v.Z.I.I.I.I.I.I.U.I.I.U.R.R.R.R.W.W.W.T.R.W.W.W.[.[.[.'.[.[.{.+X+X+X$X#X$X$X+X+X$X$X#X#X$X$X%X>X;X#X#X#X#X#X%X%X:X:X%X%X%X%X#X#X+X@X$X#X#X$X%X%X$X$X#X@X@X@X$X$X@X@XoXoXoXoXE.H.D.w.#./ ! E Y U x F F x P U I U I U P U U U U I V P U U x f g F U x g g k x F x U c p u p g c c p p c c x c x x g k j j x x P U U m m x x k g p k f u e e e q & & & & & z & & * & & & & & & & & & & * * & & & & 3 3 3 3 3 3 3 3 3 3 3 3 3 3 4 4 3 3 3 3 4 4 3 3 7 7 7 7 4 4 4 4 3 3 3 3 3 3 3 3 2 3 3 3 4 3 3 3 3 3 3 3 3 3 3 3 2 2 2 3 3 3 2 3 2 % & 3 & & % & & $ $ $ $ $ & q a f j V U Q ! o.",
"m m m m I I T T T _ o.$.=.=.=.M.C.F.J.L.|.|.-X*X3X8X8X3X3XeX8XeXeX3X3X3X8X8XqXwXwXwXtXwXrXrX0X9X0X0XrXiXtXtXtXtXiXiXiXiXiXiXiXiXiXiXiXtXtXtXiXiXrXrXrXrXrXrXrXrXtXtXtXtXuXyXyXyXhXhXhXlXlXlXlXzXvXbXmXMXMXNXBXVXNXNXVXVXVXVXNXNXMXMXMXMXMXMXMXMXMXMXmXmXmXmXMXmXVXVXVXNXNXVXVXVXVXVXVXCXFXFXCXCXCXDXDXFXFXFXDXDXFXFXFXFXDXDXDXDXFXFXFXFXFXFXFXFXFXFXDXFXFXFXFXFXDXDXDXDXCXCXVXVXBXVXVXjXqX3X|.j.' R U U P c x c M Y / O.8.q.r.r.e.e.u.u.9.e.e.9.2.2.5.5.5.5.5.1.9.5.2.9.t.t.0.8.0.9.0.0.0.0.5.5.0.0.6.4.4.6.5.5.5.5.5.5.0.0.0.0.5.5.5.5.5.5.5.5.5.5.5.5.5.5.9.0.0.0.0.0.0.0.0.0.e.0.5.5.5.5.5.9.5.6.0.0.0.0.0.0.0.6.5.r.r.0.0.0.5.0.r.b.b.c.b.b.0.r.b.b.b.r.b.v.r.y.v.Z.Z.Z.v.v.Z.A.U.T.T.T.R.R.W.W.W.W.W.W.[.[.W.W.!.[.{.[.[.[.!.[.+X#X#X#X$X$X+X+X$X%X%X%X>X>X#X%X%X$X+X+X#X%X:X;X%X%X%X%X$X#X@X@X#X#X%X%X%X%X%X&X#X@X@X@X+XoX@X@X@XoXoX'.].L.H.x.*.o./ ! I P U j j P P I ~ I U U U I ~ Q I I U P P I P f f j j j k j k x x k x x g d g x x g g p g x c c c x m x k k m m m x x x x x x j g p k j f t q q q q z & & * * * & & & & & & & & & & & & * * & & & & 3 3 3 3 3 3 3 3 3 3 3 3 4 4 4 4 3 3 4 4 4 3 3 3 3 3 3 3 3 3 3 3 3 3 3 3 3 3 3 3 3 3 3 3 3 3 3 3 2 2 2 2 3 3 2 2 2 2 2 2 1 2 3 2 2 2 3 3 & & * * % $ $ & & & 3 y a f k V U I ! o.",
"m m m m m m ~ T T ;.o.$.=.=.=.M.F.J.J.L.|.|.-X*X3XeXeXeX3X8X8X8XeX3X3X8X8X8XqXwXwXwXwXwXwXwX0X9X0X0XrXtXtXtXtXtXiXiXiXiXiXiXiXiXiXiXtXiXiXtXtXiXiXiXrXrXrXrXiXrXtXtXtXtXiXyXyXyXhXhXhXlXlXlXvXzXbXbXmXMXNXNXBXVXNXNXVXBXBXBXNXNXMXMXMXMXMXMXMXMXMXMXmXmXmXmXmXmXVXVXVXBXNXVXVXVXVXVXCXCXFXFXCXCXCXDXDXFXFXFXDXDXDXFXFXFXDXDXDXFXFXFXFXFXFXFXFXFXFXFXFXFXFXFXFXFXDXDXDXDXCXCXVXVXCXCXVXcXjXgX*XF.%.W I U F x x x M Y ( #.u.9.9.9.e.9.u.u.9.9.5.2.5.5.5.9.e.9.5.5.2.1.1.4.9.9.9.8.9.9.0.0.0.0.0.5.0.0.6.6.6.6.0.0.6.6.6.6.6.6.6.5.<.5.5.5.5.5.5.5.0.0.0.0.9.9.0.0.0.0.0.0.0.0.0.0.e.e.5.5.5.5.5.5.6.6.0.0.0.0.0.0.0.5.6.r.r.0.6.0.0.0.r.b.r.r.b.c.0.b.b.c.r.r.c.c.y.y.Z.Z.Z.Z.Z.Z.Z.I.U.R.R.R.R.R.R.R.R.W.W.!.[.[.R.W.W.{.[.[.[.{.!.[.+X+X+X+X+X+X+X$X$X%X#X$X$X#X$X%X%X%X#X@X%X%X%X%X%X%X%X%X%X#X#X@X#X#X%X%X%X%X%X&X@X@X@X@XoXoX+X+XoXoXoX'.].L.H.C.=.o.! Q I U U j j U U I I I U P P U I I I U x k j U P f f j F P x k j x x j P x g g g k x g g g g c x x c x U U m x m m m x j j j x x x k f f f f t t e q q z & & & * & & & & & & & & & & & & & * * & & & & 3 3 3 3 3 3 3 3 3 3 3 3 4 4 4 4 3 3 3 4 4 3 3 3 3 3 3 3 3 3 3 3 3 3 3 3 3 3 3 3 3 3 3 3 3 3 3 3 3 3 3 3 3 3 3 3 2 2 2 2 2 2 2 2 2 2 2 3 & & * * * # $ & & & 3 y a f k V U I ! o.",
"m m m m m m ~ T T ;.o.$.=.=.=.C.F.J.J.J.|.|.-X*X*X8XeXeXeX8X8X8X8X3X3X3X8X8XqXwXqXwXwXwX0X0X0X9X0XrXtXtXtXtXiXiXiXuXuXuXiXiXiXiXiXtXiXiXiXiXiXtXtXtXtXtXtXtXtXtXtXtXtXiXiXyXyXyXhXhXhXnXlXlXvXvXbXbXMXNXNXNXBXVXNXNXNXBXBXNXNXNXMXMXMXMXMXMXMXMXMXMXmXmXmXmXmXMXVXVXNXNXNXVXVXVXVXCXCXDXFXFXDXDXCXDXFXFXFXFXDXDXDXDXFXFXFXDXDXFXFXFXFXFXFXFXFXFXFXFXFXFXCXFXFXFXDXDXFXFXFXCXVXVXFXCXVXNXkXkX8X_.j.' W U F x x x M T O.1.9.9.9.9.9.9.u.u.9.2.2.1.5.5.5.9.9.0.9.5.5.5.4.4.9.9.0.0.8.8.8.8.5.5.5.5.6.6.6.6.6.0.6.0.0.0.0.6.5.6.6.<.<.4.5.5.5.5.5.0.0.0.0.5.9.5.9.0.0.0.0.0.0.0.0.0.r.r.0.5.5.5.5.5.5.6.0.0.0.0.6.6.0.0.0.r.0.0.5.0.r.r.r.r.0.0.0.b.c.c.c.r.0.0.r.b.y.y.v.v.v.v.v.Z.Z.A.U.R.R.T.T.T.T.T.T.R.W.[.[.!.R.R.W.[.{.[.[.{.!.[.+X+X[.[.[.[.%X>X>X>X%X#X#X#X%X;X:X;X%X%X%X%X%X%X%X%X;X%X%X#X#X#X#X#X#X#X#X#X&X#X#X#X#X@XoX'.oXoXoXoXoXoX].].K.H.x.#.o.Q I I P j P I I I I I I U P U I Q I U k k k P P j j x U U P j j F F j P P x g g g x x p g x x x c x x Y U U m x x x m k k k k x x x j d f f t t t q q z & & & & & & & & & & & & & & & & & & & & & & & 3 3 3 3 3 3 3 3 3 3 3 3 3 4 3 3 3 3 4 4 4 4 3 3 3 3 3 3 3 3 3 3 3 3 3 3 3 3 3 3 3 3 3 3 3 3 3 3 3 3 3 3 3 3 3 3 3 2 2 2 2 3 2 2 2 2 2 3 & & * * * # $ * & & 3 r a d k V U I ! { ",
"m m m m m m I T Q ;.o.$.=.=.s.C.C.F.J.L.|.|.-X*X*X3XeXeX8X8X8X8X8X3X3X8X8X8XqXwXqXwXwXwX0XrX0X0X0XrXtXtXtXtXiXiXuXuXuXuXiXiXiXiXiXiXtXtXiXiXtXiXtXtXtXtXtXtXtXtXtXtXtXiXyXyXyXhXhXhXhXnXlXvXvXvXbXmXMXNXNXNXBXVXMXNXNXBXBXNXNXMXMXMXMXMXMXMXMXNXMXMXMXmXmXmXMXMXBXBXNXNXVXVXVXVXVXCXCXDXFXFXDXDXCXDXFXFXFXFXDXDXDXDXFXFXFXFXDXFXFXFXFXFXFXFXFXFXFXFXFXFXFXFXFXFXDXDXFXFXFXCXCXVXCXVXCXNXcXkXgX-XF.%.W U V x x x M T O.8.q.9.9.9.9.u.u.u.9.9.2.1.1.1.1.1.5.5.5.4.1.4.5.4.4.8.9.0.8.8.6.4.4.4.4.4.6.6.6.6.6.6.6.<.6.5.5.5.6.6.6.6.4.5.5.5.5.5.5.5.0.0.0.5.6.4.6.6.0.0.0.0.0.0.0.0.r.r.0.5.5.5.5.5.6.6.0.0.0.0.6.6.0.0.0.0.0.0.6.0.b.b.r.0.0.0.r.b.b.b.b.0.0.0.r.r.t.y.y.t.y.y.v.v.v.v.A.U.T.T.U.A.T.T.T.T.W.[.[.W.W.W.W.[.[.!.[.[.!.[.+X+X+X+X+X+X;X;X:X;X;X>X>X>X%X;X:X:X%X%X%X%X&X&X%X%X;X;X%X$X&X&X#X#X#X#X@X#X#X#X#X#X#X#X+X'.'.'.XXoXoXoX].].L.H.C.*.o.Q I I U j P I I I I U I I U U ~ Q ~ I F j j U U P F P U U U F j j j j x U U x g g k k p g x m x c x x U U U U m x x m m x k k x x x j f f f t q q q q & & & & & & & & & & & & & & & & & & & & & & & & 3 3 3 3 3 3 3 3 3 3 3 3 3 3 3 3 3 3 4 4 4 4 3 3 3 3 3 3 3 3 3 3 3 3 3 3 3 3 3 3 3 3 3 3 3 3 3 3 3 3 3 3 3 3 3 3 3 2 2 2 3 3 2 3 2 2 2 3 & $ * * * # $ * & % 3 r a a k V U I ! { ",
"m m m m m m I T Q ;.o.o.$.=.=.C.M.C.J.J.|.|.*X*X*X3X8X8X8X8X8X8X8X8X3X8X8X8XqXqXwXwXtXwX0XtXtX0X0XrXtXtXtXyXuXuXuXuXuXuXuXiXiXiXiXiXiXiXiXiXiXiXiXiXiXiXiXiXiXiXtXtXiXuXyXuXhXhXhXhXhXnXlXvXvXvXmXmXMXNXNXNXVXVXNXNXNXBXBXNXNXNXMXMXNXNXNXNXNXNXMXMXMXmXmXMXMXNXNXNXNXNXVXVXVXVXVXVXCXDXDXDXDXDXCXDXDXFXFXFXDXDXDXDXDXDXFXFXDXFXFXFXFXFXFXFXFXFXFXFXFXFXFXFXFXFXDXFXFXFXFXFXCXCXFXVXVXNXmXcXgX*XJ.-.W P j x m x c T O.9.r.9.9.9.u.8.u.u.9.9.9.8.<.@.@.@.1.1.1.1.<.<.1.1.1.@.4.8.0.w.8.4.1.1.<.<.4.4.4.4.@.@.@.} <.<.<.6.6.5.5.5.6.5.6.4.6.<.6.6.0.0.0.6.6.6.6.6.b.b.0.0.0.0.0.0.r.0.0.0.5.5.5.5.6.6.0.0.0.0.6.5.0.0.0.0.0.0.0.6.b.b.r.r.0.r.b.v.v.b.b.r.0.0.0.0.t.t.y.t.y.t.v.Z.v.v.Z.U.U.U.I.A.T.G.T.T.W.W.W.W.W.W.W.'.W.W.Q.!.!.[.+X+X+X$X#X#X#X#X;X;X%X%X%X:X%X;X;X;X%X%X%X%X&X&X%X%X:X:X%X%X#X#X&X#X#X#X@X@X#X#X@X#X#X#X+X+X'.'.oX+X@XoX].].E.K.H.=.o.! ~ I U P U I I ~ ~ U ~ I U U I Q I I U P x P U U P x P U U F k k j k k P I P x g g g p g x x x x x x x U T T U P m U U m x x x x j j k j f e & q q q & & & & & & & & & & & & & & & & & & & & & & & & 3 3 3 3 3 3 3 3 3 3 3 3 4 4 3 3 3 3 4 4 4 4 4 3 3 3 3 3 3 3 3 3 3 3 3 3 3 3 3 3 3 3 3 3 3 3 3 3 3 3 3 3 3 3 3 3 3 2 2 2 2 2 2 3 2 2 2 3 % * $ $ * # $ * & $ 3 q y a k V P I ! ' ",
"m m m m m m U T Q ;.o.o.$.=.s.C.M.C.J.J.|.-X*X*X*X8X8X8X8X8XqX8X8X8X8X8X8X8XqXqXwXwXtXwXwXtXtXrXwXrXtXtXtXyXuXuXyXyXuXuXuXiXiXiXiXiXiXtXtXiXiXiXiXiXtXtXtXtXtXtXtXtXiXuXyXuXhXhXhXhXhXnXvXvXbXbXmXMXMXNXNXNXNXVXNXVXVXVXVXVXBXNXNXNXNXNXBXBXNXBXMXNXMXMXMXMXNXNXNXNXNXNXVXVXVXCXVXVXCXDXDXDXDXDXCXCXDXFXFXFXDXDXDXDXFXFXFXFXFXFXFXFXFXFXFXFXFXFXFXFXFXFXFXFXFXFXDXDXFXFXFXFXCXCXFXCXVXVXNXcXjX8X_.-.W P P m U x c T O.9.r.9.e.t.8.8.8.9.9.9.8.8.1.@.@.#.@.@.1.@.<.<.1.1.4.4.1.&.8.8.4.@.@.@.@.@.@.@.@.@.} } } } } } @.<.<.6.5.5.6.6.6.<.<.<.6.6.b.b.b.0.6.0.0.0.b.b.0.6.6.6.0.0.0.0.0.0.5.0.0.0.0.0.0.0.0.0.0.6.0.r.0.0.6.0.0.0.0.r.r.r.r.r.b.b.b.b.r.r.r.r.0.0.r.t.y.y.v.v.Z.Z.A.Z.Z.A.U.U.U.Z.A.A.T.T.T.T.T.T.W.R.W.W.W.Q.W.W.[.[.+X+X$X#X>X;X@X#X#X#X%X%X%X:X;X;X;X%X%X%X%X%X%X%X%X%X:X:X;X%X#X#X#X&X#X#X#X#X#X#X#X#X&X&X@X[.+XoX+X@X@XoXoX].].L.D.w.#./ ~ I I P I I I Q ~ U I U P P U I I I I P j j P U P j P U U x j j j j k P U P x k g g g g g c x x x m x U T Q T U U U I U m m x x k k j j f q & & q & & & > > > & & * & & & & & & & & & & & & & & & & 3 3 3 3 3 3 3 3 3 3 3 3 4 4 3 3 3 3 4 4 4 4 3 3 3 3 3 3 3 3 3 3 3 3 3 3 3 3 3 3 3 3 3 3 3 3 3 3 2 2 2 2 2 3 3 3 2 2 2 3 2 2 2 2 2 2 3 2 % $ $ % * # $ * % $ 3 6 y a k V P I ! ' ",
"m m m m m m U T ! ;.o.o.$.=.s.C.C.F.J.J.|.|.*X*X*XeX8X8X8X8X8X8X8X8X8X8X8X8XqXwXwXwXtXwX0XtXtXrXwXwXtXtXyXyXyXyXyXuXyXyXuXiXiXiXiXiXiXiXiXiXiXtXiXiXtXtXtXtXtXtXtXtXtXyXyXuXhXhXhXhXhXnXvXvXbXbXmXmXNXNXNXNXNXBXBXVXVXVXVXVXVXNXNXNXNXNXBXBXBXBXNXMXMXMXMXMXNXNXVXVXVXVXVXVXCXDXVXCXCXDXDXDXDXDXCXDXDXDXFXFXFXFXFXFXFXFXFXFXFXFXFXFXFXFXFXFXFXFXFXFXFXFXFXFXFXFXDXDXDXFXDXCXCXCXCXVXDXDXNXmXkXgX|.j.W I P P P x c Y O.8.9.9.9.t.8.8.8.8.9.8.1.#.&.#.O.+.O.@.O.O.@.@.@.&.4.4.#.+.+.+.} } { } } } } / / / / } } } } } } } } <.<.<.<.<.<.<.@.4.6.0.b.b.b.x.0.0.x.b.b.b.0.6.6.6.6.0.0.0.0.0.0.0.0.e.0.0.0.0.0.0.0.0.0.r.0.6.6.r.b.0.0.0.b.r.0.0.0.0.0.0.0.0.b.0.0.4.9.r.t.y.c.v.v.Z.Z.Z.c.c.A.S.A.Z.Z.A.T.T.T.S.U.T.T.T.T.W.W.Q.W.!.[.+X+X+X#X#X#X;X#X#X&X%X%X%X%X:X:X:X%X%X%X%X%X%X:X%X%X%X%X:X:X;X#X#X#X#X#X#X#X#X#X#X#X%X%X%X#X+X@X@X@X@X@X@XoX].'.L.H.C.=.o.T I I U I I I Q Q I I U U P P P U I Q U j j P I U P P U U m j j j j k F P x k k k g k g p c x m m U P U I I I I I I P P m m m j f f f f f t q q & * & & q q q & & & & & & & & & & & & & & & & & & & 3 3 3 3 3 3 3 3 3 3 3 3 4 4 4 3 4 4 4 4 4 4 4 4 2 2 2 2 2 2 2 2 3 3 3 3 3 3 3 3 3 3 3 3 3 3 3 3 2 2 2 2 2 2 2 2 2 2 3 2 2 2 3 3 2 2 2 3 $ $ % % * % $ * $ $ 3 6 y a k V P I ! ' ",
"m m m m m m U T ! ;.;.o.$.=.=.C.F.J.J.^.|.|.-X*X*XeX8X8X8X8X8X8X8X8X8X8X8X8XqXwXwXwXwX0X0XtXtXwXwXwXtXtXyXyXyXyXyXyXyXyXuXiXiXiXiXuXuXuXuXyXuXiXiXiXiXiXtXtXtXtXtXiXuXyXyXhXhXhXhXhXhXnXvXvXbXbXmXMXNXNXNXNXNXBXVXVXVXVXVXVXVXVXNXNXNXNXBXBXBXBXNXMXMXMXMXMXNXNXVXVXVXVXVXVXCXDXVXVXVXDXDXDXDXDXCXDXDXDXFXFXFXFXFXFXFXFXFXFXFXFXFXFXFXFXFXFXFXFXFXFXFXFXFXFXFXFXDXDXDXDXDXCXCXVXVXZXCXDXNXmXzXjX XM.' ~ U U U x x ^ O.8.9.9.9.t.9.8.8.8.8.1.#.O.#.+.O.O.O.O.} } ( ( ( } +.+.( / / ^ ^ ^ ^ / / / ^ ^ ^ ^ ^ ^ / } ( } } } } } } } } } } } @.4.0.x.0.x.x.0.6.6.x.b.b.b.0.6.6.6.6.0.0.0.0.0.0.r.e.r.0.r.r.r.0.0.0.0.0.r.0.5.6.r.b.0.0.0.b.r.0.0.6.5.6.5.6.0.r.0.5.<.1.5.9.r.t.t.t.t.Z.t.0.0.c.Z.Z.t.b.A.T.T.A.A.A.T.A.A.U.T.Q.W.W.[.+X+X+X+X+X#X#X%X%X%X%X%X%X%X:X:X:X:X;X%X%X%X:X:X7X:X%X%X%X:X:X:X#X#X#X#X#X#X#X&X#X#X#X%X%X%X#X+X#X#X@X$X&X@XoX].oX].H.C.=.o.! I I U I I I Q Q I I I I U P P I Q Q I j j U Q ~ U :.U U P j j :.:.j x x g f k x x x g u g x U U U U P P P m m P U m x m m x j f f t f f t q q & * & > q q q > & & & & & & & & & & & & & & & & & & 3 3 3 3 3 3 3 3 3 3 3 3 4 4 4 3 4 4 4 4 4 4 4 4 2 2 2 2 2 2 2 2 3 3 3 3 3 3 3 3 3 3 3 3 3 3 3 3 2 2 2 2 2 2 3 3 2 2 2 2 1 2 2 3 2 2 2 3 $ $ % $ * % $ * $ $ 3 3 y a k V P I ! ' ",
"m m m m I U I T T ;.o.o.$.=.C.M.C.F.J.J.|.|.-X*X*X3X8X8X8X8X8X8X8X8X8X8X8X8XqXqXwXwXtXwXtXtXtX0XwXwXwXtXtXtXtXtXyXyXuXuXuXuXuXuXiXuXuXiXuXiXiXiXiXiXtXiXtXtXtXtXuXiXtXuXyXuXyXyXhXhXlXnXlXvXvXvXmXmXmXMXNXVXVXVXNXNXVXVXVXVXNXNXNXNXNXNXVXVXMXmXMXMXNXNXNXNXNXNXmXNXNXMXNXVXCXVXVXVXCXCXCXCXCXDXCXCXDXFXFXFXFXFXFXFXFXFXFXFXDXFXFXFXFXFXFXFXFXFXFXFXFXFXFXFXFXFXDXDXDXFXFXFXCXVXCXCXVXMXNXVXcXdX XN.%.W U P U U m T O.9.9.9.9.9.8.8.8.1.#.#.#.#.( O.O.( ( / ( ( ^ ^ ^ ^ / / ^ E E Y Y Y Y Y Y Y Y Y Y Y Y E ^ ^ ( ^ ^ ( } } } } } } @.@.@.4.6.6.b.b.x.0.6.0.x.b.x.0.0.6.6.6.6.0.6.0.0.0.0.0.0.0.b.b.b.c.0.0.0.0.0.0.0.0.0.0.0.0.0.0.0.0.6.5.5.5.6.4.4.6.6.6.<.4.4.5.0.r.0.5.1.1.9.0.q.0.9.9.9.q.D.D.D.D.D.D.D.A.A.A.S.U.T.Q.Q.!.W.[.[.[.[.[.#X%X%X%X%X%X%X:X:X7X:X:X:X;X%X%X:X7X7X:X:X:X%X%X%X%X#X#X#X#X#X#X#X%X&X&X%X%X%X#X#X+X+X+X@X#X@X@XoX].'.].L.P.w.o.! ! Q I U I Q Q I U Q I U P U I I I Q I P P I Q I U j U U :.j j P U j j k k g g k x m x g g x U P x P m m m m m m m P P m m m j g u t t t t q q & & & & & & & & & * & & & & & & & & & & 3 3 3 & & & & & 3 3 3 3 3 3 3 3 3 3 4 4 4 4 4 3 7 7 7 7 7 4 3 3 3 3 3 3 3 3 3 3 3 3 3 3 3 3 2 2 2 2 2 2 2 2 2 2 2 2 2 2 2 2 2 2 2 2 2 2 2 2 2 2 2 2 % % * * * # % & & $ 3 3 y a k V P I Q ' ",
"m m m m U m I T T ;.o.o.-.=.C.M.C.F.J.J.|.|.-X*X*X3X8X8X8X8X8X8X8X8X8X8X8X8XqXqXwXwXtXwXtXtXtX0XwXwXwXtXtXtXtXtXyXyXuXuXuXuXuXyXuXiXuXuXuXuXiXiXiXiXtXtXtXtXtXtXuXuXiXuXuXhXyXyXhXhXlXnXvXvXvXbXmXmXMXMXNXVXVXVXNXNXVXVXVXVXNXNXNXNXNXNXVXVXMXmXMXMXNXNXNXNXNXNXmXNXNXMXBXVXCXVXVXVXCXCXCXCXCXDXCXDXDXFXFXFXFXFXFXFXFXFXFXFXDXFXFXFXFXFXFXFXFXFXFXFXFXFXFXFXFXFXCXDXFXFXFXFXCXVXVXCXVXVXVXVXcXwX*XJ.-.W I U U P m ^ O.9.9.9.5.9.1.#.#.#.#.O.O.O.( ( ( / / ^ ^ ^ ^ ^ E T Y E Y U Y Y U Y U H H H c c c c H H H Y ^ ^ ^ ( ( } } } } } } @.@.4.6.6.x.x.x.0.6.6.x.b.x.x.0.6.6.0.0.0.6.6.0.0.0.0.0.r.0.c.b.b.0.0.0.0.6.6.6.0.0.0.0.0.0.0.6.6.5.5.5.5.4.@.@.4.6.<.@.@.<.1.4.4.<.@.O.} } @.1.4.8.9.9.q.q.q.c.c.c.D.D.Z.A.S.S.T.Q.W.Q.Q.W.[.[.{.[.+X@X#X&X%X%X%X:X:X7X7X:X:X:X%X%X%X:X7X7X7X7X7X:X:X%X%X%X%X#X&X#X&X#X%X#X#X#X&X#X#X#X@X+X@X@X#X@X@XoX].oX].L.H.C.#./ ! Q I U I Q Q I U I I U P U I I U I I P j U Q Q I P U U P j j j j V j j j k g k x x x k g k m m x U P P P P P P P m x j j j j f u t t t t q & & & & & & & & & & & & & & & & & & & & & 3 3 3 & & & & 3 3 3 3 3 3 3 3 3 3 3 4 4 4 4 3 3 3 3 4 4 3 3 3 3 3 3 3 3 3 3 3 3 3 3 3 3 3 3 3 3 3 3 3 3 3 3 2 2 2 2 2 2 2 2 2 2 2 2 2 2 2 2 2 2 2 2 % % * * * # % & & $ 3 3 y a h V P I ! ' ",
"m m m m m m I T ! ;.o.o.$.=.C.M.M.J.J.J.|.|.-X*X*X3X8X8X8X8X8X8X8X8X8X8X8XeX8XqXwXwXtXwXtXtXtXwXwXwXwXtXtXyXyXyXyXyXyXyXuXuXuXuXuXuXuXuXuXuXiXiXiXiXiXtXiXiXtXtXyXuXuXyXhXhXhXhXhXhXlXnXvXvXvXbXmXmXMXMXNXNXVXVXNXNXVXVXVXVXBXNXBXNXNXNXVXVXNXMXMXNXNXNXNXNXNXNXmXNXNXMXNXVXCXVXVXVXCXCXCXDXDXDXDXDXFXFXDXFXDXDXDXDXDXDXDXDXDXDXFXFXFXFXFXFXFXFXFXFXFXFXFXFXFXFXDXDXFXFXFXFXCXCXVXCXCXVXVXVXcXdX8X|.-.W I U P x m ^ #.9.9.9.1.1.1.#.O.O.O.} ( ( / / ^ ^ ^ E Y Y Y Y Y Y Y U P P Y U U F H F H H c c v v c H Y Y Y ^ ^ ^ ( ( ( } } } } @.@.4.6.0.0.0.0.6.6.6.0.x.b.x.x.0.x.0.0.0.6.6.0.b.0.b.b.b.0.r.b.r.0.0.0.0.0.0.0.0.0.0.0.0.6.6.6.6.6.6.6.6.4.@.@.4.<.@.} @.O.O.O.O.} ( ( ( ( ( O.@.1.8.8.9.1.8.9.q.c.D.Z.Z.Z.A.A.U.T.Q.Q.Q.Q.Q.'.[.[.[.'.+X[.#X%X%X:X:X:X:X:X:X=X%X%X%X%X7X7X7X7X7X7X:X:X:X:X%X%X%X%X%X#X%X#X@X@X@X@X#X#X#X@X@X#X#X@X@XoXoXoX].].K.D.*.o.! Q I U I Q ! Q U I I U U U I I P I U j j P ~ Q Q U U U P j k f f V j j j k f k x F P x g g x x m U U U U P P P P P j j j j j f t t t t q q & & & & & & & & & & & & & & & & & & & 3 3 3 3 3 3 3 3 & 3 3 3 3 3 3 3 3 3 3 3 4 4 4 4 3 2 3 3 2 3 2 2 3 3 3 3 3 3 3 3 3 3 3 3 3 3 3 3 3 3 3 3 3 3 3 3 2 2 2 2 2 2 2 2 2 2 2 2 2 2 2 2 2 1 2 2 % % * * * # % * & $ 3 3 y d k V U I ! ' ",
"m m m m m m I T ! ;.o.o.$.=.C.M.C.F.J.J.|.|.-X*X*X3X8X8X8X8X8X8X8X8X8X8X8XeXeX8XwXwXtXtXrXtXtXwX0XwXwXtXtXyXyXyXyXyXyXyXuXuXuXuXuXuXuXuXuXuXiXiXiXiXiXiXiXiXiXtXyXyXyXyXhXhXhXhXhXhXlXnXvXvXbXbXmXmXMXMXNXNXVXVXNXVXVXVXVXVXVXNXVXBXNXNXVXVXNXMXNXMXNXNXNXNXNXNXMXNXNXNXVXVXCXVXCXVXCXCXCXDXDXDXDXDXFXFXDXDXDXCXDXDXDXDXDXDXDXDXFXFXFXFXFXFXFXFXFXFXFXFXFXFXFXFXDXDXFXFXFXFXCXCXCXDXDXVXVXVXmXjXdX*XM.! I U P x m ^ #.9.9.4.<.O.1.O._ _ ( ( / ^ / ^ ^ ^ ^ T Y c H Y Y U x x U Y Y Y U U U U H H Y H c c H Y Y Y H Y ^ ^ ^ ) ( } | } } } @.4.6.0.0.0.0.6.6.6.0.x.b.b.x.x.x.x.0.0.6.0.b.b.b.b.b.b.0.0.0.0.0.0.0.5.0.0.0.0.0.0.0.6.6.6.6.6.6.4.4.4.4.@.@.@.@.@.} } } } } } ( ( ( ( ( ( ( ( ( } O.O.O.@.4.9.q.q.q.q.t.t.D.S.T.Q.T.T.T.E.W.'.'.'.Q.Q.'.+X&X%X%X%X%X%X=X=X:X:X:X%X=X=X7X7X7X7X7X7X:X:X%X%X%X%X%X%X#X#X#X#X@X+X+X#X#X%X#X#X#X#X@X@XoX'.'.].].L.D.=.o.! Q I U I ! ! Q U I I I I I I I P I U j j :.I Q Q U U P P j f f f j j j j k f g k x P x g f g x x P U P P P j j j U P j k f f f t t e q q & & & & * & & & & & & & & & & & & & & & 3 3 3 3 3 3 3 3 & & 3 3 3 3 3 3 3 3 3 3 3 3 4 3 2 2 3 3 2 2 2 2 3 3 3 3 3 3 3 3 3 3 3 3 3 3 3 3 3 3 3 3 3 3 3 3 2 2 2 2 2 2 2 2 2 2 2 2 2 2 2 2 1 2 2 % % % * * * # % * & $ 3 3 y a k V P I ! ' ",
"m m m m m m I T ! ;.o.o.-.=.C.M.C.J.J.^.|.|.-X*X*X8X8X8XqX8X8X8X8X8X8X8X8X8X8X8XqXwXtXtXrXtXtXtXwXwXwXtXyXyXyXyXyXhXhXhXyXyXuXuXuXuXuXuXiXiXiXiXuXuXuXiXiXiXiXiXyXyXyXuXhXlXlXhXhXlXlXnXvXvXbXbXmXmXmXMXNXNXVXVXVXVXVXVXVXVXVXVXVXVXBXBXBXVXBXNXNXNXNXNXNXNXNXNXNXVXVXNXVXVXDXVXVXVXCXVXDXDXDXFXDXDXDXFXDXDXDXDXDXDXDXDXDXDXDXDXFXFXFXFXFXFXFXFXFXFXFXFXFXFXFXFXDXDXFXFXFXFXFXFXFXFXCXVXVXVXMXmXjX2XM.' I U P x m / #.9.9.1.O.( ( ( / / ( ( ^ Y ^ ^ ^ ^ ^ ^ Y Y H Y Y U x x U U U U F U U Y Y Y Y H c c c H H H H Y ^ ^ ^ ^ ( ( { | } } @.@.4.0.6.0.0.0.0.0.0.x.b.b.x.x.x.x.0.0.x.b.b.b.0.0.0.0.0.0.0.0.0.0.8.6.0.0.0.0.0.0.8.8.8.8.6.6.6.4.@.@.@.+.} } +.} } } } } } ( / / / ( / ) ^ ^ ^ ^ / / ( O.@.&.8.8.8.8.8.0.q.Z.S.T.T.T.T.T.Q.Q.Q.Q.Q.Q.'.+X$X%X%X$X$X@X%X%X:X7X7X:X=X%X7X7X7X7X=X=X%X%X%X=X%X%X&X&X@X@X&X#X@X@X#X#X%X%X&X#X#X#X@X+XoXoX].].].L.P.w.#.! ! I U I Q ! Q U U I I U U U U P I U P j j I Q Q U P K P j f f k j j k j k f f k j P P k f g k x P P U P P j j j I U j j f f t t q q q q & * & & * & & & & & & & & & & & & & 3 3 & & 3 3 3 3 3 3 & 3 3 3 6 3 3 3 3 3 3 3 3 3 3 3 3 4 4 4 4 3 2 2 3 3 3 3 3 3 3 3 3 3 3 3 3 3 3 3 3 3 3 3 3 3 3 3 2 2 2 2 2 2 2 2 2 2 2 2 2 2 2 2 2 2 2 % % $ % % % # $ * & $ 3 3 y a h j P I Q ! ",
"m m m m U U I T ! ;.o.o.-.=.C.M.C.J.J.^.|.|.-X*X*X3X8X8XqXqXqXqX8X8X8X8X8X8XqXqXqXwXjXtXrXtXyXtXtXwXtXtXyXyXyXyXhXlXhXhXuXyXyXuXuXuXuXuXuXiXiXiXuXuXuXiXiXiXiXiXyXuXuXyXhXlXlXlXlXlXnXnXvXvXbXbXmXmXmXMXNXNXVXVXVXVXVXVXVXVXVXVXVXVXNXNXBXVXBXNXNXNXNXNXNXNXNXNXNXVXVXNXVXVXVXVXVXVXCXVXDXFXFXFXDXDXFXFXFXFXFXFXFXFXFXFXFXFXFXFXFXFXFXFXFXFXFXFXFXFXFXFXFXFXFXFXFXFXFXFXFXFXFXFXFXFXVXVXVXVXZXMXjXeXJ. .I P P x U / #.8.1.<.O.( ^ ^ ^ ^ / ( / ^ Y Y Y Y ^ ^ ^ Y E Y Y Y U x x x F F F F U U U U H H H H H H H H Y Y ^ ^ ^ ^ / ( | } } } } @.4.6.6.6.0.0.0.0.0.x.b.b.x.x.x.0.0.0.x.b.b.b.0.0.6.6.0.0.0.0.0.0.8.6.0.0.0.0.0.0.6.6.8.8.8.6.4.@.@.+.} } / / / / / / / / ( / ) ) ^ / / ^ Y Y ^ ^ / / / / ( O.+.O.O.O.@.4.q.q.Z.Z.S.S.S.S.T.Q.Q.Q.Q.Q.Q.XX#X%X%X$X$X@X$X%X:X7X7X:X3X%X7X7X7X7X=X=X%X%X=X%X%X&X&X$X@X@X&X&X@X#X#X$X&X%X%X%X#X#X@X+XoXoX].].Q.L.H.C.*._ / Q U I Q Q ~ U P U U P K P j j I I U K :.U ~ Q I K j :.j k f j j j j j k f f f k F P x g g g k x U I I U P P U I U j j k f t q q q q & & * & z & & & & & & & & & & & & & & 3 3 & & 3 3 3 3 3 3 & 3 3 3 6 3 3 3 3 3 3 3 3 3 3 3 4 7 7 7 4 3 3 2 3 3 3 3 3 3 3 3 3 3 3 3 3 3 3 3 2 2 3 2 2 3 2 2 2 2 2 2 2 2 2 2 2 2 2 2 2 2 2 3 2 2 2 % $ $ % % * # $ * & $ 3 3 y a f j V I Q ! ",
"m m m m U U I T ! ;.o.o.-.=.C.M.J.J.J.J.|.|.-X*X*X3X8X8XqXqXqXqX8X8X8X8X8X8XqXqXqXwXjXtXrXtXyXyXtXtXtXyXyXyXyXyXyXhXyXhXyXyXuXuXuXuXuXuXuXuXuXuXuXuXiXiXiXiXiXiXiXiXiXyXhXlXhXhXlXlXnXvXvXbXbXbXmXmXmXMXNXBXVXVXVXVXVXVXVXVXVXVXVXVXNXNXBXVXVXBXNXNXNXNXNXNXNXNXVXVXVXVXVXVXVXVXVXVXCXCXDXDXFXFXDXFXFXFXFXFXFXFXFXFXFXFXFXFXFXFXFXFXFXFXFXFXFXFXFXFXFXFXFXFXFXFXFXFXFXFXFXFXFXFXFXCXVXVXVXBXZXVXzXqX). .I K P k U / @.1.O.O.( / ^ ) / / ( ( / / ^ ^ ^ ^ ^ ^ ^ ) ^ ^ E Y E Y P x F F F F F F F H c H Y Y H H H Y ^ Y Y Y ^ ^ / ( | } } } } @.@.4.6.6.0.0.0.0.0.x.b.b.b.x.0.6.6.6.0.x.b.0.0.0.0.0.0.0.0.0.0.0.0.6.6.0.0.0.0.6.4.4.4.4.4.4.4.@.@.} } / / / / ^ ^ ^ ( ( / ^ ^ Y Y Y ^ Y Y Y ^ ^ ^ ^ Y T ^ ^ / ( ( } } @.4.8.8.8.q.D.Z.Z.Z.S.S.T.T.T.T.Q.'.+X+X+X+X@X$X%X%X:X:X=X3X=X7X7X7X7X:X=X%X%X=X=X%X%X%X&X$X$X$X$X$X$X$X#X@X@X%X%X&X#X@X+XoXoX].'.].L.H.D.=.o.o.Q I U I Q I I P U U P j :.j j U I I P P U ~ Q ~ P j :.j f f j j j j j j f f k g x P F k k k g j P I I U P P U U P j j j f t q q q q & & & & q & & & & & & & & & & & & & & & & & & 3 3 3 3 3 3 & 3 3 3 6 3 3 3 3 3 3 3 3 4 4 4 7 7 7 7 4 3 2 2 3 3 3 3 3 3 3 3 3 3 3 3 3 3 3 3 2 2 2 2 2 2 2 2 2 2 2 2 2 2 2 2 2 2 2 2 3 2 2 2 2 2 2 % % % % * * # $ * & $ 3 3 y a h V P I Q ! ",
"m m m m U U I ~ ! ;.o.o.-.=.M.M.C.F.J.J.^.|.-X*X*X3X8X8XqXqXqXqX8X8X8X8X8XqXqXqXqXwXjXtXwXtXyXyXtXyXyXyXyXyXyXyXyXyXyXyXyXuXyXyXuXuXuXuXuXuXuXuXuXuXuXuXiXiXiXiXiXtXiXyXhXlXhXhXlXlXnXvXvXbXbXbXmXmXmXmXNXBXVXBXVXBXVXVXVXVXVXVXVXVXVXBXBXBXVXBXNXBXNXBXNXBXNXNXVXVXVXVXVXVXVXVXVXVXCXDXDXDXFXFXDXDXFXFXFXFXFXFXFXFXFXFXFXFXFXFXFXFXFXFXFXFXFXFXFXFXFXFXFXFXFXFXFXFXFXFXFXFXFXFXDXCXVXCXVXBXMXZXcXdX|.%.I K j g Y / @.#.O.O.( ) ( ( } } ( ( ( ( ) ) ) ^ ^ ^ ) ( / / / / / ! E U U U F F F F F c v c Y Y H c H Y ^ Y Y Y ^ ^ / / / } } } } @.@.4.4.6.8.0.8.8.0.x.b.b.x.x.6.6.6.6.6.6.0.0.0.0.0.0.0.0.0.0.0.0.0.6.6.6.8.0.8.4.4.@.@.@.4.4.&.@.@.} } / / / / ^ ^ ^ / / ( ^ ^ Y Y Y Y Y Y Y Y Y c c Y Y Y Y ^ / / ( / { O.+.} O.@.8.q.q.q.q.D.S.S.S.D.S.T.Q.Q.'.XXXX$X%X%X%X%X%X=X7X7X7X7X7X7X=X=X%X=X=X=X%X%X%X&X&X@X@X$X$X#X@XoXoX%X%X&X#X@XoXoXoX].'.].L.K.H.w.$.o.! I U I I I I U I I U P P P P P I I U P U Q Q Q U j j j f f j V V V V j k f j f j P P x x k g k j U U P :.P U K j j j j f t q q q q & & & & q & & & & & & & * & & & & & & 3 & & & 3 3 3 3 3 3 3 3 3 3 6 3 3 3 3 3 3 3 3 3 4 4 4 4 4 4 4 3 2 3 3 3 3 3 3 3 3 3 3 3 3 3 3 3 3 3 2 2 2 2 2 2 2 2 2 2 2 2 2 2 2 2 2 2 2 2 2 2 2 2 2 2 & % % % * * * $ $ & & $ & 3 y a k V P I Q ' ",
"U m m U I U I ~ Q ;.o.o.-.=.M.M.C.J.J.J.^.|.-X*X*X8X8X8X8XqXqXqX8X8X8X3X8XqX0X0XwXwXwXtXyXtXtXtXwXtXyXhXhXhXhXyXyXyXhXhXhXyXyXyXuXuXuXuXuXuXuXuXuXiXiXiXiXiXuXuXuXuXyXyXyXhXlXnXlXlXnXvXbXbXbXmXbXmXmXBXBXBXBXBXBXBXBXBXVXBXBXBXVXBXBXBXmXBXBXBXBXBXmXmXmXmXBXBXVXVXVXVXVXVXCXDXVXVXCXDXDXDXDXDXFXDXFXFXFXFXFXFXFXFXFXFXFXFXFXFXFXFXFXFXFXFXFXFXFXFXFXFXFXFXFXFXFXFXDXDXFXFXFXDXDXDXDXDXCXCXVXZXmXdX X-.~ k g x Y / O.O.O.( ( O.( ( ( O.} ( / / / / ( / / / ( } { o.#.#.+.{ { { { E U F U U Y U x c c Y Y Y Y Y Y ^ ^ ^ ^ ^ / ( } / / } } @.@.4.4.6.6.0.x.x.x.x.x.b.x.x.0.6.6.&.6.0.x.x.0.0.0.0.0.0.0.0.x.q.8.4.4.4.4.4.4.4.4.4.@.@.@.@.@.@.@.+.} / / / / E Y E / / ) ^ ^ Y Y Y ^ Y c c c c c c Y Y Y Y Y T ^ / ^ / / o.O.O.O.O.#.@.&.8.q.q.q.q.D.Z.S.T.Q.Q.Q.Q.'.oX&X%X%X=X%X=X7X3X%X7X7X7X3X=X=X%X%X%X%X&X&X&X@X$X$X$X@X+XXXXX%X$X+XXXXXXXoXXX'.XXXXQ.L.H.C.*.o.Q Q Q I I Q ~ Q I P j j P P j P U U P :.U Q ! Q U j j j f f j j j j P P j j f j j j P U P j f f j U I U P P P P j f f j j f q e q z & & & & & > & & & & & & & 3 3 3 3 3 3 3 3 3 3 3 3 3 3 3 3 3 3 3 3 3 3 3 3 4 3 3 3 3 3 3 3 3 4 4 4 4 3 3 2 3 3 4 3 3 2 2 2 3 3 3 3 3 3 3 3 2 2 2 2 2 2 2 2 3 3 3 3 3 3 2 3 3 3 3 3 3 3 3 3 3 & $ $ $ $ $ % % $ $ & & $ & 3 y a h j F I Q ! ",
"U m m U I U I ~ Q ;.o.o.-.=.M.M.C.J.J.L.^.|.-X*X*X8X8X8X8X8XqXqX8X8X8X3X9X8XqX0XwXwXwXjXtXwXwXwXwXtXyXhXhXhXhXyXyXyXhXhXhXyXyXyXyXuXuXuXuXuXuXuXuXuXuXiXuXuXuXuXyXuXyXyXyXhXhXlXlXlXlXvXvXbXbXbXmXmXBXBXBXBXBXBXBXBXBXBXBXBXBXBXVXBXBXBXBXBXBXBXBXBXmXmXmXmXBXBXVXVXVXVXVXVXCXDXVXVXCXDXDXDXDXDXFXFXFXFXFXFXFXFXFXFXFXFXFXFXFXFXFXFXFXFXFXFXFXFXFXFXFXFXFXFXFXFXFXFXDXDXFXFXFXDXDXDXDXDXCXCXVXZXmXdX X-.~ k g x Y ( O.O.O.O.O.<.O.O.#.#.( / / / / ( ( ( ( / ( ( { { +.*.&.&.*.*.*.+.{ ! E E U F U U Y Y Y Y Y Y Y ^ ) ) ) ) / ( } / / } } } } +.4.4.6.0.x.x.x.x.x.x.x.x.0.6.6.4.6.0.0.0.0.0.0.0.b.0.0.0.0.0.8.6.4.4.4.4.4.4.4.4.@.@.@.+.+.} } } / ^ ^ / / ^ Y Y Y Y Y Y Y Y H Y c c c c c c c c m c x x c Y Y Y Y Y ^ / / / / ( ( ( } +.#.4.8.w.w.q.q.Z.Z.D.D.S.E.Q.oX&X%X%X%X=X7X=X3X7X7X7X3X3X%X%X%X%X%X%X%X&X$X$X$X$X@X@X@X@X%X$XoXXXXXXXXXXX].XXXXQ.L.H.C.=.$.! Q I I I ~ I Q I U j :.U U :.P P U P P U I Q Q U j P j f f f P P P P P j j j j j j P U U j j f j P U U U P U P j k f f f t t q q z & & & & & > & & & & & & & 3 3 3 3 3 3 3 3 & 3 & & 3 3 3 3 3 3 3 3 3 3 3 3 4 4 3 3 3 3 3 3 3 4 4 7 3 3 3 2 3 3 3 3 3 3 2 2 3 3 3 3 3 3 3 3 2 2 2 2 2 2 2 2 3 3 3 3 3 3 2 2 3 3 3 3 3 3 3 3 & & $ $ $ $ $ % % $ $ % & $ & 3 y a h j F I Q ' ",
"I m m U I U I T Q ;.o.o.-.=.M.M.C.J.J.L.^.|.-X*X*X8X8X8X8XqXqXqX8X8X3X3X8X8XqXqXwXwXwXwXtXwXwXwXtXtXyXhXhXhXhXhXyXyXhXhXhXyXyXyXyXuXuXuXuXuXuXuXuXuXuXuXuXuXuXuXuXuXyXyXyXyXhXhXlXlXlXnXvXvXbXbXmXBXBXBXBXBXBXBXBXBXBXBXBXBXBXBXBXBXBXBXBXBXBXBXBXBXmXmXmXmXBXBXVXVXVXVXVXVXDXDXVXVXCXDXFXFXDXDXFXFXFXFXFXFXFXFXFXFXFXFXFXFXFXFXFXFXFXFXFXFXFXFXFXFXFXFXFXFXFXFXFXFXDXDXFXFXDXDXDXDXDXDXVXCXVXZXNXjX Xh.~ j k x Y ( #.#.<.O.O.<.1.1.1.#.( / ( ( ( O.O.O.+.( ( ( } { +.+.&.&.&.&.&.*.+.+.+.{ ! E Y Y T T T T ^ ^ ^ ^ / / / ) / / ( ^ / } } } } } &.4.6.6.0.0.0.0.x.x.x.0.0.6.6.6.6.6.0.0.0.0.b.b.b.0.8.8.8.8.8.6.4.4.4.4.4.&.&.&.@.@.@.+.} } / / ^ ^ / / / ^ Y Y c c H Y Y c c c c v c c c c c c c c c c c c Y Y Y Y Y Y T T ^ / ^ / / / ( O.#.8.8.8.q.D.D.d.D.D.G.L.'.$X%X=X:X7X=X%X=X7X7X7X3X7X%X%X%X:X=X%X%X&X&X&X&X$X@X@X$X&X%X$XoXXXXXXXXX'.].XXXX].E.L.D.=.$.;.Q I U U I I Q I U j P U U P P P P P U I I ~ Q U P P j f t f P P U P P P j j j j j P U U P j f f j P P U U I P P j f t t t t q q & & & & & & > & & & & & & & 3 3 3 3 3 3 & & & & & & & & 3 3 3 2 3 4 4 4 3 4 3 4 4 3 3 3 4 4 3 4 4 7 3 3 3 2 2 2 3 3 4 3 3 3 3 3 3 3 3 3 3 3 2 2 2 2 2 2 2 2 3 3 2 2 2 2 2 2 2 3 3 3 3 3 2 3 & % $ $ $ $ $ % % $ $ & & $ & 3 y a h j F I Q ' ",
"I m m U I U I T Q ;.o.o.-.=.M.M.C.J.J.L.^.|.-X*X*X8X8X8X8X8XqXqXqX8X8X8X8X8XqXqXwXwXwXwXtXwXwXwXtXtXyXhXhXhXhXhXyXhXhXhXhXyXyXyXuXuXuXuXuXuXuXuXuXuXuXuXuXuXuXuXuXuXyXyXyXyXhXhXlXlXlXvXvXbXbXbXmXBXBXBXBXBXBXBXBXBXBXVXVXBXBXBXBXBXBXBXBXBXBXBXBXBXmXmXmXmXBXBXNXNXVXVXVXVXDXDXVXVXCXDXFXFXDXDXFXFXFXFXFXFXFXFXFXFXFXFXFXFXFXFXFXFXFXFXFXFXFXFXFXFXFXFXFXFXFXFXFXFXFXDXFXFXDXDXDXDXDXDXCXCXVXZXVXjX*Xj.W j k m Y ( 1.#.O.O.} O.3.1.1.@.O.( ( O.O.O.@.@.@.+.} } +.+.+.+.@.+.@.@.} { +.+.*.+.} } / / / / / / / / ^ ^ / / / / / / ^ ^ / } +.@.@.4.&.4.6.6.w.0.0.0.0.0.0.0.6.6.6.6.6.6.0.x.0.0.x.b.b.0.6.4.4.4.6.8.4.4.4.4.4.&.@.@.@.@.@.@.} } / / / / / / / E H c c c H Y Y c c c c c c x c c c c c c c c H Y Y E Y Y Y Y Y Y ^ ^ / / ( ( / ( O.#.8.8.8.d.D.D.D.D.D.D.K.Q.oX$X%X%X=X=X:X7X7X:X3X7X%X%X:X:X=X%X&X@X&X&X$X$X@X@X$X&X%X$X@XXXXXXXXX'.XXXXXX].E.L.D.=.$.;.Q I U U I I I I P j j P U P P :.P P I I Q I ~ U :.j j f f f P U U U P j j j j j m P U U P P f j j j :.P U U U P j f t q t t q q & & & & & & & & & & & & & & & 3 3 3 3 3 & & & & & & & 3 3 3 3 3 3 4 4 4 4 7 3 4 3 4 3 3 3 4 3 4 4 7 4 3 3 2 2 2 3 4 4 4 4 4 3 3 3 3 3 3 3 3 2 2 2 2 2 2 2 2 3 2 2 2 2 2 2 2 2 3 3 3 3 2 2 3 & % $ $ $ $ $ % % $ $ & & $ & 3 y a h j F I Q ' ",
"M m m U I U I T Q ;.o.o.-.=.M.M.M.F.J.L.^.|.-X*X*X3X8X8X8X8XqXqXqXqXqXqXqXqXqXqXwXwXwXwXyXyXwXwXtXyXyXyXhXhXhXhXhXhXhXhXhXhXyXyXuXuXuXuXuXuXuXuXuXuXuXuXuXuXuXuXhXhXyXyXyXhXhXhXlXnXvXvXbXbXbXMXmXmXBXBXBXBXBXBXBXBXBXVXVXBXBXBXBXBXBXBXBXBXBXBXBXBXBXBXBXBXBXBXNXNXVXVXVXVXVXCXVXCXCXDXFXFXFXFXDXDXFXFXFXFXFXFXFXFXFXFXFXFXFXFXFXFXFXFXFXFXFXFXFXFXFXFXFXFXFXFXFXFXDXDXFXFXFXDXDXDXDXDXCXVXZXZXVXjX*Xj.W V x m Y O.1.<.<.<.<.<.1.1.9.9.<.O.} O.@.@.O.O.} } } } @.@.+.} } } } +.} } { { { | { { / / / / / / / / ( / / / / / ( ( ( ( / } } } @.6.&.&.4.6.0.0.0.0.0.6.0.6.6.6.6.6.4.6.x.b.b.x.0.0.0.8.4.&.&.4.4.8.4.4.4.4.4.&.@.@.@.@.@.+.} { / / / / / ^ ^ E Y H H H Y Y Y c v c c c c Y x c c c c c c c c Y Y Y Y Y Y Y Y Y Y E ^ / ( } ( ( O.+.#.o.#.w.C.D.q.q.w.x.C.D.H.K.].XX%X%X:X7X7X%X=X=X:X:X:X=X%X%X#X@X$X&X$X$X@X@X@X$X&X$XoXoXoXoXXXXX@X@XoXXXE.L.D.w.-. .Q Q U U I I I I P j :.U U U j j j U I Q Q Q ~ U j j f f j j P P U P j j j j j :.P P P P P P j j j j j P P P P P j f t q q t q > & & > > & & & & 3 3 3 & & & & & 3 3 3 3 & & & & & & & & & 3 3 3 3 3 4 4 4 4 3 4 4 3 3 3 4 4 3 4 4 7 4 3 3 2 3 2 3 4 4 4 4 4 3 3 3 3 3 3 3 3 2 2 2 2 2 2 2 2 2 2 2 2 2 2 2 2 2 2 3 3 3 3 2 3 & & % $ $ $ $ % % $ $ & & $ 3 3 y a h j F I Q ' ",
"U m m U U U I T ! ;.o.o.-.=.M.M.M.C.J.J.^.|.-X*X*X3X8X8X8X8XqX8XqXqXqXqXqXqXqXqXwXwXwXwXyXyXwXwXyXyXyXyXhXhXhXhXhXhXhXhXhXhXhXyXuXuXuXuXuXuXuXuXuXuXuXuXuXuXuXuXhXuXyXyXhXhXlXlXnXvXvXbXbXmXMXBXmXmXBXBXBXBXBXBXBXBXVXVXVXVXBXBXBXBXVXVXBXBXBXBXBXBXBXBXBXBXBXBXNXNXVXVXVXVXVXVXVXCXCXCXFXFXDXDXDXDXFXFXFXFXFXFXFXFXFXFXFXFXFXFXFXFXFXFXFXFXFXFXFXFXFXFXFXFXFXFXFXFXDXDXFXFXFXDXDXDXDXDXCXVXZXVXVXjX*Xj.W V x F Y O.1.3.1.9.e.t.t.t.t.r.9.O.O.O.O.} ( ( ( ( ( ( / | / / | { { { { { { / / / / ^ / / / / / ^ ^ ^ ( ( / / / ( } O.} ( } } { { } @.&.4.6.8.0.0.0.0.x.0.0.6.6.6.6.0.4.0.x.b.b.x.0.6.0.8.4.4.&.&.4.8.4.4.4.4.4.&.@.@.@.+.+.} { / / ^ / / / ^ ^ ^ ^ E Y Y Y Y Y c v c c c c Y Y c U Y H H H H Y Y Y Y Y Y Y Y H H Y Y Y ^ / ( ( O.+.#.#.+.O.&.w.q.q.w.C.C.C.D.D.H.K.E.@X&X%X:X%X%X%X=X7X:X:X=X%X%X&X#X$X&X&X&X$X@X@X@X@X@XoXoX@X@XXXXX@X@XoXXXE.L.P.C.=.o.! Q I U I U I I I P P U I U j j j U I Q Q Q Q I j f f j j j j P P P j j j j P P P P :.j P P P P j j j P :.j P P j f t q q e > > & & > > & & & & 3 3 3 3 & & & & 3 3 3 3 & & & & & 3 & & & 3 3 2 3 4 4 4 3 3 4 4 3 3 3 3 4 4 3 4 4 4 4 3 3 2 3 3 3 4 4 4 4 3 3 3 3 3 3 3 3 3 2 2 2 2 2 2 2 2 3 3 2 2 3 2 2 2 2 2 3 3 3 3 2 3 3 & % $ $ $ $ % % $ $ & & $ 3 3 y a h j F I Q ' ",
"U m m U U U I T !  .o.o.-.=.M.M.M.C.J.J.^.|.|.*X*X3X8X8X8X8XqX8XqXqXqXqXqXqXqXqXwXwXwXtXyXyXwXwXyXyXyXyXhXhXhXlXhXlXlXlXlXhXhXhXhXuXuXuXuXuXuXuXuXuXuXuXuXuXuXuXuXuXyXyXhXhXnXnXnXnXvXbXbXbXMXMXmXBXBXBXBXBXBXBXBXBXVXVXVXVXBXBXBXBXVXVXVXBXBXBXBXBXBXBXBXBXBXBXMXNXVXVXVXVXVXVXVXVXCXCXDXDXDXDXDXDXFXFXFXFXFXFXFXFXFXFXFXFXFXFXFXFXFXFXFXFXFXFXFXFXFXFXFXFXFXFXFXFXFXDXFXFXFXDXDXDXDXDXDXVXZXVXVXjX*Xj.W V V F Y O.4.O.1.r.y.Z.Z.t.9.9.5.<.O.} } } } } } } ( / ^ ^ ^ ^ / / / / ^ ^ / / ^ ^ ^ ^ E E T ^ ^ ^ ^ ^ / / / / / ( ( ( } } } } } { } @.4.4.6.8.0.0.8.8.b.b.0.6.6.6.6.6.0.0.0.0.0.6.6.6.6.8.8.4.&.&.4.8.4.4.4.4.4.@.@.+.+.+.+.} { / / / / / / ^ ^ / / ^ E Y Y Y Y H H Y Y F Y Y Y Y Y E Y Y Y Y Y H H H H H H H H Y Y E E T E / / O.o.+.#.+.#.&.&.=.w.q.C.D.D.D.D.H.G.K.E.].+X%X%X&X&X=X:X:X%X%X%X%X%X%X$X&X%X%X&X@XoXXXXX'.XXoXoX@XoXXXoXoXoXXXXXE.H.C.j.o.! Q U U I U I I I U U U U U :.j j P U I I I Q I P j f j j j j P P P j k j j P U U P j j j P P P j P P P P j j j f f t q q q > & & z > > & & & & q q q 3 & & & & & 3 3 3 3 & & & 3 3 3 3 3 3 3 3 3 3 3 4 3 3 4 4 3 3 3 4 4 4 3 3 4 4 4 3 3 2 3 3 4 4 4 4 3 3 3 3 3 3 3 3 3 3 2 2 2 2 2 2 2 2 3 3 3 3 3 3 2 2 2 2 2 3 3 3 2 3 3 & % $ $ $ $ % % $ $ & & $ & 3 y a h j F I Q ' ",
"M m m U I U I T ! ;.o.o.-.=.M.M.M.C.J.J.^.|.|.*X*X3X8X8X8X8XqX8XqXqXqXqXqXqX8X9XwXwXwXtXyXyXwXwXyXyXyXyXhXhXlXlXlXlXlXlXlXlXhXhXhXuXuXuXuXuXuXuXuXuXuXuXuXuXuXuXuXuXyXyXhXlXnXnXlXlXnXvXvXbXbXbXBXBXBXVXVXVXVXVXBXBXVXVXVXVXBXBXBXBXVXVXVXBXBXBXBXBXBXBXBXBXBXBXNXNXVXVXVXVXVXVXVXVXCXCXDXDXDXDXDXDXFXFXFXFXFXFXFXFXFXFXFXFXFXFXFXFXFXFXFXFXFXFXFXFXFXFXFXFXFXFXFXFXFXDXFXFXFXDXDXDXDXDXDXVXZXVXVXjX*Xj.W V V F E #.4.O.@.9.t.v.v.9.1.<.1.<.O.O.} } } } @.@.} ( } } } } | { { / ^ / / / ^ ^ E E E T T T T ^ ^ ^ T T ^ ^ / / / / / ( } @.@.} @.4.4.4.6.8.8.0.w.w.b.b.0.0.0.6.6.0.b.b.0.6.6.6.6.0.6.8.8.4.&.&.&.8.4.4.4.4.4.@.@.+.@.@.+.+.} { / / / } { / ^ / ^ E ^ ^ E E Y Y Y T E Y Y Y Y Y Y T Y Y H H c c c c c H H Y Y Y E ^ ^ ^ E ^ / ( +.o.+.+.#.#.#.o.$.w.w.w.C.D.D.D.D.D.D.G.].@X$X$X%X=X%X%X%X%X%X%X%X:X&X%X%X%X%X#XoXXX'.'.].'.oXoXoXXXXXXXXXXXXX].L.H.C.%.! I P P U U U I I U P P P P P P P P P U I I Q I U j j j j f :.P U P j j j :.P U U P j j j P P P j P U U P j k f f t t q z & > z & & > > & & & z q q q 3 & & & & & 3 3 3 & & & & 3 3 3 3 3 3 3 3 3 4 4 3 3 2 4 4 4 3 3 4 4 4 3 3 4 4 3 3 3 2 4 7 7 7 4 4 3 2 3 3 3 3 3 3 3 3 2 2 2 2 2 2 2 2 3 3 3 3 3 3 2 2 2 2 3 3 3 3 2 2 3 & % $ $ $ $ % % $ $ & & $ & 3 y a h j F I Q ' ",
"M m m m U U I T Q  .o.o.-.M.M.M.C.C.J.J.^.|.|.-X*X3X8X8X8XqXqXqX8XqXqXqX8X9X8XqXwXwXwXtXwXwXwXwXyXtXtXyXyXyXhXlXlXlXlXlXhXhXyXyXhXuXuXuXuXuXuXuXuXuXuXuXuXuXuXuXhXhXyXyXhXlXnXvXlXlXvXbXbXbXmXmXbXmXBXBXBXBXBXVXBXBXVXVXVXVXBXBXBXBXBXBXBXBXBXBXBXBXBXBXBXBXBXBXVXVXVXVXVXVXVXVXVXVXCXDXDXDXDXDXDXDXFXFXFXFXFXFXFXFXFXFXFXFXFXFXFXFXFXFXFXFXFXFXFXFXFXFXFXFXFXFXFXFXFXDXFXCXDXDXDXDXVXCXCXCXZXMXmXjX2XN.W V V U E +.&.O.@.4.9.r.t.4.O.O.<.1.<.} 4.<.@.} } } } } | { } } / / / / / / / / ^ E E ^ E ^ ^ T Y Y Y Y E Y Y Y ^ ^ / ( / / } +.+.O.} } @.&.4.4.6.6.0.b.b.b.0.8.6.6.0.b.0.0.0.0.0.0.0.0.0.8.6.4.4.4.4.4.&.&.&.&.&.@.@.+.+.+.+.} } ( / / { / / / / / / / / / ^ ^ ^ E T E E T Y Y Y Y E E ^ ^ ^ ^ ^ Y H c H Y Y Y E ^ ^ / ^ ^ E E / / +.+.{ { o.#.&.&.&.#.&.w.q.C.x.w.x.C.x.D.K.E.].'.@X$X%X%X%X%X%X%X%X%X&X%X%X%X%X&X+X'.'.Q.E.].oX@XoXXX].].].].XXXXL.D.C.%.! R U P U U I I P P P U P P f j P P :.P I Q I I P k k j j f j j P j k f j P :.I I j f j :.P P P j j P I U j j f t t q q & & > z z z z z & z & & & 3 & & & & 3 3 & & 3 3 3 3 3 3 3 & & & & 3 3 3 3 3 3 4 3 3 4 4 4 4 3 3 3 3 3 3 3 3 3 3 4 4 7 7 3 3 3 3 3 3 3 3 3 3 3 3 3 3 2 2 2 2 2 2 2 2 2 2 2 2 2 3 3 3 3 3 3 3 2 2 3 3 3 3 % $ $ $ $ 2 $ 2 3 3 $ $ 3 6 y a h V P R ! ' ",
"M m m U I U I T Q  .o.o.-.j.M.M.C.F.J.J.^.|.|.-X*X3X8X8X8XqXqXqX8XqXqXqX8X9X8XqXwXwXwXtXwXwXwXwXyXtXyXyXyXyXhXlXlXlXlXlXlXhXhXyXhXuXuXuXuXuXuXuXuXuXuXuXuXuXuXuXhXhXyXhXhXlXnXvXlXlXnXbXbXbXbXbXbXmXBXBXBXBXBXVXBXBXVXVXVXVXBXBXBXBXBXBXBXBXBXBXBXBXBXBXBXBXBXBXVXVXVXVXVXVXCXCXVXVXCXDXDXDXDXDXDXDXFXFXDXFXFXFXFXFXFXFXFXFXFXFXFXFXFXFXFXFXFXFXFXFXFXFXFXFXFXFXFXDXFXFXFXFXFXFXFXFXDXFXFXDXDXDXVXkX2Xj.R V F U / &.4.} } <.5.r.9.1.O.O.<.1.@.O.( } } } } } } } / / / ^ ^ ^ ^ ^ ^ E E E Y Y Y E Y Y Y Y Y Y Y Y E Y Y Y E ^ ^ ^ ^ / / ( ( ( +.+.@.4.4.6.6.6.0.0.b.x.0.8.6.6.0.0.6.0.0.0.0.6.6.6.0.8.6.4.6.6.4.4.&.&.@.@.@.@.@.+.+.+.+.+.} } { { } / / / / / / / / / / ^ ^ E T E E T Y Y Y T E ^ E ^ ^ ^ / ^ ^ ^ ^ ^ ^ ^ ^ / / ( / / ^ E E ^ / / / / / o.#.#.#.#.$.&.w.w.w.w.w.w.D.H.K.L.E.Q.XX$X%X%X%X%X%X%X%X%X%X%X%X%X%X&XoXoX].Q.E.'.oX@XoXXX].XXXXXXXXXXE.H.C.*.' I U P U U I I U U U U P P j j P P j j U I U I U :.j j j f j P U P j k j P :.I I :.f j j j j j j j j U U j k f t q q q q q & & & & & & & & & & & 3 & & & & 3 3 & & 3 3 3 3 3 3 3 3 & & & 3 3 3 3 3 4 4 4 4 4 4 4 4 3 3 3 3 3 3 4 3 3 3 4 4 7 7 3 3 3 3 3 3 3 3 3 3 3 3 3 3 2 2 2 2 2 2 2 2 2 2 2 2 3 3 3 3 3 3 3 3 2 2 3 3 3 3 $ $ $ $ $ 2 $ 2 3 3 $ $ 3 q y a h V P R Q ' ",
"M m m U I U I T Q o.o.o.-.j.M.M.C.J.J.J.^.|. X*X*X3X8X8X8XqXqX8X8XqXqXqX8X9X8XqXwXwXwXtXwXyXwXwXyXyXyXhXhXyXhXlXlXlXlXlXlXlXlXlXhXuXuXuXuXuXuXuXuXuXuXuXuXuXuXuXhXhXhXhXhXlXnXnXlXlXnXvXbXbXbXbXbXmXBXBXBXBXBXVXBXVXVXVXVXVXBXBXBXBXBXBXBXBXBXBXBXBXBXBXBXBXBXBXNXVXVXVXVXVXDXDXVXVXCXDXFXFXDXDXFXDXCXCXDXFXFXFXFXFXFXFXFXFXFXFXFXFXFXFXFXFXFXFXFXFXFXFXFXFXFXFXFXDXFXFXFXFXFXDXCXZXZXVXCXVXZXNXDXvX2Xl.R C G F ^ +.@./ / } 1.0.1.@.@.@.@.@.@.O./ ( } } } } / / / / ^ Y Y Y H H H H H x c c H H c c c c c c Y Y Y Y Y Y Y Y Y Y ^ ^ ^ ^ ^ / } @.@.&.4.4.6.6.0.0.0.0.0.6.6.6.6.0.0.0.r.r.0.0.5.6.0.8.8.8.8.8.4.4.@.@.@.@.@.@.@.+.} } } } } } } } } { / / / / / / / / ^ ^ E E Y Y Y Y E E E E ! ^ Y Y E E ^ ^ / / ^ ^ / ^ ^ ^ / / { / / / / / / / / / / / o.#.+.#.#.#.=.=.w.w.w.w.D.D.D.D.D.H.K.Q.$X$X&X%X%X%X%X%X%X%X%X%X%X&X@XoX].].].oX@X@XoX'.oXoXoXoXoXoX].L.F.j.{ Q I U U U I I I I I U P m j P P P j j j P P P U P P j j f j K U U j j j :.P I I P j j j j j j :.j j U U P k f t q q q q q & & & & & & & & & & & 3 & & & & 3 3 & & 3 & 3 3 3 3 3 3 3 3 & 3 3 3 4 4 4 4 4 4 3 3 4 4 3 3 3 3 4 4 4 4 3 3 3 3 4 4 3 3 3 3 3 3 3 3 3 3 3 3 3 3 2 2 2 2 2 2 2 2 2 2 3 3 3 3 3 3 3 3 2 3 2 2 3 3 3 2 $ $ $ $ $ % $ % 3 3 $ $ 3 3 y a h j P I Q ' ",
"U m m U I U I ~ Q  .o.o.-.j.M.M.M.J.J.J.^.|.|.*X*X3X8X8X8XqXqX8X8XqXqXqX8X9X8XqXwXwXwXtXyXyXyXyXhXyXhXhXhXyXhXlXhXlXlXlXvXlXlXnXhXuXuXuXuXuXuXuXuXuXuXuXuXuXuXuXhXhXhXhXlXnXnXnXlXlXnXvXbXbXbXbXmXBXBXBXBXBXBXVXVXVXVXVXVXVXVXBXBXBXBXBXBXBXBXBXBXBXBXBXBXBXBXBXNXNXVXVXVXCXDXFXVXVXCXDXFXFXDXDXFXFXFXCXFXFXFXFXFXFXFXFXFXFXFXFXFXFXFXFXFXFXFXFXFXFXFXFXFXFXFXFXFXFXDXDXDXFXCXCXDXDXDXDXDXDXCXVXNXkX5Xl.R R R R { } +./ / / } 4.@.@.@.@.O.O.} } } } } } / ^ Y Y E Y H H H H c c c c g d i u p c i i v v v c c c c c c Y Y Y E T E E ^ ^ ^ / } +.@.&.4.4.6.6.0.0.0.0.0.6.6.6.5.6.r.b.b.b.r.r.0.0.0.0.8.8.8.8.4.&.@.@.@.@.@.@.@.+.} } } } } } { { / / / / / / ^ ^ ^ E E E Y Y E Y Y Y E E E E ^ ^ ^ ^ ^ ^ / / / / { { { / / / { { / / { { { { { { o.o.{ { o.#.#.&.#.#.&.=.w.w.x.x.x.x.x.w.w.C.D.G.'.XX@X$X%X%X%X%X%X%X%X%X%X&X@X@X'.'.].oX@XoX'.].oXoXoXoXoXoX].L.H.j.o.Q R U P P I I I I I U m j j P P P :.j j j j P U P P :.j j j P U U P j j j P U I U :.j f f j P P P P U I I j f t q & & & q & & & & & & & & & & & 3 & & & & 3 3 & & & & 3 3 3 3 3 3 3 3 3 3 3 3 3 4 4 4 4 4 3 3 4 4 4 4 3 4 4 4 4 4 3 3 3 3 4 4 3 3 3 3 3 3 3 3 3 3 3 3 3 3 2 2 2 2 2 2 2 2 3 3 3 3 3 3 3 3 3 3 2 2 2 2 3 3 3 2 $ $ $ $ $ 2 $ % 3 % $ % 3 3 y a f j P I Q ' ",
"U m m U I I I ~ Q  .o.o.-.=.M.M.C.F.J.J.^.|.|.-X*X*X8X8X8X8XqX8X8XqXqXqX8X8X8XqXwXwXwXwXtXyXyXyXyXyXhXlXhXhXhXlXhXlXlXlXvXvXvXnXlXlXuXuXuXuXuXuXuXuXuXuXuXuXuXuXuXhXhXlXnXnXnXnXlXlXvXvXbXbXbXbXmXBXBXVXBXBXBXVXBXVXVXVXVXVXVXVXVXVXVXBXBXBXBXBXBXBXBXBXBXBXBXBXNXNXVXVXVXDXDXFXVXCXCXDXFXFXFXFXDXDXCXCXDXFXFXFXFXFXFXFXFXFXFXFXFXFXFXFXFXFXFXFXFXFXFXFXFXFXFXFXGXFXFXCXFXFXFXFXFXFXDXDXDXDXDXDXNXkX5Xl.R G R E | &.@.| / / / +.O.@.@.@.+.( ( ( { / / ^ Y Y H H c c c c c H F c c c c d i i i u i i u i i i i i v v c c c F Y Y Y Y ^ ^ ^ / ( ( O.@.4.4.6.5.6.0.0.0.0.0.6.6.5.6.b.b.b.b.r.r.0.0.0.0.0.8.8.8.4.&.@.@.@.@.@.@.+.} } } } } { ( / / / / ^ ^ ^ ^ Y Y Y Y Y Y Y Y Y Y E Y E E E ! / / ^ ^ ^ ! ^ ! / / / / / / / / { } / / { { o.o.o.o.#.+.+.o.o.#.#.&.#.*.*.=.w.x.x.x.x.C.D.D.D.H.G.K.K.E.Q.XX@X$X%X%X%X%X%X%X%X&X&X@X@XoXoXoXoXoX].].oXoXoXoXoXoXXX_.H.j.o.Q R P P P U I I I I P :.j j j P P P P P P P U U j j j P j j P U U U P j j P P U U P j f f k j P P P U I U j f t q & & & & z > z & & z > > & & & 3 & & & & 3 3 3 3 & & & 3 3 3 3 3 3 3 3 3 3 4 4 4 3 3 3 4 3 3 3 3 4 3 4 4 4 4 3 3 3 3 4 3 4 4 3 3 3 3 3 3 3 3 3 3 3 3 3 3 2 2 2 2 2 2 2 2 3 3 3 3 3 3 3 3 3 2 2 2 3 3 3 3 3 2 1 1 $ 1 1 2 1 1 2 2 2 2 2 3 y a f j F I Q ' ",
"U m m U U U I ~ Q  .o.o.-.=.M.M.C.F.J.J.^.|.|.-X*X*X8X8X8X8X8X8X8XqXqXqX8X8X8XqXwXwXwXwXtXyXyXyXyXyXyXlXlXhXhXlXhXlXlXlXvXvXlXnXnXnXlXuXuXuXuXuXuXuXuXuXuXuXuXuXuXhXhXnXnXnXnXnXlXnXvXbXbXbXbXbXBXBXVXVXBXBXBXVXVXVXVXVXVXVXVXVXVXVXVXBXBXBXBXBXVXBXBXBXBXBXBXBXNXVXVXVXVXVXDXDXVXCXCXCXFXFXDXDXDXDXCXCXDXFXFXFXFXFXFXFXFXFXFXFXFXFXFXFXFXFXFXFXFXFXFXFXFXFXFXFXFXDXCXFXFXGXGXGXFXFXDXDXDXDXCXVXDXkX<Xl.R Z G E { | / ^ ^ ^ ^ ( ( ( ( / / ^ ^ ^ ^ E E U H F H F F H H H F F x c F x c c g d u u u i i u i i i i p i i i i p c c c Y Y ^ ^ / / / } +.@.4.6.6.6.0.0.0.0.0.6.6.0.0.0.r.r.r.0.0.0.0.0.0.0.0.w.8.4.&.@.@.@.@.@.+.} } +.} } } ( / / ^ ^ ^ Y Y Y Y Y Y Y Y Y Y Y Y Y Y Y Y E E E ! ! ! E E E E ! ! / / ! ! / / / / / { { { } } +.+.o.o.#.#.+.o.{ o.#.#.+.+.*.*.=.w.w.w.w.x.D.D.H.G.K.K.S.K.E.Q.Q.XX&X%X%X%X%X%X%X&X&X@X&X&X&X@XoX'.'.].].oXoXoXXXXXoX].H.j.o.! R U P P P U I I U P m j j j j j P P U U P U U j j j P U :.P U U P P P m P P P U P j f f f j j j P P P j j f t q & & & & - > z z > z > - & & & 3 & & & & 3 3 & 3 & & & 3 3 3 3 & 3 3 3 3 3 4 4 4 3 3 3 4 3 3 3 3 4 3 4 4 4 4 3 3 4 4 4 4 4 4 3 3 3 3 3 3 3 3 3 3 3 3 3 3 2 2 2 2 2 2 2 2 3 3 3 3 3 3 3 3 3 2 2 2 2 2 3 3 3 2 2 1 $ 1 1 2 1 1 1 1 2 3 2 3 r y f j V U Q ! ",
"M m m U I U I ~ Q  .o.o.-.M.M.M.C.F.J.J.^.|.|.-X*X*X8X8X8X8XqX8X8XqXqXqX8X8X8XqXwXwXwXwXtXyXjXjXtXtXyXhXlXhXhXvXlXlXlXlXlXlXlXlXnXnXlXuXuXuXuXlXuXuXuXuXuXuXuXuXuXhXlXnXnXnXnXnXnXvXvXbXbXMXMXMXBXBXVXVXBXBXBXBXVXVXVXVXVXVXVXVXVXVXVXVXBXBXBXBXVXVXBXBXBXBXBXBXVXVXVXVXVXVXDXDXVXVXCXCXDXDXDXDXDXDXFXFXDXFXFXFXFXFXFXFXFXFXFXFXFXFXFXFXFXFXFXFXFXFXFXFXFXFXFXFXDXFXFXFXGXGXDXCXFXDXZXmXxXjXwXqXqX Xj.] R C G E E E F c H H c Y Y Y Y Y F F F F H F x c c c c c F F H H F c c g c F c c x g d d u i i i i i i i i u i i i i i i v c c Y T ^ ^ / ( } @.1.6.6.0.0.5.0.0.0.0.0.0.0.5.0.r.r.0.0.e.r.0.0.0.0.0.6.4.@.@.@.+.+.@.} } ( { { { / / ^ ^ E ^ Y Y Y Y Y H H Y Y Y H F F F F F F U U Y Y Y Y E E E Q ! ! ! ! ! ! ! ! / / / { / / / / / / / / / / { { / / o.#.*.*.+.&.=.w.w.w.=.w.w.x.D.D.H.H.H.G.K.K.K.E.XX%X%X%X%X%X&X&X&X&X&X&X&XoXoXoXoXoXoXoX@XoXoXoXoXXXH.j.%.' Q U P P P U I I P P P P P j j j j P P U P U U j j j P U P P P P P P P P P :.P U P j f j k j j j P U P j f t e q q q > > & & & & & & & & & & & 3 & & & & & & & & & & 3 3 3 3 & & & & & 3 3 4 3 3 3 3 4 4 4 4 3 4 4 4 3 3 4 3 3 3 4 4 4 4 4 4 3 3 3 3 3 3 3 3 3 3 3 3 3 3 2 2 2 2 2 2 2 2 2 3 2 2 2 2 3 3 3 3 2 2 2 2 2 3 2 2 2 1 $ 1 1 2 1 1 $ 1 2 2 2 3 r y f k V U Q ! ",
"M m m U U I I ~ Q o.o.o.=.s.M.M.C.J.J.J.^.|.|.-X*X3X8X8X8X8X8X8X8XqXqXqX8X8X8XqXwXwXwXtXjXyXjXjXwXwXyXhXlXhXlXvXlXlXlXlXlXlXlXlXnXlXlXuXuXuXuXlXuXuXuXuXuXuXuXuXuXhXlXnXnXnXnXnXnXvXbXbXMXBXMXBXBXBXVXVXBXBXBXBXVXVXVXVXVXVXVXVXVXVXVXVXVXBXBXBXVXVXVXBXBXBXBXBXVXVXVXVXVXVXCXCXVXVXCXCXDXDXDXDXDXDXFXFXDXFXFXFXFXFXFXFXFXFXFXFXFXFXFXFXFXFXFXFXFXFXFXFXFXFXFXFXDXDXDXFXGXDXcXjXjXdXqX2X X).N.N.h.] R ` ' ' ' { | ! F d g d i p u u i u u p p p d u i i w w w w 7 i p c g d d d k x c c x g d d i u u i i i i i i i u i i i i i i i c c Y T ^ / / ( O.@.4.6.9.0.6.9.0.0.0.0.0.r.6.0.r.r.r.r.r.r.0.0.0.0.0.8.&.@.&.@.@.+.+.} { / ^ ^ ^ ^ ^ Y Y Y E Y Y H H H Y U F F F F c x c c k k x x c F F F x x x x x x k k x F F F x x F F Y Y Y Y Y E E E Q ! / / / / o.#.*.*.*.=.=.w.x.w.w.w.w.w.x.D.D.D.G.G.G.H.H.K.'.$X%X%X%X%X&X&X&X&X&X&X@XoXoXoX@X&XoXoX&XoXoXoXXXoXH.j.%.' Q R U U P U I U P P P U U P j f j j P P P U U :.j j P P U P P m P :.P P P j j P P j j j j j j j P I P j t t q q q q q q & & & & & & & & & & & 3 & & & & & & & & & & & 3 3 3 & & & & 3 3 3 3 3 3 3 3 4 4 4 4 4 4 4 4 4 3 3 3 3 3 4 4 4 4 4 4 3 3 3 3 3 3 3 3 3 3 3 3 3 3 2 2 2 2 2 2 2 2 2 2 2 2 2 2 3 3 3 2 2 2 2 2 2 3 3 3 % $ $ $ $ % 3 $ $ $ 3 3 3 3 r y f k V U Q ! ",
"m M U U U Y T T ! ! o.%.-.=.M.M.M.J.J.J.|.|.|.*X*X3X3X8X8X8XqXqX8XqXqXqXqXqXqXqXqX0XwXtXyXjXjXyXyXyXyXyXyXhXhXlXhXlXlXlXlXlXlXlXlXhXhXuXuXuXhXhXuXuXuXuXuXuXhXhXuXuXlXnXnXlXlXlXvXvXvXbXbXbXbXbXmXBXBXBXBXBXBXBXVXVXVXCXVXCXBXBXBXVXVXVXVXVXBXBXVXVXVXBXBXNXNXNXVXVXVXVXVXVXDXDXDXCXCXVXDXFXFXDXDXDXDXFXFXFXFXFXFXFXFXFXFXFXFXFXFXFXFXFXFXGXFXFXFXFXGXDXZXCXFXDXGXDXDXGXFXxXeX|.h.-.X.W K K K K K A [ l.J._._.H.H.*.! U F U x x x m U U U P x c c c g d g g u e e i 8 8 8 8 7 7 ; ; ; 7 7 w e e u i e u i w w u u u i i i i i i i i i p c c Y ^ / ( O.O.O.8.9.0.9.0.e.r.0.9.9.5.r.0.r.r.r.0.0.9.q.0.9.0.8.&.&.&.+.+.+.@.@.@.} } ^ E Y Y E E Y Y H F F F F F c u d a t a t 7 7 y y y 7 6 6 7 7 6 6 6 6 6 7 7 7 7 6 7 7 7 7 7 7 7 y w 7 ; - - w i u u u u g c Y Q ! { +.*.=.=.x.x.x.w.w.w.C.D.H.G.G.H.K.].E.K.E.oX&X%X=X%X%X$X@X@X&X&XoXoXoXoX@X&X&X&XoXXX-X-XOXL.F.C.%.' E R U U V P U I I U P V P P j f j P P j U U U P j j P I I P :.:.P j P U P P P :.j f j P P P j j U I P f f t q q q q q q > & & & & & & > & & & > & & & & & & 3 3 3 3 3 & 3 3 3 3 3 3 3 3 3 3 3 3 3 6 q r 3 3 3 3 3 4 4 7 3 3 3 3 4 4 4 4 4 4 4 4 3 3 3 3 3 3 3 3 3 3 3 3 2 2 2 2 2 2 2 2 2 2 2 2 2 2 2 2 3 2 2 2 2 2 3 3 & & & & & % % $ & % % $ % & & 3 q a f h P U I ! ",
"m m U U U Y T T ! ! o.o.-.=.M.M.C.J.J.J.^.|.|.*X*X3X3X8X8X8XqXqX8XqXqXqXqX8XqXqXqX0XtXtXyXjXjXyXyXyXyXyXyXhXhXlXhXlXlXlXlXlXlXlXnXlXlXhXhXhXhXhXhXhXhXhXhXhXhXhXuXuXlXnXnXlXlXlXvXvXvXbXbXbXmXbXmXBXBXBXBXBXBXBXCXCXCXCXCXBXBXBXVXVXVXVXVXVXBXBXBXBXBXBXNXNXNXNXVXVXVXVXVXVXDXDXCXVXCXCXDXFXDXDXDXDXDXFXFXFXFXFXFXFXFXFXFXFXFXFXFXFXFXFXFXFXFXFXGXDXGXGXGXGXGXGXDXDXDXjX XN.-.[ K K K K K L W [ ' ' %.j.F.F.C.=.*.o.=.=.=.*.{ ! Q ! / / / ! ^ ! ^ E Y Y U Y Y Y E Y U H c g u i e w w 7 7 7 7 7 7 ; ; 7 y 7 y u i e u i w 8 7 ; i i i i i c Y T / ( ( ( O.1.9.9.r.r.r.r.r.0.9.9.t.t.t.t.t.t.q.q.9.9.q.q.w.8.&.&.&.@.+.+.+.} ( / / E Y H H F F c c d i 8 7 7 7 7 7 3 6 y t y a d y y y r y a a a a a t t a a u u d d d d d d d d d d d u e w w w e e w w 7 w e u d k j F U ! o.*.x.x.C.C.x.C.D.D.K.K.E.oX'.E.].$X@X&X%X%X&X$X@X$X&X&X@XoXoXoX@X@X@X-XoXoX-X-XOX_.L.C.*.{ ! I I U F P U I I U P j P P j f j P P j P P P j j j P U P :.:.P P j j P P P P P j j j P P P P :.P U :.f u t q q q & & q > & & & & & & > & & & > & & & & & & 3 3 3 3 3 3 3 3 3 3 3 3 3 3 3 3 3 3 3 6 q q 3 3 3 3 3 4 4 7 3 3 3 3 4 4 4 4 4 4 4 4 3 3 3 3 3 3 3 3 3 3 3 3 2 2 2 2 2 2 2 2 2 2 2 2 2 2 2 2 3 3 2 2 3 2 3 3 & & & & & % % % & % % $ $ & & 3 q a f h P U R ! ",
"m m U U U Y T T ! ! o.o.-.=.M.M.C.J.J.J.^.|. X*X*X3X3X8X8XqXqXqX8XqXqXqX8X8X8X8XqX0XtXtXyXjXyXyXyXyXyXyXhXhXlXlXlXlXlXlXvXnXlXlXnXnXlXlXhXlXlXnXnXnXlXlXnXnXnXnXuXhXlXnXnXlXnXnXvXvXvXbXbXbXbXMXmXBXBXBXBXBXBXBXVXVXVXBXBXBXBXBXVXVXVXVXVXVXBXBXBXBXBXBXVXVXVXVXVXVXVXVXVXVXDXDXCXVXCXCXDXDXDXDXFXFXFXFXFXFXFXFXFXFXFXFXFXFXFXFXFXFXFXFXFXGXGXGXDXZXZXFXGXFXCXDXGXNXwX).X.X.X.s.-.-.X.X. . . . . ...j.C.C.=.=.*.{ #.H.L.L.P.o.{ ! o.o.o.o./ { o./ / E Y E E ! / ! ! E E Y F x g k k g d u u u u 7 7 ; 6 7 ; ; 7 7 7 w y e e e i i i i i i i c Y / ( ( } O.1.9.5.e.e.0.0.0.0.9.9.t.t.t.t.q.t.t.t.8.9.q.q.q.8.=.*.*.&.+.+.} / ^ E U F x d d u u i u t i y y t d k d a d k k h h k h k k h k V F j F x F x F F F U Y Y Y Y Y Y Y Y Y I E I U F x x k x x k d u e e t t y y y a j F E o.x.x.C.H.K.K.K.K.].oXXX].'.$XXX@X$X&X&X&X&X&X&X&X&X@XoXoXoXoX@X-XoXoX-X-X-XOX].H.=.o.! Q I I P U U I I U V j j P j k k j P P P P j j j j j j j j j P U P j j P P U U P j j P P U U P P P j j t e q q 9 & & q > & & & & & & q & & & > & & & & & & 3 3 3 3 3 3 3 3 3 3 3 3 3 3 6 3 3 3 3 6 q q 3 3 3 3 3 3 4 4 3 3 3 3 4 4 3 3 4 4 4 3 3 3 3 3 3 3 3 3 3 3 3 3 2 2 2 2 2 2 2 2 2 2 2 2 2 2 2 2 2 3 3 3 3 3 3 3 & & & & & % % % & % % $ $ % & 3 6 a a k P U I ! ",
"m m U U U Y T T Q ! o.o.-.=.M.M.M.J.J.J.|.|. X*X*X2X3X8X8XqXqXqX8X8XqX8X9X9X9XqXqX0XtXtXyXjXyXyXyXyXyXyXhXhXlXlXlXlXlXvXvXvXnXlXnXnXlXlXhXlXlXnXnXnXlXlXnXhXhXhXuXhXlXnXnXlXnXnXvXvXbXbXbXmXMXMXBXBXBXBXBXBXVXVXVXVXVXVXVXBXBXBXVXVXVXVXVXVXVXBXBXBXBXBXVXVXVXVXVXVXVXVXVXVXDXDXCXVXCXCXDXDXDXDXFXFXFXFXFXFXFXFXFXFXFXFXFXFXFXFXFXFXFXFXGXGXFXDXGXGXFXDXDXFXDXDXNXeXN.-.X.V..X<XeX|.M.X. .[ W W ! ' =.C.C.=.=.$.o.$.L.XXXXL.#.! Q ! o.o.o./ / / E Y U Y E Y E Q Y U U F F F x x k k k g g k k k k d t y y 7 7 7 7 7 7 ; 7 y u d i i i i i w u c Y ^ ( } O.1.9.9.9.9.9.9.9.9.5.5.0.0.0.0.0.q.t.Z.q.q.q.q.w.=.*.*.=.*.+.{ ^ E F c i t i a d d d h x F U U U U U U I U U U F V j k V F F V F F F k x x F F F U Y E E E E E E ^ / / ! / { o.{ / / / ! / / / ! E Q Q U P F k d t y 7 t F ! +.w.H.E.L.G.G.L.'.XX].'.oXXX@X$X&X&X&X&X&X&X&X&X@XoX@X@XoX@X@X@XoXoX&X-XXXXXH.=.o.! Q I I U U U I U P j j j j j j f j j U U :.j j j j j j j j j P P j j j j j P U P j j j U I I P j j j j f t q q q q q q > & & & & & & > & & & z & & & & & & 3 3 3 3 3 3 3 3 3 3 3 3 3 3 6 3 3 3 3 6 q q q 3 3 3 3 3 4 4 4 4 3 4 4 4 3 3 3 3 3 3 3 3 3 3 3 3 3 3 3 3 3 3 2 2 2 2 2 2 2 2 2 2 2 2 2 2 2 2 3 3 3 3 3 3 3 3 & & & & & % % % & % $ $ $ & & & 3 y a h V U I ! ",
"m m U U U Y Y T Q ! o.o.-.=.M.M.M.J.J.J.^.|. X*X*X*X3X8X8XqXqXqXqXqXqX8X9X9X9XqXqX0XtXtXyXyXyXyXjXyXyXyXhXhXlXlXlXlXlXnXvXvXvXlXnXlXlXhXhXhXhXlXlXlXhXhXhXhXhXhXuXlXnXnXnXnXnXvXvXvXbXbXbXmXMXMXNXBXBXBXBXBXVXVXCXCXCXVXVXVXVXVXVXVXVXVXVXVXVXBXBXBXBXBXVXVXVXVXVXVXVXVXVXVXDXDXCXDXDXDXFXFXFXFXFXFXFXFXFXFXFXFXFXFXFXFXFXFXFXFXFXFXFXFXFXGXFXFXGXGXGXDXFXFXFXCXzX<X). XwXbXAXlXeXV.X.W W W W ~ ~ Q %.C.C.=.$.;.o.$.L.OX&XOX=.o.! / o.o.o./ / / Y U x Y ! / E I U F x k d d d a t y t t t a d d k k k k j V F V k d y 7 6 - 6 ; 8 8 i e i 7 i u g Y / } O.<.5.5.9.9.5.5.5.9.9.9.9.9.0.9.9.0.t.Z.q.q.q.8.w.w.=.*.*.o.! I F x c g d k F F Y E Q E Y I E Q U F F j V V F V F V j k k j j k j V j k k k k k x c F F U U Y Y E E ^ ! ! / / { { { o.o.#.#.+.+.+.+.#.#.+.{ / ! / ! U j d d f F ! =.H.H.G.K.L.].].].XXoX$X$X$X&X&X&X&X&X&X&X&X@X@X@X@X@X@X&X@XoX@X&X-XoXoXL.x.+./ Q I I U U U I U m j j j j j j j j j U U P j j j P j j j j j j j j j j j j m P P j j j P I I U j j j j t t q q q 9 q q > & & & & & & > & & & > & & & & & & 3 3 3 3 & & 3 3 3 3 3 3 3 3 6 3 3 3 3 3 6 q r r 3 3 3 3 3 4 4 4 4 4 3 3 3 3 3 3 3 3 3 3 3 3 3 3 3 3 3 3 3 3 2 2 2 2 2 2 2 2 2 2 2 2 2 2 2 2 2 2 3 3 2 2 2 3 & 3 % % & % % % & % % $ $ % & 3 3 y a k V U I ! ",
"m m U U U U Y T Q ! o.o.-.=.M.M.M.J.J.J.|.|.|.*X*X*X3X8X8XqXqXqXqXqXqX8X9X9X9XqXqX0XtXtXyXyXyXyXjXyXyXhXhXhXlXlXlXlXlXnXvXvXvXvXnXlXlXhXhXhXhXlXnXnXhXhXhXuXhXuXlXlXnXnXnXnXnXvXvXvXbXbXbXMXMXMXNXBXVXBXVXBXVXCXDXCXDXCXVXVXVXVXVXVXVXVXVXVXVXVXBXVXVXVXVXVXVXVXVXVXVXVXVXVXDXDXCXDXFXFXDXFXFXFXFXFXFXFXFXFXFXFXFXFXFXFXFXFXFXFXFXFXFXFXGXGXFXFXZXDXDXHXDXFXCXmX*X.X2XhXBXBXlXaX.XN.X.W ;.W ~ U U I o.d.C.d.$.! _ $.P.OX=X=XC.;.! / o.#.#.o./ ! Y U U Q / ! Y U k f t y 7 7 7 7 7 6 6 6 6 6 r r y d h B B C F F F Z B k d t 7 % 6 ; 7 w y w y e i H / } @.4.0.r.0.9.9.9.9.9.0.0.9.9.0.0.0.0.t.Z.q.q.w.=.w.x.x.*.! I F j x U E Q / / / ! ! Q I U U U F V k d d d a h k k k j j k k V V V F U U F F F F F F c x x F F F F F F U U E Q ! / / / { o.+.#.#.#.#.*.&.=.x.=.*.*.=.=.*.+.! F a t F { x.H.K.K.L.].].oXoX@X&X$X@X@X$X$X$X@X@X@X@X@X@X@X@X@X@X&X&X@X@X@X@XoXXXL.x.*.{ Q I I U U U U U m j j j j j P P j j P U P :.j P j j j P j j j j j j j j j j j j j j j j U I U j j j f t q & & & & & q > & & & & & & > & & & > & & & & & & 3 3 3 3 & & 3 3 3 3 3 3 3 3 6 3 3 3 3 3 6 q r r 3 3 3 2 3 3 4 4 4 4 3 3 3 3 3 2 2 2 3 3 3 3 3 3 3 3 3 3 3 3 2 2 2 2 2 2 2 2 2 2 2 2 2 2 2 2 2 2 3 3 2 2 2 3 3 & % % & % $ $ & % % $ % & & 3 3 y a k V U I ! ",
"m m U U Y U Y U Q ! o.o.-.=.M.M.M.J.J.J.^.|.|.*X*X*X3X8X8XqXqXqXqXqXqXqX9X9XqXqX0X0XtXtXyXjXjXyXjXyXyXhXhXhXlXlXlXlXnXvXvXvXvXvXnXnXlXlXlXlXlXlXnXnXnXlXlXhXhXhXlXlXnXnXnXnXvXvXvXbXbXbXMXMXMXNXNXNXVXVXVXVXDXDXDXCXDXDXVXVXVXVXVXVXVXVXVXVXVXVXVXVXVXVXVXVXVXVXVXVXVXVXVXVXDXDXVXDXFXFXDXDXFXFXFXFXFXFXFXFXFXFXFXFXFXFXFXFXFXFXFXFXFXFXGXGXFXHXNXdXqXdXjXwXqXqX X9XnXBXAXAXuXaXV.M.X.X.;.W K K P I _ d.d.w.$._ _ $.P.OX=X=XC.o.! / o.$.$.o./ Y Y U Y Q E U c k t y 6 6 3 3 6 3 6 3 3 3 3 4 r r 3 a B B h B B h C Z V F F F k d y 7 6 7 y y y t u c Y / @.5.r.r.5.5.5.4.6.5.9.0.4.8.0.0.0.9.0.q.q.q.8.&.=.x.*.! U U U I Q / o.+.o.o.{ ! U F F F F V d a t a d d d k j k V F F j F F F F U I I I Y Y Y E Y U H F F F F F c c F F Y Y E ! ! / / { o.+.#.+.#.#.&.=.x.w.=.w.x.x.x.x.=.o.Q F j F o.H.K.L.L.L.].oXoX-X-XXXXXXX@X$X-XoXoXoXoX@X@X@X@X@X#X&X&X@XoXoXoXoX'.E.D.=.{ Q Q ~ U U U U m m x j j j j U U P j P P P P P j j j j F j j P F j g k P j k j j k j j j P U U P j j f t q & & & & & q 9 & & & & & & 9 & & & > & & & & & & 3 3 3 & & & 3 3 3 3 3 3 3 3 3 3 3 3 3 3 q q r r 3 3 3 3 3 3 3 3 4 4 4 3 4 4 2 2 3 2 3 3 3 3 3 3 3 3 3 3 3 3 2 2 2 2 2 2 2 2 2 2 2 2 2 2 2 2 2 2 3 3 2 2 2 3 3 3 % % & % % % & % % $ % & & 3 3 y a k P U I ! ",
"m m U U Y U U U Q ! o.o.-.=.M.M.M.J.J.J.^.|.|.*X*X*X3X8X8XqXqXqXqXqXqXqX9X9XqXqX0XwXtXtXyXjXjXjXjXyXyXhXhXlXlXlXlXlXnXvXvXvXvXvXnXnXnXlXlXlXnXnXnXnXnXnXnXlXhXhXlXnXnXnXnXnXvXbXvXbXbXbXMXMXMXNXNXNXVXVXVXVXDXDXVXVXDXVXVXVXVXVXVXVXVXVXVXVXVXBXVXVXVXVXVXVXBXBXVXVXVXVXVXVXDXDXVXCXDXDXCXCXFXFXFXFXFXFXFXFXFXFXFXFXFXFXFXFXFXFXFXFXFXGXGXGXFXHXdX).M.J.J.N.M.N.).wXCXbXiXyXaX<XV.s.X.X.;.W ~ W I T o.d.d.$.$._ _ $.L.OX=XUXJ.=./ o.#.=.w.$./ E E Y E Q Y g u g a a y y r 6 6 3 3 3 3 3 3 4 r r 4 s C C B Z Z Z Z B h B F F F V F d 7 7 y y y t a d c Y / <.5.<.4.1.<.<.1.4.4.4.@.4.0.0.6.4.4.w.w.8.&.$.=.*.' V I ! { %.-.*.o.o.! Q I U F F U I U V h a a a t y t d k j F U I F U U F V F U U U F U Y E E E Y Y E Y U F F F F F x c U E E ! / / / { o.#.+.#.&.=.&.=.w.x.x.x.C.F.H.F.x.o.U d ! C.H.H.H.H.L.].XXXXXXXXXXXXoX@X@XoXoXoXoX@X@X#X@X@X#X%X&XoXoXoXoXoX].E.H.w.o.Q E Y U U U U m m x x j j j U I U j j j P P P j j j j j j P U P k f f U F j j j j j j j :.U U P P j f t q q q q q q q 9 & & & & & & z & & & > & & & & & & 3 3 & & & & 3 3 3 3 3 3 3 3 3 3 3 3 3 3 q q r r 3 3 3 3 3 3 3 3 3 4 4 4 4 4 2 2 3 2 2 3 3 3 3 3 3 3 3 3 3 3 2 2 2 2 2 2 2 2 2 2 2 2 2 2 2 2 3 3 3 3 2 2 2 2 3 3 % % & % % % & % $ $ % & & 3 6 y d k P U I ! ",
"m M M U U U Y T E ! { o.-.=.M.M.C.J.J.J.).|. X-X*X*X3X8X8XqXqXqXqXqXqX9XeXeX9XqXqX0XwXtXtXjXjXjXjXhXhXhXhXhXhXlXlXlXvXvXvXvXvXvXnXlXlXlXlXlXlXlXnXlXlXhXhXhXhXhXlXnXnXnXnXnXvXvXbXbXmXmXbXbXmXMXVXVXVXVXVXVXDXDXDXDXDXDXDXDXDXDXDXVXVXVXVXVXVXVXVXVXVXVXVXVXVXVXVXVXVXVXVXVXCXDXDXDXFXFXDXDXFXFXFXFXFXFXFXFXFXFXFXFXFXFXFXFXFXFXZXZXZXGXGXFXGXNX).[ l 0 l l l L <XlXBXbXuXaXV.V.s.X.X.X.X.;.;.Q T ! _ $.d.$.$.$./ $.P.OXsXUX|.M.o.#.#.$.&.$./ Y Y E U g u u i d d y 6 y y r 3 3 3 = a 3 1 y 2 4 r h G R G G C C C Z Z Z Z V V V F F F d 6 y d 7 y a c H | @.<.} } @.} } @.1.4.@.@.4.4.4.@.@.4.8.8.$.&.=.*./ I R o.j.C.=.o.o.! ! ! Q U I U F V V h h k f a y y r a h j F F F V h j h h k k h j F F U Y E ! ! E E E E E E E E E Y U c x x F Y E E ! ! / { +.#.&.&.w.=.=.x.C.C.C.D.H.F._.C.' R I { j.j.j.x.C.C.H.L.L.L.L.L.XXXXXXXXoX@XoXoX@X&X%X&X%X%X@X'.oX@X@XoX'.G.C.=.o.I U Q U U U U P x k k j j j P I I U j j P P j j f j j j k j F P j f g j F j f k P P f j j P P j f f u t e q z > z q q z & & & & & & > & & & & & & & & & & & 3 & & & & & & 3 3 3 3 3 3 3 3 3 3 3 3 q q 7 r 7 3 3 2 3 4 3 3 4 4 4 4 4 3 3 3 3 3 3 3 3 3 3 3 3 3 3 3 3 3 2 2 2 2 2 2 2 2 2 2 2 2 2 2 2 2 2 2 2 2 2 2 2 2 3 3 % % % $ $ $ 3 3 3 3 2 % 3 & 3 y d k V U I Q ",
"m M U U U U Y T E ! { o.-.=.M.M.M.J.J.J.).|. X-X*X*X3X8X8X8XqXqXqXqXqXqXeXeX9XqX0X0XwXtXtXjXjXjXjXhXhXhXhXhXlXlXlXlXvXvXvXvXvXvXnXlXlXlXlXlXlXlXnXlXlXhXhXhXhXhXlXnXnXnXvXvXvXbXbXbXbXmXbXmXMXNXVXVXVXVXVXVXDXDXDXDXDXDXDXDXDXDXDXVXVXVXVXVXVXVXVXVXVXVXVXVXVXVXVXVXVXVXVXVXCXDXDXDXFXFXDXDXFXFXFXFXFXFXFXFXFXFXFXFXFXFXFXFXFXFXFXFXHXGXGXFXGXcX-.K 0 0 0 9 0 K 2XuXnXpXeXV.V.s.W W W K W W ;.o.o.o.o.$.$.#._ _ o.=.P.OX=X=X|.C.*.&.&.&.w.=.o.! Y Y x g g g g P x f y r r 7 6 3 $ $ 7 1 2 y 4 r a V R R R R G G A C C C F F F F R U R I j d d a a i i F ^ } } ^ ^ ^ / / ( } } } } } +.+.} } } +.( o.$.=.{ U I o.=.j.j.*.o.o.o.! ' Q Q I U F V B V k h a y y y r k V F F V k d t d a y a a t t d d k x F U Y E E ! E E E E E E ! / E F x g g x x Q Q ! / { } #.&.=.&.&.w.w.=.=.w.F.H.].L.=.! k j k k j k k U { =.C.=.*.o.&.w.C.H.L.].oXoX@X@X@X&XoXoXoXoX@X&X&XoXoXH.x.=.+.! Q Q U U I I U m m P j j j P I I U j P P U P j j j j j j k P P k f f f j k f f x x g j P P m j f t t t q q z > q q z > & & & & & & > & & & & & & & & & & & 3 & & & & & & 3 3 3 3 3 3 3 3 3 3 3 3 q q 7 r 7 3 3 2 3 4 3 3 4 4 4 4 3 3 3 3 3 3 3 3 3 3 3 3 3 3 3 3 3 3 2 2 2 2 2 2 2 2 2 2 2 2 2 2 2 2 2 2 2 2 2 2 2 2 3 3 % % % $ $ $ 3 3 3 3 3 2 & & 3 y f j V U I ! ",
"m m U U U U Y T Q Q { o.-.=.M.M.M.J.J.J.^.|.|.-X*X*X3X8X8X8X8X8XqXqX9X9X9X9X9XqX0X0XtXtXtXjXjXjXjXhXhXhXhXhXlXlXlXvXvXvXvXvXvXvXlXlXlXlXlXlXlXlXnXlXlXhXhXhXhXlXnXnXvXvXvXvXbXbXvXbXbXmXmXmXNXBXNXVXVXVXVXVXVXDXVXVXVXVXVXVXVXVXDXDXVXVXVXVXVXVXVXVXVXVXVXVXVXVXVXVXVXVXVXVXVXDXDXFXFXFXFXDXFXFXFXFXFXFXFXFXFXFXFXFXFXFXFXFXFXFXFXGXFXFXFXGXGXxX-.K 0 0 0 $ 0 K eXiXaX<XV.M.X.W K K K K K I Q ;.! T T T T T T T T _ $.C.L.OXL.C.=.=.&.=.w.=.#./ U x g u g g x ~ U F d t y y r r d F y 2 4 7 r 7 a V R W E R R G G C F F F F F F U F I { Q h y d t y 8 i c H H H v v v H H c H Y c H Y Y Y Y Y Y E E o.+.Q F ! x.C.j.=.%.%.%.o.! { ! ! ! Q U F V F k d y r r y y k V F k d a y r y 6 3 6 r 7 6 6 y y t a d k F U E I Y Y Y E ! / } / E Y U x x c c F Y E ! / o.#.&.&.=.w.w.w.=.w.C.H._.L.H.+.s % $ 2 3 % # 6 U o.%.' U j j U Q Q { +.=.x.x.C.G.E.].'.oXoX@X&X&X@X].H.=.*.o.{ Q I U P U I U j j :.j j j j U I U j j P P m j j j j j j x P U x g g f k j g g x F j P P :.j f t t t t q q z z q > & > & & & & & & > & & & > & & & & & & 3 3 & & & & & & & 3 3 3 3 3 3 & & & 3 3 q q r r 6 3 3 2 3 4 3 3 4 4 3 3 3 3 3 3 3 3 3 3 3 3 3 3 3 3 3 3 3 3 2 2 2 2 2 2 2 2 2 2 2 2 2 2 2 2 2 2 2 2 2 2 2 2 3 3 3 % 3 2 $ % 3 3 3 3 2 % % % 3 y f j V U I ! ",
"m m U U U U Y T Q Q { o.-.=.M.M.N.J.J.J.|.|. X X*X*X3X8X8X8X8X8XqXqX9X9X9X9X9XqX0X0XtXtXtXjXjXjXjXhXhXhXhXlXlXvXvXvXvXvXvXvXvXvXlXlXnXnXlXlXlXlXnXlXlXhXhXhXhXnXnXnXvXvXvXvXbXbXvXbXbXmXmXMXNXVXNXVXVXVXVXVXVXVXVXVXVXVXVXVXVXVXDXDXVXVXVXVXVXVXVXVXVXVXVXVXVXVXVXVXVXVXVXVXCXDXDXFXFXFXDXDXFXFXFXFXFXFXFXFXFXFXFXFXFXFXFXFXFXFXCXFXCXHXGXLXLXdX-.l 9 0 0 9 0 K <XaX<XV.X.W K K K K W W ~ I I I m k g g g g m m g x P Q o.=.=.j.=.8.=.=.w.=.o.! Y x g g x g x E Q P F F j d t a I { a $ 7 3 s r a V R ' ' ` R R G G G V F F x j F k U ! ! F 7 y 6 w 8 8 8 i H H v 8 8 8 i 8 ; 8 8 8 8 i i v v c x c U E U I %.C.x.j.*.%.%.*.+./ ' ! ! ' ! R F F j k d y r r y a t d d a y y y r 6 3 2 % 3 6 6 7 7 7 7 7 7 7 a k F F H H Y E E / ^ / / { / ^ E Y d g x U E ! / o.#.#.&.=.w.w.x.x.C.H.H.H._.=.a $ + $ % $ = % h I ! U f y y t t y f h j F I Q { +.=.x.C.F.H.H.L.L.K.C.*.o.o.' Q I I U U U P j k j j j j j j U P j j j j j j f f j x x x U U P k g f x x k k x P P x j j f f t t t q q q z q q & & > & & & & & & > & & & q & & & & & & 3 3 3 & & & & & & & 3 3 3 & 3 & & & 3 3 q q r r 7 3 3 2 3 4 3 3 4 4 3 3 3 3 3 3 3 3 3 3 3 3 3 3 3 3 3 3 3 3 2 2 2 2 2 2 2 2 2 2 2 2 2 2 2 2 2 2 2 2 2 2 2 2 3 3 3 3 3 2 2 2 % % % % $ $ $ $ 3 y f j V U I Q ",
"m m U U U U Y T Q Q { o.-.=.M.M.N.J.J.J.^.|.|.-X*X*X3X8X8XqXqXqXqXqXqXqX9X9X9XqXqX0XwXtXtXyXjXjXyXhXhXlXlXlXlXvXvXvXvXbXbXvXvXvXlXlXlXvXnXlXlXlXlXlXlXhXhXhXlXnXlXnXvXvXvXvXvXbXvXbXbXMXMXNXNXVXNXBXVXVXVXVXVXCXVXVXVXVXVXVXVXVXVXDXVXVXVXVXVXVXVXVXVXVXVXVXVXVXVXVXVXVXVXVXVXDXDXFXFXFXFXFXFXFXFXFXFXFXFXFXFXFXFXFXFXFXFXFXFXFXZXFXHXFXGXLXGXdX .l 0 l l 0 0 K .X.XV.X.K K K K K K ~ Q ;.T T U U j j k g p p p p p f f f P ! %.=.w.w.w.w.&.o.! ~ U x P U x x Q / I I ! Q d y d k E 7 $ 7 2 s s d F E ' ' ' ' ` R R G F F j k d F x U Q / Q y w - 7 w ; 8 d Y / c 8 : 8 8 8 ; 8 ; ; : : : ; 8 ; ; ; w u k Q *.j.=.=.=.*.*.*.+.{ { { { { ! Y F V d d d a a a a a y t a y y y y r 6 7 6 % $ $ 3 6 6 6 7 7 6 2 7 a h V F U U Y E E E ^ { o.o./ ! E U x g g F Y E / / o.#.$.*.=.w.w.x.F.F.F._.j.h 3 + $ $ $ $ 3 a F P k y q y y y y a y r y d d k j j U Y Q ! { o.*.*.%.{ ' ! W Q ~ I I I I U K V K P j j k j P P j j j j j j j j j k x F P P P k g g k x j k x P U j j j f t t t t q q q & q q & & > & & & & & & 9 & & & q & & & & & & & & 3 3 3 3 & 3 3 3 3 3 3 & 3 3 3 & 3 3 q r r r 3 3 3 2 3 3 3 3 3 3 3 4 4 4 3 3 3 3 3 3 3 3 3 3 3 3 3 3 3 3 2 2 2 2 2 2 2 2 2 2 2 2 2 2 2 2 2 2 2 2 2 2 2 2 3 3 2 2 2 2 2 2 2 2 2 2 2 2 2 % 3 y a h V P I Q ",
"m m U U U U Y T Q Q { o.-.=.M.M.M.J.J.J.^.|.|.-X*X*X3X8XqXqXqXqXqXqXqXqX9X9X9XqXqX0XwXtXtXjXjXjXyXhXhXlXlXlXvXvXvXbXbXbXbXvXvXvXlXlXvXvXvXnXlXlXlXlXlXlXhXnXnXnXlXlXnXvXnXnXvXbXbXbXmXMXMXNXMXVXNXBXVXVXVXVXVXVXVXVXVXVXVXVXVXVXVXDXVXVXVXVXVXVXVXVXVXVXVXVXVXVXVXVXVXVXVXVXVXDXDXFXFXFXFXFXFXFXFXFXFXFXFXFXFXFXFXFXFXFXFXFXFXFXCXFXFXGXGXGXHXdX .K l 0 0 0 l X.V.V.X.K K l :.K K K P I Q Q T I I U P F x g p p p p t e q a I o.w.q.q.w.w.=.o./ U U x P Y U P Y { Q Q { E d 7 y 7 d 7 3 r 7 y a k I ! ' ' ' ' ' E R G F F x g d k j F F ! ! q - w w - ; w c H Y H v i i v v v v v i i 8 ; : : @ O * 7 7 a ! j.j.*.=.=.=.=.+.o.{ { { { { { Y F h d d d d d a y y t a t y y t y 7 y y 7 % @ $ $ % 2 $ 2 7 7 6 7 a y d k F F F F F E E ! / / / { o.} E c d d g F Y / { #.#.#.&.=.=.x.x.C.H.L.x.V 3 $ = + = $ 6 a V V h y 6 q y y y a y r f k h a t t a d d d j F F F P P K V V K U P K K P K K K P P P j j j U U j j j j :.j j j j g k x x x P x g g g k k k j F P j j j f t t t t q q & & q q & & > & & & & & & 9 & & & q & & & & & & & & & & 3 3 & 3 & 3 3 3 3 & 3 3 3 & 3 3 q r 9 r 3 3 3 3 3 3 3 3 3 3 3 4 4 4 3 3 3 3 3 3 3 3 3 3 3 3 3 3 3 3 2 2 2 2 2 2 2 2 2 2 2 2 2 2 2 2 2 2 2 2 2 2 2 2 3 3 2 2 2 2 2 2 1 1 1 1 1 1 1 $ & q a k V P I Q ",
"m M U U U U Y T Q Q o.o.-.=.M.M.C.J.J.J.^.|.|.-X*X*X3X8XqXqXwXqXqXqXqXqXeXeX9XqXqX0XwXtXtXyXjXjXyXhXhXlXlXlXvXvXbXbXbXbXbXvXvXvXlXlXvXvXvXlXlXlXlXlXlXlXhXnXnXnXlXnXvXvXvXvXvXbXbXmXMXMXMXMXNXBXNXBXVXVXVXVXVXVXVXVXVXVXVXVXVXVXVXDXVXVXVXVXVXVXVXVXVXVXVXVXVXVXVXVXVXVXVXVXVXDXDXDXFXFXFXDXFXFXFXFXFXFXFXFXFXFXFXFXFXFXFXFXFXFXFXFXFXGXGXHXHXIXJ. .K l 0 0 K X.N.M.X.K K l l K K P U U I U U I U P V P F j k k f u t t f V ! %.w.q.w.w.=.=.$.o.T T I U E Y U U ! E Q I F d y y y 7 a a 7 7 7 h P Q ' ' ' ' ' ' G G F F x k d p u u k f Q Q * & w w i u c x H H Y Y Y Y E ^ ^ ^ ^ Y Y H c v i 8 7 ; ; w d { C.C.j.j.j.=.=.#.o.{ { { { { { E F F B B k h d t 7 6 y y r r t a y 6 q q 6 % 3 7 3 = 2 $ $ 4 r 7 r d d h B B h d k j F U U Y E / o.#.+./ E c u e p c Y / o.o.#.*.=.&.=.=.C.C.L.C.R 3 + X . . + $ r f j h y q 3 3 q y r 9 r h V k d f k k h f d h h d s s h l l l B V B h B V V h V K K j k f j P P j j j j j j j f f f k k k k F F k k g g k x x x P x j j f t e q q q q & q q q & & > & & & & & & z & & & & & & & & & & & & & & & & & & 3 3 3 3 3 & 3 3 3 3 3 3 q r 3 7 3 3 3 3 3 4 4 4 3 3 4 4 4 4 3 3 3 3 3 3 3 3 3 3 3 3 3 3 3 3 2 2 2 2 2 2 2 2 2 2 2 2 2 2 2 2 2 2 2 2 2 2 2 2 3 3 2 2 2 2 2 2 1 1 1 1 1 1 1 $ & q a f j V I Q ",
"m M U U U U Y T Q ! o.o.-.=.M.M.J.J.J.J.J.|.|.-X*X*X3X8XqXqXwXwXqXqXqXqXeXeX9XqXqX0XwXtXtXyXjXjXyXyXhXlXlXlXvXvXbXbXbXbXbXvXvXvXlXlXvXvXvXnXlXlXlXlXlXhXlXnXnXnXnXnXvXvXvXvXbXbXbXMXMXMXMXMXNXNXNXBXVXVXVXVXVXVXVXVXVXVXVXVXVXVXVXVXVXVXVXVXVXVXVXVXVXVXVXVXVXVXVXVXVXVXVXVXVXDXDXDXFXFXFXDXFXFXFXFXFXFXFXFXFXFXFXFXFXFXFXFXFXFXFXFXCXGXGXHXLXHXqX|.M.-.X.X.K W N.M.X.K K h l h h j U I I P U I I U P P P x j j m j k P I ! o.=.w.w.8.$.$.&.&.$.o.o.! Q T Q Y Y U E U g u d d t a $ a r 2 7 7 F U Q ' ! E E E E F V h h h d u i e t k g E I O - * e c H Y T ^ / ^ } @.@.@.@.@.<.<.@.@.@.+./ Y H c ; @ 6 k { x.x.C.x.j.=.=.#.o.{ { { { { { ! Y U F F V h a y 6 3 6 3 % 6 y a y % 6 & % 3 t d y # 3 $ $ 3 7 4 7 s G R R F B k V F d g x c F U E ! / / / E c i i c c Y ^ / / +.#.#.w.*.=.x.H.F.' r $ $ $ $ $ % r d y y y y q q r y y y y h k d f V k k k j F P F k f B h h h B V V V V V V B h h V k k f f k j j f f f f f f f f t f g g f g x F k F k k x F P F P P P x g t q - & q & & q q q 3 & > & & & & & & > & & & & & & & * & & & & & & & & & & 3 3 3 & 3 3 3 3 3 3 3 3 q q 6 7 3 3 3 3 3 4 4 4 3 3 3 4 4 4 3 3 3 3 3 3 3 3 3 3 3 3 3 3 3 3 2 2 2 2 2 2 2 2 2 2 2 2 2 2 2 2 2 2 2 2 2 2 2 2 3 3 2 2 2 2 2 2 2 2 2 2 2 2 2 % % 3 a f h V U Q ",
"m m U U U U Y Y Q ! { o.-.=.C.C.C.J.J.J.|.|.|.*X*X*XeXeX8XqXqXqXqXqX9X9X9X9X9XqX0X0XwXwXyXjXhXhXyXhXhXhXlXlXlXzXvXvXvXvXvXvXzXlXvXvXvXvXnXlXhXhXhXlXnXnXnXnXlXhXnXnXbXbXvXvXbXbXvXbXbXmXMXMXMXBXBXVXVXVXVXVXVXVXVXVXVXDXCXCXCXVXVXVXVXVXVXVXVXVXVXVXVXVXVXVXVXVXVXCXCXCXVXCXCXFXDXDXFXFXDXFXFXFXFXFXFXFXFXFXFXFXFXFXFXFXFXFXFXFXFXFXFXFXFXFXFXGXHXZXcXcXdXqX|.X.M.M.M.-.W R W ~ ! I I I I I T Q Q Q ! ! ! ! ! Q Q ! o.%.H.C.C.=.w.w.w.=.=.*.$.$.-.J.-.Q ;.Q E E Y Y Y F g t y y 6 y a y r s k F Q E Q E R F F V h k d d d d d d d e w c Y E % % 7 d F Y E ^ ) ( ( <.5.5.5.e.e.5.e.e.e.r.c.r.@.^ F c e ; d +.C.x.x.x.x.w.&.o./ / { o.o.{ { ! I F R P h a y y 7 % 7 6 6 7 y t y 7 6 3 3 s U E B $ 2 $ $ 2 3 4 s C R W W R Z d k U j k k g k x F U Y ^ ( / Y v i i p c Y ^ / { +.#.#.&.x.=.K.D.{ h 1 1 @ @ % % & w u u e q 6 6 6 q w w t d f d u e d x x k k F j d h h h h C R R R K K R I K V h f t l f k k f f f a a f f f f k k g g g g x x c c x c F U Y Q T T Y m x k e w w q q q q 3 & $ 3 y 3 & & & & & & & & & & q & & & & & 3 3 & & & & & & & 3 3 3 & 3 3 3 3 3 3 3 6 r r 7 7 7 4 3 2 3 4 3 4 3 4 4 4 3 3 3 3 3 3 3 3 3 3 3 3 3 3 3 3 3 3 2 2 2 2 3 3 3 2 2 2 2 2 2 2 2 2 2 2 2 2 2 2 2 2 3 3 3 3 3 3 2 3 2 2 1 $ 1 2 2 2 & q a k j j U Q ",
"m m U m U U Y Y Q ! { o.-.=.M.C.C.J.J.J.|.|.|.*X*X*XeX8X8XqXqXqXqXqXqXqXqXqXqXqX0X0XwXwXyXjXhXhXyXhXhXhXlXlXlXxXvXvXbXbXvXvXvXlXvXvXvXvXnXnXlXlXnXnXnXnXnXnXnXnXnXnXvXvXvXvXbXbXbXbXmXmXMXMXMXBXVXVXVXVXVXVXVXVXVXVXVXDXDXVXVXVXCXCXVXVXVXVXVXVXVXVXVXVXVXVXVXVXVXCXVXCXCXCXCXFXCXDXFXFXFXFXFXFXFXFXFXFXFXFXFXFXFXFXFXFXFXFXFXFXFXFXFXFXFXFXFXFXGXGXGXHXHXPXeXM.M.M.N.J.j. .' '  .! Q Q Q Q Q ! ! ! ! { o.o.o.! ! ! -.C.-XL.H.w.=.&.$.$.&.=.=.s.OXfX*X=.o.! / ^ Y Y U F k d a t y y a a y a k F V F F F F F j j k k g g f f g g g g u F Y E % @ 8 c F H H Y ) ( O.<.5.5.5.e.y.e.7.e.r.b.v.A.t.4.( Y d 8 c +.H.H.x.x.x.=.&.o./ / / / { { / ! I P R V h l a q 6 6 7 7 6 7 y e 7 6 t t r r d V d 3 7 3 2 r s r S R [ ' ] ' R B B F F F x d d k c c c H Y E Y H v i d c F Y E ^ / { +.+.=.*.D.x.| h 7 7 7 7 a e y u u u u i e e e u 6 w w e t i t t e d d a d j j d d d h V P R R R W W W W I K j h l l l f f f f f f f f f g g f d d d d g x c F F Y ! / o.&.8.8.8.#./ Q U u w w > q 6 q q y r r y 3 & & & & & & & & & & q & & & & 3 3 3 3 3 3 3 & & & 3 3 3 3 & & 3 3 3 3 3 6 r r 7 7 4 4 3 2 4 4 3 4 3 4 4 3 3 3 3 3 3 3 3 3 3 3 3 3 3 3 3 3 3 3 2 2 2 3 3 3 3 2 2 2 2 2 2 2 2 2 2 2 2 2 2 2 2 2 3 3 2 3 3 3 2 2 2 2 2 2 $ 2 2 % % 3 y k j j U Q ",
"m m U m U U U Y Q ! { o.-.=.M.C.C.J.J.J.|.|.|.*X*X2X8X8X8XqXqXqXqXqXqXqXqXqXqXqX0XwXwXwXyXjXhXhXjXhXhXhXlXlXlXxXxXvXvXbXbXvXvXzXvXvXvXnXnXnXnXnXvXnXnXlXnXnXnXbXnXnXnXnXvXvXvXbXbXbXmXMXMXMXMXBXVXVXVXVXVXVXVXVXVXVXVXDXVXVXVXVXDXCXVXVXVXVXVXVXVXVXVXVXVXVXVXVXVXCXVXCXCXCXDXFXDXDXFXFXFXFXFXFXFXFXFXFXFXFXFXFXFXFXFXFXFXFXFXFXFXFXFXFXFXFXFXFXFXFXDXHXFXHX8Xj.M.h.N._.F.-. .o.%.o.' ! ! ! ! ! ! ! ! o.o.o.o.! ! Q o.P.=XXXH.=.w.&.$.#.$.=.=.=.OXSXfXJ.o.! / ^ E Y Y F F F j k d f k h h k j F k k j F F F F F x j k k k k k k x x g U Y E 6 @ u F H c c Y / } <.5.5.5.7.r.y.y.r.b.v.v.A.U.I.Z.0.( x u F +.H.K.x.=.=.=.&.#.{ { / / / / ! ! Q R K K V l a r q y 7 7 7 7 y y 7 6 y y y 6 3 7 7 3 2 1 2 r r s Z R ] %.%.o.' R F F E I F k d x c g v v c H Y Y c v v v c c F Y ^ / / { *.+.x.=.| h d F G Y E I Y Q Q E Y Y x c x x x c g p u i e e w e i 7 w u u e t u d k F R R R R W W R K j h f h f a a l k k f u t t f g p i w i i u g c U Y Y ( #.q.D.T.Q.Q.U.S.d.&./ x u w - 6 q 6 9 q y r 3 3 & & & z z & & & & & > & & & & 6 3 3 3 3 3 3 3 & 3 3 3 & & & & 6 3 3 3 3 6 q r 4 7 4 3 4 2 4 4 3 4 4 4 7 4 3 3 3 3 3 3 3 3 3 3 3 3 3 3 3 3 3 3 2 2 3 3 3 3 2 2 2 2 2 2 2 2 2 2 2 2 2 2 2 2 2 2 2 2 2 2 3 3 2 2 3 2 2 2 2 $ 2 $ % 3 y f j V U Q ",
"m m U U U U Y Y Q ! { o.-.=.M.C.C.J.J.J.|.|.|.*X*X2XeX8X8XqXqXqXqXqXqXqXqXqXqXqX0X0XwXwXyXjXhXhXjXhXhXhXlXlXlXxXxXvXvXvXbXvXvXvXvXvXnXnXnXnXnXnXvXnXnXlXlXnXnXvXnXnXvXvXvXvXbXbXbXbXmXMXMXMXBXBXBXVXVXVXDXDXVXVXVXVXDXDXDXDXDXVXDXCXCXVXVXVXVXVXVXVXVXVXVXVXVXVXVXCXVXVXCXCXDXFXDXDXFXFXFXFXFXFXFXFXFXFXFXFXFXFXFXFXFXFXFXFXFXFXFXFXFXFXFXFXFXFXGXGXGXFXGXGX8XM.M.h.N.).F.%.o.o.%.o.o.o.;.! ! ! ! ! ! / o.$.{ Q ! I o.C.&XL.C.w.w.8.&.#.$.$.$.$.C.gXcXOX=.o.{ ( / ^ E E Y Y U P F F F F F F F F F F F F F F F F F F x j k k j k g x g F Y E 7 7 u F H v H ^ ( <.3.5.9.e.r.r.y.y.y.v.m.v.Z.A.U.S.c.@.E c F +.H.H.x.=.=.=.&.#.o.o./ / ! Q E Q Q Q R W W K l t t t y 7 7 y t y y 7 % 7 y 7 3 3 3 2 2 3 4 7 r s G ' ] %.%.%.{ ' ! E Q ! E F x F c c x c v c Y Y c c c c c c F Y E / / / +.{ w.&.*.F B E | { +.+.o.$.#.#.#.O./ T E / / ^ Y Y U x c x x x g u i u u e w w t d k V V V B C K K V h j j V h l f k j j f t e e e u p u i w i p c Y ^ { +.q.Z.Q.W.+X$X+X[.XXQ.K.w./ x u - w w w & & q 9 3 3 & & & & z & & & & & z & & & & 3 3 3 3 3 3 3 3 3 3 3 3 & & & & 6 3 3 3 3 6 q r 4 7 4 3 4 2 4 4 3 4 4 4 4 4 4 3 3 3 3 3 3 3 3 3 3 3 3 3 3 3 3 3 2 2 3 3 3 3 2 2 2 2 2 2 2 2 2 2 2 2 2 2 2 2 2 2 2 2 2 2 3 3 2 2 6 3 2 2 2 $ $ $ % 3 y h j V I Q ",
"m m U U U U U T Q ! { o.-.=.j.C.C.J.J.J.|.|.|.*X*X*XeXeX8X8XqXqXqXqXqXqX9XqXqXqXqX0XwXwXtXjXjXhXjXhXlXlXlXlXlXxXxXvXbXbXbXbXvXvXbXvXnXlXlXnXvXvXvXnXlXhXhXnXnXvXvXvXbXbXbXbXbXMXbXbXMXMXMXMXBXBXVXVXVXVXVXVXVXVXVXVXDXDXDXDXDXDXDXCXCXVXVXVXVXVXVXVXVXVXVXVXVXVXVXCXCXCXDXDXDXDXDXDXFXFXFXFXFXFXFXFXFXFXFXFXFXFXFXFXFXFXFXFXFXFXFXFXFXFXFXFXFXFXGXGXGXGXGXGXdXJ.h.M.J._.F.-.%.%.o.o.{ / ! ! ! ! ! T ! / o.o.! T ! ~ o.w.XXD.C.d.8.w.&.#.#.$.o.;.$.OXsXOXw.#.} } } / ^ ^ E E E Y Y U U U U U F F F F F F F x x j x x x x x x x c g x g F F Y 6 7 i c H v Y ( O.1.<.1.9.r.r.e.e.e.y.v.I.I.I.I.U.S.A.c.{ c d { H.H.x.=.=.=.*.#.+.o./ / ! Q Q Q R R W M.J.-.K l l t t e e e t t t t 6 y t t y y 7 6 s r s y s Z R ] %.%.%.%.o.%.| { E / { E F c c c x x c c c v c c c c x F Y Y Y E / / { { *.*.j.F B E | { { { o.#.( O.O.O.( ( ( O./ / ( ( / / ^ E ^ E Y Y F c x c u u u a d d s a h B C V V j V P V j j V U U P k k f i i u p p p i p c Y / #.q.Z.Q.!.$X#X>X;X;X;X$X$X$XQ.q.O.Y u w e e w q q 9 9 3 & & & & & & & & & & z & & & & 3 & 3 3 & & & & 3 3 3 3 3 3 3 3 6 3 3 3 3 3 6 r 9 r 7 3 2 2 3 4 3 4 4 7 4 4 4 3 3 3 3 3 3 3 3 3 3 3 3 3 3 3 3 3 3 3 3 3 3 2 2 2 2 2 2 2 2 2 2 2 2 2 2 2 2 2 2 2 2 2 3 3 3 2 3 3 6 6 2 2 2 2 2 % & 3 y h V F I Q ",
"m m U U U U U T Q ! { o.-.=.j.M.C.J.J.J.|.|.|.*X*X*XeXeX8X8XqXqXqXqXqXqX9X9XqXqXqX0XwXwXtXuXhXhXjXhXlXlXlXlXlXxXxXxXbXbXbXbXbXbXbXbXvXlXlXlXvXvXnXnXnXlXlXnXnXnXvXbXbXbXbXbXbXMXbXbXMXMXMXBXBXVXVXVXVXVXDXDXDXVXVXVXDXDXDXDXDXDXDXCXVXVXVXVXVXVXVXVXVXVXVXVXVXVXCXCXCXCXDXFXFXDXDXDXFXFXFXFXFXFXFXFXFXFXFXFXFXFXFXFXFXFXFXFXFXFXFXFXFXFXFXFXFXFXZXHXDXHXHXFXdX-XM.j.F.L.F.j.=.%.o.{ ! ! ! Q Q ! ! ! ! _ $.o.;.Q Q ~ o.=.E.d.w.w.$.&.$.#.$.&.#.! o.-.P.C.o.o.{ +.} } / ^ ^ E E E E Y Y Y Y Y H F F F F F F F F F x x x x x c x F x c g c x c @ 7 8 i v v ^ ( O.3.3.1.2.e.e.e.e.e.e.y.I.Y.Y.~.R.T.Q.T.4.H d E D.K.x.=.&.*.&.#.O.o.o./ ! Q Q I I R W |.dX*X .:.l l d u u u a d g k d a y y y y 7 6 7 7 r s B R { *.*.*.*.| | %.%.{ ! / / ! U c c x F F c c c c c c c c x F F Y Y Y E E / / { | x.k F E { E ^ ^ / ( ( ( ( ( ( ( ( ( ( ( ( _ ( ( / / / / ^ T T T Y Y x c k d u a s r h h B B h k h j V V F U I I U P x c u w w e p v c Y ^ } 1.t.U.W.!.+X>X>X>X;X:X:X>X;X:X>X!.Z.#.T - - > w q 3 3 3 3 & & & & & & & & & & z & & & & & & 3 & & & & & 3 3 3 3 3 3 3 3 6 3 3 3 3 3 7 r 4 r 4 4 2 2 3 4 3 4 4 4 4 4 4 3 3 3 3 3 3 3 3 3 3 3 3 3 3 3 3 3 3 3 3 3 3 3 2 2 2 2 2 2 2 2 2 2 2 2 2 2 2 2 2 2 3 3 3 3 2 2 3 3 6 6 2 2 2 2 2 2 3 3 y f V F U Q ",
"m m P m m U U U Q ! { o.-.-.j.M.C.J.J.J.|.|.|.*X*X3X8X8XqXqXwXqXqXqXqXqXqXqXqXqXqX0XwXtXtXuXjXhXjXhXlXlXlXlXlXxXxXxXbXbXbXbXbXbXbXbXvXlXlXlXnXvXnXnXnXnXnXnXnXnXvXvXbXbXbXbXbXMXbXMXMXMXMXMXBXVXVXVXVXVXVXVXCXDXCXVXVXDXVXVXCXCXCXCXVXVXVXVXVXVXVXVXVXVXVXVXVXVXDXCXCXCXDXFXFXDXDXFXFXFXFXFXFXFXFXFXFXFXFXFXFXFXFXFXFXFXFXFXFXGXFXFXFXFXFXFXGXGXFXFXGXGXGXGXZXdX|.M.M.J.J.C.*.%.o.' Q I I I I ~ T T ! o.$.o._ ! T ~ o.$.P.w.8.$.$.$.#.+.$.w.$.o.o.;.-.*.o.&.&.&.+.+.} / / ^ / / E E E E E Y Y Y U U U F F F F F j x x x c F P U U x u c k d @ y i i i v / } O.1.2.1.2.e.e.7.e.y.e.y.f.I.U.Q.!.Q.!.W.c./ k F &.K.x.x.&.*.&.+.O.( / / / Q Q Q I R W ).dX8XM.K l k k g d d d g F F F k d d a t y y 3 7 y d G ' %.%.%.*.%.{ ' { { ! { E E ! E Y Y E E E Y F F c c c x H H c c c Y Y Y Y ! ! { { x.h F E / E ^ / / ( ( _ ( ( ( ( ( ( O.( ( ( ( ( / / / ) ^ / / / ^ ^ T Y F k d a s r s s y y a d d d h k V F F U U U c c p i i i c M / ( 1.q.Z.U.W.!.!.+X>X>X>X>X;X:X>X;X;X>X#X+XU.#.c w * - q 3 % & 3 & & & & & & & & & & > & & & & & & & & & & & & & & & & & & & 3 3 3 3 3 3 3 q r 6 r 7 3 2 2 3 4 3 3 3 4 4 3 3 3 3 3 3 3 3 3 3 3 3 3 3 3 3 3 2 2 3 3 3 3 3 3 3 3 2 2 2 2 2 2 2 2 2 2 2 2 2 2 2 2 3 3 3 3 2 2 2 2 3 3 2 2 2 2 2 6 3 3 y f j V P R ",
"m m m m m m U U Q ! { o.-.-.j.M.C.J.J.J.|.|.|.*X*XeX8X8X8XqXwXwXwXwXqXqXqXqXqX0XqX0XwXwXtXuXjXhXjXhXlXlXlXlXlXxXxXxXbXbXbXbXbXbXMXbXvXnXlXlXnXvXnXnXvXvXvXvXnXnXvXvXvXbXvXvXbXbXbXMXMXMXMXMXBXBXVXVXVXVXCXCXCXDXVXVXCXCXCXCXCXCXCXCXVXVXVXVXVXVXVXVXVXVXVXVXVXVXDXCXCXCXDXFXFXDXDXFXFXFXFXFXFXFXFXFXFXFXFXFXFXFXFXFXFXFXFXFXGXGXFXFXFXFXFXFXGXGXGXFXGXGXFXFXFXZXdXJ.j.F._.F.*.%.{ ! I P V j :.P T T ! o.o.o._ ;.T Q _ o.D.d.d.q.8.w.&.o.#.w.&.o.$.! $.o./ &.+.} @.@.@.} { / | } / / / ^ E E E E Y U U F F F x j j x x c x P U U P g e x k d @ i v i i c ( 3.3.2.e.2.2.2.2.u.e.f.y.y.f.f.Y.~.!.Q.W.T.S.&.F k { D.C.x.*.&.&.+.O.( / / ! ! Q Q Q ~ W M.*X*XM.W :.j j k g d g k F U U F F F F V k h d h Z G E { { { ' { { E E ' ' E { Y U E { / { #.+.{ ^ E T Y H c H H c c c c Y Y Y Y ^ ^ / { x.h d H E E / ( ( / ( / ) ( ( 3.O.( ( ( ( ( ( ( ( } ( ( ( ( ( ( / / / Y F x d a a y s 7 4 7 a d d d a a d d k k F F x c c c v v ^ ( 1.9.d.I.U.Y.W.!.{.>X;X>X>X>X>X>X>X>X>X+X#X>X!.t.O.c ; - w q 3 q & & & z z & & & & & & > & & & & q & 3 3 & & & & & & & & & & & & 3 3 3 3 3 3 q r 6 r 7 3 2 2 3 4 3 3 3 4 4 3 3 3 3 3 3 3 3 3 3 3 3 3 3 3 2 2 2 2 2 3 3 3 3 3 3 3 2 2 2 2 2 2 2 2 2 2 2 2 2 2 2 2 3 3 3 3 2 2 2 2 2 2 2 2 2 2 7 3 3 & q a h V P U ",
"m m m m P U I I ~ ! ' o.-.=.j.M.C.F.J.J.J.|.|.|.*X2X8XqXqXqXqXqXwXqXqXqXqXqXqXqX0X0XwXtXyXjXjXjXjXhXhXhXjXlXlXzXxXvXbXvXvXbXbXvXbXbXvXlXlXlXvXbXvXlXnXlXnXnXnXnXvXvXvXbXbXbXbXbXbXbXbXMXmXBXBXBXVXVXVXVXVXCXDXDXCXCXCXCXCXCXCXCXVXVXVXVXVXVXVXVXVXVXVXVXVXVXVXVXVXCXCXCXCXVXDXDXDXDXCXDXDXFXFXFXFXFXFXFXFXFXFXFXFXFXFXFXFXFXFXFXFXFXFXFXFXFXFXFXFXFXGXGXGXFXFXHXgXJ.j.F.F.F.j.%.' R G V f a f f m U ! _ o.o._ ! ! T / #.8.q.8.$.q.8.#.#.8.8.#.o.o._ o.$.$.#.+.@.+.+.+.+.+.+.} { { { / / ^ E E Y Y Y U U U F F F c c F U c c x Y P e - g F 7 : d g i v Y } <.3.3.u.2.3.2.e.e.y.e.y.y.f.Y.~.~.!.!.$XU.T.w.U d E D.C.w.w.&.o.+.#.( / / ! Q E Q I R K W -.N.-.K t f j k k k d d x U Y E E Q I Y U F G G R E E ' ' ' E E E E E E E ! / / / / { } +.+.#.+.{ / / E Y c H H c H c c m Y T Y E / / *.=.F d Y { Y } / ^ ( _ _ ( ( ( ( ( O.O.O.O.O.O.O.O.( } } O.O.O.} ( ( / / Y F F d y a s y r r a d a a h d a a k k d x c c M Y ^ ) O.u.y.d.Z.Y.U.~.!.!.>X>X>X>X>X>X>X,X~.!.!.!.!.>X,XQ.q./ p - - & 9 9 & & & & & & & & & & & & & & & & q q 9 3 3 & & & & & & & & & & & 3 3 3 & 3 3 q q 6 q 6 3 3 3 3 3 3 3 3 3 3 4 4 4 3 3 3 3 3 3 3 3 3 3 3 3 3 3 3 3 3 3 3 3 3 3 3 3 2 2 2 2 2 2 2 2 2 2 2 2 2 2 2 2 2 2 3 3 3 2 1 $ 2 $ % $ $ 1 2 % % 3 y a h V U I ",
"m m m m P U U U ~ ! ! o.-.=.j.M.C.F.J.J.J.|.|.|.*X2X8XqXqXqXqXqXwXqXqXqXqXqXqXqX0X0X0XtXyXjXjXjXhXhXhXlXlXlXxXzXxXvXbXvXvXbXbXvXbXbXvXlXlXlXvXvXvXlXnXnXnXnXnXvXvXvXvXbXbXbXbXbXbXbXbXMXmXBXBXBXBXVXVXVXVXVXDXDXCXCXCXCXCXCXCXCXVXVXVXVXVXVXVXVXVXVXVXVXVXVXVXVXVXVXCXCXCXVXDXDXDXDXDXDXFXFXFXFXFXFXFXFXFXFXFXFXFXFXFXFXFXFXFXFXFXFXFXFXFXFXFXFXFXFXGXGXFXFXFXHXkX|.M.F.F.F.l.] R C B h s y a a f x I ! o.$.o.;.T T T o.$.8.8.$.8.&.#.#.8.8.$.#.$.o.o.#.$.#.+.@.@.@.+.+.+.+.} { | { / / ^ ^ E Y Y Y Y U U U F F F x F U F U E o.x e e F F 7 ; i i d c / 3.2.2.7.2.3.3.u.e.y.i.i.f.i.f.Y.U.~.!.!.+XQ.!.D.^ g F x.H.x.w.=.o.+.#./ / / / ! ! Q I R ~ R W W I f f P k k g f d d k F U Y E E Q E E E E E E E E E E E ! ^ ^ ! ! E ! { { / { { +.+.&.&.&.+.O.{ / / Y Y H F F Y Y m Y Y T Y E { / +.n.+./ E / Y } ( ( ( _ _ ( O.O.O.O.3.3.3.3.3.1.1.3.#.#.@.@.@.@.O.O.+.+.+./ E R V d h B h d d h k k h V F B V F U F Y ^ / ( O.O.O.8.t.f.Y.U.T.!.!.!.!.{.{.#X,X!.~.Y.y.e.y.y.y.Y.~.!.!.~.1.M i , q q & z & & & & & & & & & & & & & z z q q 9 3 3 & & & & & & & & & & & 3 3 3 3 3 3 q q 6 q 6 3 3 3 3 3 4 3 4 3 3 3 4 4 3 3 3 3 3 3 3 3 3 3 3 3 3 3 3 3 2 2 2 2 2 2 2 2 2 2 2 2 2 2 2 2 2 2 2 2 2 2 2 2 2 2 3 3 3 2 1 $ 2 2 % % $ 1 1 % & 3 r a f V U I ",
"m m m m P U U U ~ ! ! o.-.=.j.M.C.F.J.J.J.|.|. X*X*XeX8XqXqXqXqXwXqXqXqXqXqXqXqX0X0X0XtXyXjXhXhXhXhXlXlXlXlXxXvXxXvXbXbXbXbXbXvXmXbXvXvXlXlXlXlXvXnXlXlXnXnXnXnXlXnXvXbXbXbXbXbXbXbXmXmXmXBXBXBXBXVXVXVXVXCXCXCXCXCXCXCXCXCXCXCXCXCXCXCXCXCXVXVXVXVXVXVXVXVXVXVXVXCXCXCXCXVXDXDXDXDXFXFXFXFXFXFXFXFXFXFXFXFXFXFXFXFXFXFXFXFXFXFXFXFXFXFXFXFXFXFXFXFXFXFXFXFXFXFXNX XN.F.F.F.l.] R C B h a a a y t f x ~ / o.o._ T T T _ $.q.8.8.8.$.#.@.1.8.8.$.$.$.o.#.#.+.@.@.@.@.@.+.} } } / } { / / ^ ^ E Y Y Y Y U U U F F Y F F P F P Y E p - u Y x ; 7 i 8 v ^ } 2.3.3.2.2.3.2.7.e.i.i.m.Y.Y.Y.Y.Y.~.!.!.!.!.+XT.+.c c =.G.x.w.=.$.#.+.( O._ / / ^ Q Q ~ ~ K K K K :.j x k g f d u u k F F U E E E ! ! ! E E E E Y Y E E ^ / { { { { { { { { } #.*.*.=.=.&.#.o.+.o./ ^ Y Y Y Y Y Y Y Y T T / / { { *.E.oXD.{ / E O.( O.( O.O.O.3.3.3.3.1.1.8.9.9.9.9.9.9.9.9.9.9.0.8.8.8.4.&.+.{ ! U Z V F C V V V V F V F U F U Y Y E / +.#.8.8.9.e.y.f.Y.Y.~.!.!.!.!.!.!.!.!.R.U.y.2.( 3.( ( 3.u.e.f.~.~.y./ v , w q * & & & & & & & & & & & & & & & & z z & & & & * * & & & & & & & & 3 3 3 3 3 3 q q 6 q q 3 3 3 3 3 4 4 4 4 3 3 3 3 3 3 3 3 3 3 3 3 3 3 3 3 3 3 3 3 2 2 2 2 2 2 2 2 2 2 2 2 2 2 2 2 2 2 2 2 2 2 2 2 2 2 2 2 2 3 1 $ 2 1 2 2 2 2 2 % & 3 r y f j U I ",
"m m m m P U U U ~ ! ! o.-.=.j.C.C.F.J.J.J.|.|. X*X*XeX8XqXqXqXwXwXqXqXqXqXqXqXqXqX0X0XtXyXjXhXhXhXlXlXlXlXxXvXvXxXbXbXbXbXAXbXbXmXbXbXvXlXlXlXlXvXvXnXlXnXnXnXvXlXnXvXvXbXbXbXbXbXbXmXmXBXBXBXBXBXVXVXVXVXCXCXCXCXCXCXCXCXCXCXCXCXCXCXCXCXCXVXVXVXVXVXVXVXVXVXVXVXCXCXCXCXVXDXDXFXDXFXFXFXFXFXFXFXFXFXFXFXFXFXFXFXFXFXFXFXFXFXFXFXFXFXFXFXFXFXFXFXFXFXFXFXFXFXDXNX*XN.N.F.F.j.g.[ G C Z l s s y a d j U ! o.o./ ! T T o.8.d.q.8.8.8.&.@.@.@.8.w.&.$.#.#.#.+.+.+.+.+.+.+.} } } ( } ( / / ^ ^ E Y Y Y U U U F F F U U U U U c c g i * u U d ; 8 i i H ( <.2.3.3.3.2.2.7.e.e.i.m.Y.Y.Y.Y.Y.Y.~.!.!.!.!.W.T.q.Y k *.G.C.=.&.8.#.O.+.o.+.( / / ! Q I ~ R ~ U U P j p x g g f d d x F F Y E E E E E Q E E E E Y U E ^ ^ / { { | | | { { { +.+.&.&.&.&.&.#.+.+.O./ / E E Y Y Y Y Y T / ^ O.{ +.+.&.'.fX@X{ { / o.O.1.O.#.1.8.8.u.9.9.q.9.q.t.c.t.t.d.Z.D.D.Z.D.D.D.x.x.x.x.=.*.{ R F G R P P V F F F V V U I I I E ^ #.8.9.t.t.t.d.f.Z.Y.U.~.!.!.!.W.W.}.R.v.v.y.e.3.( ( ) ) ( ( >.u.f.~.f.3.c e , w & & & & & & & & & & & & & & & & & & & & & & & * * & & & & & & & & 3 3 3 3 3 3 q q 6 q q 3 3 3 3 3 4 4 4 4 3 3 3 3 3 3 3 3 3 3 3 3 3 3 3 3 3 3 3 3 2 2 2 2 2 2 2 2 2 2 2 2 2 2 2 2 2 2 2 2 2 2 2 2 3 2 3 2 2 3 1 $ 2 2 2 2 2 2 2 $ & 3 q y f j P I ",
"m m m m U U U I ~ ! ! o.-.-.=.M.C.J.J.J.J.|.-X-X*X*XeX8XqXqXwXwXwXwXqXqXqXqXqXqX0X0XwXwXyXjXhXjXhXlXlXlXlXzXvXvXxXbXbXbXbXAXbXbXmXmXbXvXvXlXlXlXvXvXnXnXnXnXnXvXnXvXvXbXbXbXbXbXmXmXmXBXmXBXBXBXBXVXVXVXCXCXCXCXCXCXCXCXCXCXCXCXVXVXVXVXVXVXVXVXVXVXVXVXVXVXVXVXVXCXCXCXCXCXDXFXDXDXFXFXFXFXFXFXFXFXFXFXFXFXFXFXFXFXFXFXFXFXFXFXFXFXFXFXFXFXFXFXFXFXFXFXFXFXFXFXNX2XN.N.F.F.j.l.[ G Z B s s s r d d k F I ! { ! ! T ! o.8.q.q.8.8.8.1.#.O.O.@.&.&.$.&.&.$.&.O.O.} { } } } } } ( } / / / ^ ^ E Y Y Y U U F F F F F U U U Y U x x g - p U u 7 i i c Y } <.5.2.2.2.u.e.e.e.y.y.m.m.Y.Y.Y.Y.~.~.!.!.[.W.Q.T.S.{ x ! D.D.=.$.w.&.+.@.O.+._ ( / / E Q Q W I K j j x g x g d d d d g x F Y E E E E E E E E E E Y Y ^ / / / } } } | | | } +.+.*.&.&.+.+.#.#.o.+./ / ^ E ^ E T ^ T T ^ / / #.o.#.&.w.&XfX&X{ +.+.+.+.8.#.8.8.9.9.q.q.t.D.q.D.A.S.A.A.S.G.S.S.S.S.G.G.G.G.H.D.x.=.+.! P U R U U P P P F P U I Q Q Q Q / &.q.D.Z.Z.f.U.~.~.Y.~.W.R.W.R.R.R.W.T.b.e.e.9.3.3.( ) ) ( ) ) >.u.f.~.f./ p w w q & & > q q z & & & & & & & & & & & & & & & & & * & & & & & & & & & & & & 3 3 q q 6 q 6 3 3 3 3 3 4 4 3 3 3 4 3 3 3 3 3 3 3 3 3 3 3 3 3 3 3 3 3 3 2 3 3 2 3 3 3 3 2 2 2 2 2 2 2 2 2 2 2 2 2 2 2 2 2 2 3 3 3 3 1 $ 2 2 2 2 2 2 $ $ & 3 q y d k P U ",
"m m m m P U I I ~ ! ! o.-.-.=.M.C.F.J.J.J.|.-X-X*X*XeX8X8XqXwXwXwXwXqXqXqXqXqXqX0X0X0XwXtXjXhXjXhXlXlXlXlXxXxXvXxXvXbXbXbXbXbXvXbXbXbXbXvXzXlXlXvXvXvXnXnXvXvXvXvXvXvXbXbXbXbXbXmXmXmXBXmXBXBXBXBXVXVXVXCXCXCXCXCXCXCXCXCXCXCXCXVXVXVXVXVXVXVXVXVXVXVXVXVXVXVXVXVXCXCXCXCXCXDXFXDXDXFXFXFXFXFXFXFXFXFXFXFXFXFXFXFXFXFXFXFXFXFXFXFXFXFXFXFXFXFXFXFXFXFXFXFXFXFXFXCXeX).N.N.F.k.l.] G Z S s s l a s a d k P Q ' / ! Q / #.8.q.w.8.8.8.1.#.O.O.O.#.$.&.w.w.8.8.&.+.} { } } } } } ( / / / / ^ ^ E Y Y Y U F F F U U U U U x P Y Y U U x U Y g w i d Y / @.2.5.e.e.e.e.e.y.y.y.y.y.m.Y.Y.~.~.~.~.!.!.!.W.!.!.W.8.U U C.G.w.#.w.&.O.1.#.O.O.} } / ! Q Q Q I U P F x x k g d d d u u d x U E E E ^ / / E / / / / ^ ( } ( } +.@.+.} } } +.+.*.&.&.+.+.+.+.+.+.{ / / / / / / / / / / / ( +.&.#.=.w.C.%XfX+X+.&.&.&.$.q.8.8.q.q.q.d.D.D.Z.D.S.G.T.T.K.E.E.E.K.T.K.K.K.K.K.}.K.H.x.*.' R R W ~ ~ I U P U I U I I Q Q ! / $.D.S.S.Z.Z.U.~.T.T.R.R.W.W.R.R.R.R.T.v.v.y.e.2.3.( ) ) ( ) ) ) p.i.~.~.u.c ; - - & & q q q q & & & & & & & & & z & & & & & & * * & & & & & & & & & & & & 3 3 q q 6 q 3 3 3 3 3 3 4 4 3 3 4 4 4 4 3 3 3 3 3 3 3 3 3 3 3 3 3 3 3 3 2 2 2 2 2 2 2 2 2 2 2 2 2 2 2 2 2 2 2 2 2 2 2 2 2 2 3 3 3 3 1 $ 2 2 3 3 2 2 $ $ $ 3 q y a h V P ",
"m m m m m U I I Q ! ' o.-.-.=.M.C.J.J.J.J.|.-X-X*X*XeX8X8XqXqXwXwXwXqXqXqX0X0XqX0XwX0XwXtXyXhXhXhXhXlXlXlXxXvXvXxXbXbXvXvXbXbXvXbXbXbXbXvXvXvXzXvXvXvXnXvXnXvXbXvXvXbXbXbXbXbXbXmXMXBXBXBXZXBXBXBXVXVXVXCXCXCXCXCXCXCXCXCXCXCXCXCXCXCXCXCXCXDXVXVXVXVXVXVXVXVXVXVXCXCXCXCXCXDXFXDXDXFXFXFXFXFXFXFXFXFXFXFXFXFXFXFXFXFXFXFXFXFXFXFXFXFXFXFXFXFXFXFXFXFXFXFXFXFXFXDXqX).N.B.B.k.k.] ` A S S S S l 7 y a a k U Q ! Q ! { &.w.w.8.8.8.8.1.<.#.#.O.O.#.$.$.&.8.8.8.#.O.+.+.+.} } ( / ( / ^ ^ ^ ^ E Y E Y Y U U U Y Y Y Y Y x c U U U U T ! ! F d p H ^ } 4.5.5.e.e.e.e.r.y.y.y.y.m.m.m.Y.R.!.!.!.!.{.[.Q.!.!.Q.D.+./ D.].D.#.8.8.+.#.#.#.@.+.+.} { ! Q Q Q Q Q Y F x x g g g g d u u d x F Y E E / ^ / / / / / ( { ( ( } O.@.+.} } +.+.+.+.+.#.+.+.{ +.+.o.{ / / / { / / ( +.+.+.+.#.#.8.=.w.x.H.7XfXoX*.w.=.w.8.D.d.D.D.D.H.H.H.G.K.E.T.E.Q.].].].E.Q.E.Q.E.].].].].].].H.C.l.' R R W W W I I I I I I ~ I I Q ! / #.D.S.U.S.S.~.~.Y.R.Q.W.W.T.T.W.W.R.R.T.T.I.v.e.2.3.>.>.( ) ) ) >.u.f.~.t.^ i ; - & & q q q q & & & & & & & & & z & & * * & & & & & & & & & & & & & & & & 3 3 q q 6 q 3 3 3 3 3 3 3 3 3 3 4 4 4 4 3 3 3 3 3 3 3 3 3 3 3 3 3 3 3 3 2 2 2 2 2 2 3 3 2 2 2 2 2 2 2 2 2 2 2 2 2 2 2 2 2 2 3 3 3 3 1 1 2 3 3 3 3 2 $ $ % 3 q y a k V P ",
"m m m m m U I I Q ! ' o.-.-.=.M.C.J.J.J.J.|.|. X*X*XeX8X8XqXqXwXwXwX0XqXqX0XqXqXwXwX0XwXtXyXhXhXhXhXlXlXlXlXxXvXxXvXbXvXvXbXbXvXbXbXbXbXbXvXvXvXvXvXnXnXvXnXvXbXvXbXbXbXMXmXMXmXMXBXBXBXBXBXBXBXBXVXVXVXVXCXCXCXCXCXCXCXCXCXCXCXCXCXCXCXCXCXDXDXVXVXVXVXVXVXVXVXVXVXCXCXCXCXDXDXDXFXFXFXFXFXFXFXFXFXFXFXFXFXFXFXFXFXFXFXFXFXFXFXFXFXFXFXFXFXFXFXFXFXFXFXFXFXFXFXCXwX`.N.B.).B.k.g.[ A S S s s s 7 y y y a j I Q Q ! +.w.q.q.w.w.8.8.1.1.1.<.@.O.+.#.#.#.#.8.4.#.&.#.@.+.O.} / ^ / ^ ^ ^ ^ ^ E Y E E Y Y Y Y Y Y x Y Y Y U Y Y Y x T / / Y c c T / 1.r.e.2.3.3.3.7.e.y.y.y.y.m.m.m.Y.!.!.!.!.!.+X{.W.!.Q.G.T.D.w.D.@XK.&.8.8.+.#.#.#.@.#.@.+.{ / { Q U I Y U F x x k k x x g u u u k F F U Y E E ^ ^ ^ / / ( ( / ( } } } { { { { } } } } } { / / { { { { o.o.o.#.( { +.@.&.#.#.$.&.8.w.D.x.G.sXfX+X=.x.8.C.C.S.C.G.K.K.E.L.E.].].].Q.Q.'.'.oX'.].'.].].].].].].'.'.].H.n.l.' R R W W W I I I I ~ Q ! Q ! / / o.$.S.Q.Q.Q.Q.Q.Q.Y.T.T.T.U.T.T.R.W.R.W.W.R.R.U.I.I.e.u.p.>.) ) ) ) p.i.~.U.@.c i w - - q q q q & & & - - - & & & z * * * * & & & & & & & & & & & & & & & & 3 3 q q q q 3 3 3 3 3 3 3 3 3 3 4 4 4 4 3 3 3 3 3 3 3 3 3 3 3 3 3 3 3 3 3 3 3 3 3 3 3 3 2 2 2 2 2 2 2 2 2 2 2 2 2 2 2 2 2 2 3 3 3 3 1 1 2 2 3 3 3 2 $ $ % 3 r y a k V P ",
"m m P m m m U I I Q ! o.-.=.j.M.C.J.J.J.J.|.|.|.*X*XeX8XqXqXwXwXwX0X0XqX0XqXwXwXwXwXwXwXtXyXjXhXhXlXlXhXlXlXxXxXxXxXvXvXbXbXmXMXbXbXvXvXvXvXvXbXvXvXvXnXnXvXvXvXvXvXvXbXbXbXbXMXMXMXBXBXBXBXBXBXBXVXVXVXCXCXDXDXDXDXDXDXDXDXDXDXVXVXVXVXVXVXVXVXVXVXVXVXVXVXVXVXVXCXCXCXCXCXFXFXDXCXCXFXFXGXFXFXFXFXFXFXFXFXFXFXFXFXFXFXFXFXFXFXFXFXFXFXFXFXFXFXFXFXFXFXFXFXFXFXDXwX).N.`.`.N.k.g.[ ` A S S s s s r r a a d P ! ! ! / $.q.q.w.8.8.8.4.1.1.&.#.@.#.#.#.#.&.1.8.8.#.@.#.#.O.( ( / / / / / / ^ E E ^ E Y Y Y Y U U x P U U Y Y Y Y Y / #.{ c c Y ) O.9.y.7.3.3.u.u.u.e.e.y.i.m.m.Y.~.~.R.!.!.{.!.R.#X[.W.W.!.'.G.0.D.Q.G.w.w.$.#.$.$.&.#.@.O.+.( / / / ^ ! Q I U x m x x x x c g c g c c H U Y E E E ^ ^ / ^ / / / / ( } } { / / / / / ( / { { o.{ o.o.o.o.#.+.+.#.#.@.#.&.&.&.8.8.w.D.x.D.G.G.=XfXXX&.w.D.C.S.K.D.K.K.E.E.].].'.'.].'.].oX'.'.'.'.].'.].'.'.'.oXoXoXoX].F.*.' ' R W Q Q Q I I I I Q Q Q ! o./ _ &.D.T.!.W.Q.T.T.U.Y.U.T.R.I.A.T.}.}.[.{.[.}.W.T.Z.y.7.,.( ) ) ) ) >.i.f.~.Z.^ w e 6 q 3 3 y 9 # 9 & - - - & & z z & * & & * & & & & & & & & & & & 3 3 3 3 3 3 q q q r 6 3 3 3 3 3 4 4 4 4 3 3 3 3 3 3 3 3 3 3 3 3 3 3 3 3 3 3 3 3 3 3 3 3 3 3 3 3 2 2 2 3 2 2 2 2 2 2 2 2 2 2 2 2 3 3 3 2 2 2 2 2 3 2 2 1 $ 1 1 2 3 3 r a f h V U ",
"m m P m m m P I I Q ! o.-.-.j.M.C.J.J.J.J.|.|.|.*X*XeX8XqXqXwXwXwX0XqXqX0XqX0XwX0XwXwXwXtXyXjXhXhXlXlXlXlXlXxXxXxXxXvXvXbXbXmXMXbXbXvXvXvXvXvXvXvXvXvXnXnXvXvXvXbXbXbXbXbXbXbXMXMXMXBXBXBXBXBXBXBXBXVXVXCXCXDXDXCXCXDXDXDXDXDXDXVXCXVXVXVXVXVXVXVXVXVXVXVXVXVXVXVXCXCXCXCXCXFXFXDXCXCXDXFXGXFXFXFXFXFXFXFXFXFXFXFXFXFXFXFXFXFXFXFXFXFXFXFXFXFXFXFXFXFXFXFXFXFXFXNXzX<XB.`..X`.B.k.] ` A Z S S s s r r y y y k I Q T _ &.q.q.w.8.8.8.1.&.&.&.#.#.O.+.+.O.O.O.@.#.#.#.#.#.O.+.O.O.( ( / / / / ^ ^ ^ E Y Y Y Y Y Y P U U Y Y Y Y Y E } +.E v v ^ } <.e.y.7.u.u.7.2.u.u.e.e.i.i.Y.Y.~.!.!.!.!.[.[.!.[.!.W.W.'.[.W.D.D.'.'.H.w.w.=.$.$.$.&.&.&.@.+.O./ / / ^ ! Q I P m x x x x x c x x c c c F F Y Y Y E E ^ ^ ^ ^ ^ ^ / / { { / / { { { o.{ o.o.+.o.+.o.+.#.#.#.#.#.&.&.&.&.=.8.w.w.w.D.x.D.G.].7XfX@Xw.w.D.D.K.K.K.E.E.].].'.'.'.'.oXoXoXoX@X+X'.'.'.'.'.'.oXoXoXoXoXoX].H.*.{ ' R Q Q Q Q Q Q Q Q Q Q T / #.$.&.t.Z.T.W.Q.Q.T.T.U.U.Y.Z.Z.v.c.A.R.W.[.{.{.{.[.R.T.m.e.3.,.( ) ) ) a.p.i.~.~.1.c u * 6 & % 9 9 & q - - - - - & z z & & & & & & 3 3 & & & & & & & & 3 & 3 3 3 3 q q q r 7 3 3 2 3 3 4 4 4 4 3 3 3 3 3 3 3 3 3 3 2 3 3 3 3 3 3 3 3 3 3 3 3 3 3 3 3 3 2 2 3 3 3 2 2 2 2 2 2 2 2 2 2 2 3 3 3 3 2 2 2 2 3 2 2 1 $ 1 1 2 3 3 r a f h V U ",
"m m m m m m P I I ~ ! o.o.=.j.M.C.J.J.J.J.^.|.|.*X*XeX8XqXqXwXwXwXwXqXqXqXqXqX0X0XwXwXtXtXyXjXjXhXlXlXlXjXlXxXxXxXxXvXbXbXbXmXMXmXbXbXvXvXvXvXvXbXvXvXnXnXvXvXbXbXbXbXbXbXbXMXMXMXMXBXBXBXBXBXBXVXBXVXVXCXCXDXDXCXCXDXDXDXDXDXDXCXCXCXCXVXVXVXVXVXVXVXVXVXVXVXVXVXCXCXCXVXCXDXDXDXCXDXFXFXFXFXFXFXFXFXFXFXFXFXFXFXFXFXFXFXFXFXFXFXFXFXFXFXFXFXFXFXFXFXFXFXFXFXFXZXVX9XB.).1X.X).B.g.` A S S s s s r r y r q t k I T o.8.d.q.9.0.8.4.1.1.1.1.@.#.O.O.+.O.O.O.O.O.#.#.#.#.#.#.#.#.+.O.{ { { { / / ^ ^ E Y Y Y Y Y Y Y Y Y Y Y Y Y / @.( c v H / 1.2.e.e.e.7.e.e.7.u.u.e.e.y.i.Y.Y.!.!.!.!.!.!.{.+X!.W.Q.Q.'.[.[.].x.K.oXK.w.8.w.&.$.&.&.&.1.1.@.O.( / / / / ! E Y Y m c x x c c x x x c c c H H Y Y Y E E E E ^ ^ ^ ^ / / { { { } +.O.o.o.o.o.#.#.+.#.#.#.$.$.$.$.8.&.&.&.=.w.x.D.x.D.D.H.K.oXsXgX$Xx.D.H.D.E.E.E.'.'.XXXXoXXXXXXX@X@X@X@X&X@X@X@X'.'.'.'.oXoXoXoXoXoX].H.=.o.' R ! Q Q Q Q Q Q Q ! ! ! o.$.w.w.D.Z.U.Q.Q.T.T.U.U.Y.d.t.r.r.b.A.R.W.[.#X#X#X#X[.R.Y.y.7.3.>.) ) N N >.p.f.!.Z.T p - 6 - % & z 9 q 3 6 ; - - & z z & & & & & & 3 & 3 & & & & & & & 3 & & & 3 3 q q 4 r 7 3 3 2 3 4 4 3 4 4 3 3 4 3 3 3 3 3 3 3 2 3 3 3 3 3 3 3 3 3 3 3 3 3 3 3 3 3 3 3 3 3 3 3 2 3 2 2 2 2 2 2 2 2 3 3 3 3 3 3 2 2 3 2 2 1 $ 1 1 2 3 3 6 a d f V U ",
"m m m m m m P I I ~ !  .o.-.j.M.C.J.J.J.J.|.|.|.*X*XeX8XqXqXwXwXwXwX0XqX0XqXqXqXqX0XwXtXtXjXjXjXjXlXlXlXjXlXxXxXxXxXvXbXbXbXmXMXBXmXbXvXvXvXvXzXbXvXvXvXvXvXvXbXbXbXbXbXbXbXbXbXMXMXBXBXBXBXBXBXVXVXVXVXCXCXDXDXCXCXCXCXVXVXCXVXCXCXCXCXVXVXVXVXVXVXVXVXVXVXVXVXVXCXCXCXVXCXDXDXCXDXDXFXFXFXFXFXFXFXFXFXFXFXFXFXFXFXFXFXFXFXFXFXFXFXFXFXFXFXFXFXFXFXFXFXFXFXFXFXDXVXeXB.B..X.X`.N.g.[ ` Z s s s a y y y y q t f m Q #.w.C.q.q.q.8.4.1.&.&.1.@.@.@.O.+.+.+.+.+.+.O.O.O.O.+.+.+.+.+.O.{ { | | { ( / ^ ^ T Y Y Y Y Y Y Y Y Y Y Y Y ( 4.^ c Y / ( 1.e.e.e.e.e.y.y.e.u.u.u.e.e.i.Y.Y.!.!.,X{.!.!.!.!.!.!.[.W.W.'.'.].D.D.].'.D.w.w.&.$.&.$.&.1.&.@.@.} } ( / / / Q E Y m x x x c c x F F F F F H Y Y Y Y E E E E ^ ^ ^ ^ / / { { } +.o.O.o.o.O.o.#.#.#.#.#.$.$.&.&.$.w.w.=.=.w.w.D.D.D.G.H.H.K.$XgX7X@XD.D.H.S.Q.Q.'.XXXXoXoXoXoXoXoX&X&X&X@X&X@X@X@X'.'.'.'.oXoX&X&X&XoX].H.j.%.' R Q Q Q I Q Q ! ! { o.o.$.w.d.q.c.S.T.Q.R.T.T.T.S.d.e.u.9.t.b.A.T.W.[.#X;X;X>X[.W.I.v.7.u.3.) ) N >.>.p.e.Y.Y.O.x 7 w w & % z 9 & 3 6 ; - - & z z & & & & & & 3 & & & & & & & & & 3 & & & 3 3 q q 4 r 7 3 3 2 3 4 3 3 4 4 3 3 4 4 3 3 4 4 4 3 2 2 3 3 3 3 3 3 3 3 3 3 3 3 3 3 3 3 3 3 4 4 3 3 3 2 2 2 3 2 2 2 2 2 3 3 3 3 3 3 3 3 3 2 2 1 $ 1 1 2 $ % 3 y a f V P ",
"m m m m P P P I I Q ! ;.o.-.j.M.C.J.J.J.J.|.|.|.*X*XeX8XqXqXwXwXwXwX0X0XqXqXqXqXqX0XwXtXjXjXjXyXjXlXlXlXjXlXxXxXlXxXbXbXmXbXmXMXBXmXbXbXvXvXvXvXbXbXvXvXvXvXbXbXbXbXbXbXbXbXbXbXMXMXBXBXBXBXBXBXVXVXVXVXCXCXDXDXCXCXDXDXDXDXDXDXDXDXDXCXCXCXCXCXVXVXVXVXVXVXVXVXVXVXVXVXVXCXDXDXCXDXFXFXFXFXFXFXFXFXFXFXFXFXFXFXFXFXFXFXFXFXFXFXFXFXFXFXFXFXFXFXFXFXFXFXFXFXFXFXFXCXwX.X).).).`.k.g.%.' A B S h a s y y y t t t k Q $.d.C.d.q.q.8.8.1.1.1.1.&.@.O.O.+.+.+.O.O.O.O.O.O.( ( ( } } } ( ( / { } } } / / ^ ^ Y Y Y Y Y Y Y Y Y Y ^ / +.@.Y c ^ @.O.4.e.e.e.e.e.y.e.e.u.u.e.e.y.i.Y.Y.~.!.>X,X!.W.Q.Q.!.[.[.W.E.W.'.'.'.D.G.@XQ.D.q.w.8.8.8.1.1.&.@.O.@.O.+.{ / / E E T Y c x c c c U F F H Y Y Y Y Y Y Y Y Y Y E ^ ^ ^ / / / / { { { o.o.o.o.o.o.#.#.#.$.$.$.&.8.w.w.w.w.w.w.w.C.D.D.H.K.K.L.K.&XfX:XXXH.H.H.K.Q.E.XX'.'.XXoXoX@X@X@X&X&X&X@XoX@X@X@X{.{.'.'.'.oX&X&X&X&X'.H.j.o.! I Q Q Q I I Q ! ! o.$.w.C.S.G.A.A.U.R.Q.R.R.T.U.Z.u.3.#.4.t.Z.A.T.W.{.;X:X;X>X[.W.I.v.e.u.p.>.) ) >.>.p.u.i.Y.8.Y w - w > % z q * 3 6 ; - - & z z z & & & & & & & & & & & & & & & 3 3 3 & 3 3 q q 4 r 6 3 2 2 3 4 3 3 3 3 4 4 4 4 3 4 4 4 4 3 3 2 3 3 3 3 3 3 3 3 3 3 3 3 3 3 3 3 3 3 4 4 3 3 2 2 2 2 2 2 2 2 2 2 3 3 3 3 3 3 3 3 2 2 2 1 $ 1 1 2 $ $ 3 y a f V P ",
"m m P P P P I I I Q !  .o.-.j.M.C.J.J.J.J.|.|.|.*X*XeX8XqXqXwXwXwXwXwXwX0XqXqX0XqX0XwXtXjXjXjXyXjXlXlXlXjXlXxXxXxXxXbXmXMXmXMXMXBXmXbXbXvXvXvXvXbXbXvXvXvXvXbXbXbXbXbXbXbXbXbXbXMXMXBXBXBXBXBXBXVXVXVXVXCXCXDXDXFXFXDXDXDXDXDXDXDXDXDXDXCXCXCXCXVXVXVXVXVXVXVXVXVXVXVXVXVXCXDXDXCXDXFXFXFXDXDXFXFXFXFXFXFXFXFXFXFXFXFXFXFXFXFXFXFXFXFXFXFXFXFXFXFXFXFXFXFXFXFXFXFXDXMXwX.XN.h.k.h.g.%.] R B h s s y y y y q y e k Q $.d.C.C.q.q.8.8.8.4.1.1.@.#.O.O.O.O.O.O.+.+.O.O.O.O.O.( ( ( ( / ^ ^ / / ( ( / / / ^ E Y Y Y Y Y Y ^ ^ ^ / O.O.( H v / <.1.9.r.e.e.e.e.e.e.e.e.e.e.e.y.i.Y.Y.~.!.>X>X{.!.W.T.R.!.[.W.W.}.[.[.'.x.D.'.+XS.q.q.q.9.8.8.8.1.@.@.@.@.+.o.( / / E ^ Y Y M Y c c H x c H Y Y Y Y Y Y Y Y Y Y Y E ^ ^ / / / / / / / o.O.+.o.#.#.#.$.&.&.$.&.8.w.w.w.q.w.w.C.C.D.D.P.H.K.L.].L.&XfX=XE.K.K.S.K.Q.E.XXQ.'.XXoX@X@X$X$X&X@X@X@XoXoX@XoXoX{.'.'.'.'.&X&X&XoX'._.x.+.' R Q ! ! Q I I ! { o.=.C.D.E.Q.U.U.U.R.R.R.Q.R.Z.t.O.O.O.1.t.v.A.T.[.#X;X:X;X;X{.W.U.m.y.7.3.>.>.>.N ) p.u.i.U.d.( i ; ; > % z r * 3 6 ; - - & z z z z & & & & & & & & & & & & & & 3 3 3 & 3 3 q q 6 r 6 3 2 2 3 4 3 3 3 3 4 4 4 4 4 4 4 4 4 4 3 2 3 3 3 3 3 3 3 3 3 3 3 3 3 3 3 3 3 3 3 3 3 3 3 2 2 2 2 2 2 2 2 2 3 3 3 3 3 3 3 3 2 2 2 1 $ 1 1 % $ $ 3 y a f j P ",
"m m U P P P I I I Q !  .o.-.j.M.C.J.J.J.J.|.|.|.*X*XeX8XqXqXwXwXtXwXwXwXwX0XqXqXqX0XwXtXjXjXjXyXjXlXlXlXjXxXxXxXxXxXbXmXMXMXMXMXMXbXbXbXbXbXbXbXbXbXbXvXbXbXbXbXbXbXbXbXbXbXbXbXMXMXBXBXBXBXBXBXVXVXVXVXCXCXFXFXFXFXDXDXDXDXDXDXFXDXDXDXCXVXCXCXVXVXVXVXVXVXVXVXVXVXVXVXVXCXDXDXCXDXFXFXDXDXDXFXFXFXFXFXFXFXFXFXFXFXFXFXFXFXFXFXFXFXFXFXFXFXFXFXGXGXGXFXFXFXFXFXFXFXDXmX9X`.N.N.N.h.g.%.[ K Z s a a y r r q w w g T $.q.D.D.D.q.q.0.8.8.8.1.@.#.O.+.O.} } } O.O.O.} O.O.O.O.( ( ( / ^ ^ ^ ^ ^ ^ ^ ^ ^ ^ T T T T ^ T T ^ ^ ^ / O.} ^ Y ^ ( <.9.r.y.r.e.e.e.7.7.e.e.e.e.y.i.Y.Y.Y.~.!.,X>X{.[.!.Q.W.!.[.W.'.'.[.[.].G.D.K.XXE.C.x.q.8.8.8.8.1.1.@.@.@.+.O.o._ / / / ^ Y Y Y Y Y Y c H Y Y Y Y Y Y E E Y Y Y E ^ ^ / / / / / / { +.o.o.#.$.&.&.&.$.8.$.&.w.w.q.q.C.C.C.C.D.P.P.P.P.L.H.L.OXP.OXsX@XK.K.E.K.Q.XXL.XX'.XXoXoX@X$X@X@X&X&X&X@X@X&X&X&X{.'.'.'.'.'.oX&X&XoXoX_.x.*.o.Q ! { { ! I I / #.o.d.D.S.G.G.U.T.U.R.R.R.R.U.d.8.O.O.#.9.t.v.A.T.{.#X:X:X:X;X#X!.!.I.y.e.p.>.) >.) N >.p.e.Y.Y.1.Y ; * q % & r & 3 - 7 - - & z z z > z & & & & & 3 3 & & & & & & 3 3 3 3 3 3 q q r r 3 3 2 2 3 4 4 4 3 3 4 4 3 3 4 4 4 7 4 4 3 3 3 3 3 3 3 3 3 3 3 3 3 3 3 3 3 3 2 2 3 3 3 2 2 2 2 2 2 2 2 2 2 2 3 3 2 2 2 2 3 2 3 2 2 1 $ 1 1 % $ $ 3 y a f V P ",
"m U U U U U I ~ I ~ ! o.o.=.j.M.C.J.J.J.J.|.|.|.*X*XeX8XqXqXwXwXtXtXtXwXwXwXqXqXqX0XwXtXjXjXjXyXjXlXlXlXjXxXxXxXxXxXbXmXMXMXMXMXbXbXbXbXbXbXbXbXbXbXbXvXbXbXbXbXMXMXbXbXbXbXbXbXMXMXBXBXBXBXBXBXVXVXVXVXCXCXFXFXFXFXFXFXFXFXFXFXFXFXDXDXVXVXCXCXVXVXVXVXVXVXVXVXVXVXVXVXVXCXDXDXCXDXFXFXDXCXDXFXFXFXFXFXFXFXFXFXFXFXFXFXFXFXFXFXFXFXFXFXFXFXFXFXGXGXGXFXFXFXFXFXGXDXCXVXMXhX9X.X`.N.j.l.%.' R B f f a y q w w > g T #.q.D.Z.D.q.q.q.9.8.8.1.@.@.@.@.+.+.O.} } ( ( ( } O.O.( ( / ( / ^ ^ ^ ^ ^ ^ ^ ^ ^ E ^ ^ ^ ^ / ^ ^ / ) ^ / O./ E / @.1.1.e.t.y.y.y.y.e.7.7.e.e.e.y.y.I.Y.Y.Y.~.!.{.{.{.+X[.[.!.[.[.[.}.'.'.'.].].G.G.@XXXS.D.8.8.8.1.1.1.@.@.@.O.O.O.O.+.O._ ( / ^ ^ ^ Y Y Y Y Y Y Y Y Y Y E ^ ^ ^ ^ ^ ^ / / / / { { O.+.+.#.#.#.&.w.w.w.=.&.w.w.w.w.w.q.C.D.D.C.D.P.K.H.H.P.E.H.L.E.C.P.&XL.K.K.E.K.Q.XXK.oXXXoXoXoX@X@X@X@X&X&X&X&X&X&X&X%X{.'.'.'.'.'.oX#X#XoX'.].D.=.o.! ' o.o.' I I / &.w.G.E.G.S.S.U.W.U.U.R.R.R.U.t.#.1.1.4.0.c.A.T.W.{.#X:X:X:X;X>X{.!.~.f.e.u.>.) >.>.b N >.3.i.Y.9.O.i ; e * % q & 3 - 6 - - & z z > > z & & & & & 3 3 & & & & & & 3 3 3 3 3 3 q q q r 6 3 3 2 3 4 4 4 4 4 3 3 3 3 3 4 7 7 4 4 3 3 3 3 3 3 3 3 3 3 3 3 3 3 3 3 3 3 2 2 2 3 2 3 2 2 2 2 2 2 2 2 2 2 3 3 2 2 2 2 2 2 3 2 2 1 1 1 1 % $ % 3 y a f V P ",
"m m m m m P I I I Q !  .-.=.=.C.C.J.J.J.J.^.|.-X-X*XeX8X8XqXwX0XtXwXqXqXwXwXqX9XqXqXwXtXjXjXjXjXlXlXlXlXlXlXxXxXxXvXbXbXmXMXMXmXbXbXbXbXvXvXvXvXmXbXvXvXvXvXbXbXvXvXbXbXbXbXbXbXMXMXMXMXBXBXVXVXVXCXCXCXCXCXFXFXFXFXDXDXDXDXDXDXCXCXDXDXDXDXCXCXCXCXCXCXVXVXVXVXVXVXVXVXVXCXDXDXDXDXFXFXFXFXFXFXFXFXFXFXFXFXFXFXFXFXFXFXFXFXFXFXFXFXFXFXFXFXFXFXFXFXFXFXFXFXFXFXFXFXCXVXCXFXBXhX9X X|.J.j.-.o.! U F j f t w e u g / 8.D.D.d.d.q.0.0.9.8.4.1.@.@.@.O.+.O.} } ( / } ( ( ( ( ( ( / ( ^ ^ ^ ^ Y Y ^ ^ ^ ^ ^ / / / / ( / ) / ( ( ( ( / / ( } <.9.r.r.e.e.e.e.e.e.e.e.e.e.y.y.m.Y.Y.Y.~.!.{.#X{.!.!.!.!.!.!.W.'.+X+X[.@XQ.A.D.T.XXQ.D.w.&.&.$.8.1.<.@.@.@.#.O.O.+.+.+.O.( / / / ^ ^ Y Y Y Y Y Y Y Y Y E E ^ ^ / / / / O.+.+.+.#.#.#.#.$.$.&.$.w.w.w.$.$.8.q.w.q.d.D.S.P.P.P.P.K.K.K.K.L.L.P.C.C.H.L.L.E.E.E.E.Q.Q.XXXX].XX@X@XoXoXoX$X&X&X$X@X#X#X#X&X@X[.'.'.].'.&X%X@X@X&X].F.=.o.' o.{ { { ! Q { *.D.K.E.K.S.U.T.U.R.R.U.U.U.U.t.#.1.9.0.b.v.I.R.W.{.{.>X;X:X:X;X#X!.~.Y.y.u.p.>.>.N N ) ) p.i.Y.Y.} v , - & z * & 3 6 6 - - & & * * * & & & & 3 3 3 3 & & & & & & q 6 3 3 3 6 q q r r r 3 2 2 3 4 4 4 3 3 3 3 4 4 3 4 4 7 3 3 3 2 3 3 3 3 3 3 3 3 3 3 3 3 3 3 3 3 3 4 4 3 3 3 2 1 2 2 3 3 3 3 2 2 3 2 2 2 2 1 $ $ 2 2 2 2 2 2 2 % $ $ 3 q y f j V ",
"m m U U P U I I I Q !  .-.-.j.C.C.J.J.J.J.^.|.-X-X*XeX8X8XqXwX0XtXwXwXwXwXwXqXqXqX0XwXwXtXjXjXjXlXlXlXlXlXlXxXxXxXvXbXbXmXmXmXmXbXbXbXbXvXvXvXvXmXbXbXvXvXvXbXbXvXvXbXbXbXMXbXbXMXMXMXBXBXBXVXVXVXCXCXCXCXCXFXFXFXFXDXDXDXDXDXDXCXCXDXDXDXDXCXCXDXDXDXDXVXVXVXVXVXVXVXVXVXCXDXDXDXDXFXFXFXFXFXFXFXFXFXFXFXFXFXFXFXFXFXFXFXFXFXFXFXFXFXFXFXFXFXFXFXFXFXFXFXFXFXFXFXFXDXCXFXFXCXmXFXNXcXkX8XOXF.*.*.o.{ ! I c x c x / 8.d.D.D.D.Z.q.q.0.9.9.4.1.1.@.@.O.O.+.O.} ( ( ( ( ( ( ( / / ( / ^ ^ ^ ^ ^ ^ ) ) ^ / / / / / / / ) / ( ( ( ( ( ( } <.5.r.r.r.e.e.e.e.e.e.e.e.2.e.y.y.Y.m.m.m.I.!.{.#X{.[.!.!.!.!.!.W.'.[.[.'.&X'.G.x.D.G.E.K.D.q.8.8.8.8.1.1.1.<.@.@.#.#.#.#.#.O.( ( ( ( / ^ ^ T Y Y ^ ^ ^ T ^ ^ ^ / / / ( { o.+.o.+.#.#.$.$.#.$.&.$.8.8.8.8.w.w.d.d.d.d.D.D.K.K.K.K.K.K.H.P.C.C.C.=.C.H.L.L.E.Q.Q.Q.Q.XXXXoXXXXX@X@XoXoX$X&X&X&X&X&X%X&X&X&X@X[.'.'.'.{.&X&X#X@X@X].D.=.%.{ o.{ { { / ! o.x.H.E.Q.E.S.U.U.I.U.U.U.R.R.U.t.1.9.9.t.v.A.T.R.W.{.#X>X;X:X:X;X>X!.~.Y.y.u.p.>.) ) ) ) >.p.e.f.Y.2.v < - * z * & 3 3 6 - - & & * * * * & & & 3 3 3 3 & & & & & & q 3 3 3 3 6 q q r r r 3 3 2 3 4 4 4 3 3 3 3 4 4 3 4 4 4 4 3 3 2 3 3 3 3 3 3 3 3 3 3 3 3 3 3 3 3 4 4 3 3 3 2 2 2 2 2 2 3 3 3 2 2 2 2 2 2 2 1 $ $ 2 2 2 2 2 2 2 % $ % 3 q y f j V ",
"m m U U P U I I I Q !  .-.-.j.C.C.J.J.J.J.^.|.-X-X*XeX8XqXqXwXwXtXwXwXwXtXwXqXqX0X0XwXwXtXjXjXhXlXlXlXlXlXlXxXxXxXvXbXbXmXMXmXmXmXbXbXbXvXvXvXvXmXbXbXvXvXvXbXbXvXbXbXbXMXMXMXbXMXMXmXBXBXBXVXVXVXCXCXCXCXCXFXFXFXFXFXFXFXFXDXFXCXCXDXDXDXDXDXDXDXDXDXDXDXDXDXDXVXVXVXVXCXCXDXDXDXDXFXFXFXFXFXFXFXFXFXFXFXFXFXFXFXFXFXFXFXFXFXFXFXFXFXFXFXFXFXFXFXFXFXFXFXFXFXFXFXFXFXFXFXFXFXCXDXVXDXGXPXfX3X].F.x.=.*.+.{ / ^ ^ O.8.q.t.d.d.t.q.0.0.9.9.8.4.1.@.@.O.O.O.O.O.} } ( / / / / / / ( / ^ ^ ) ^ ^ ^ / / / / / ( ( ( / / / ( ( ( ( ( O.O.<.2.e.r.r.r.e.e.7.7.7.7.7.7.2.9.y.I.I.m.m.v.I.!.{.#X+X[.[.!.!.[.[.!.'.[.'.}.@X@XW.D.8.w.D.E.S.D.q.8.8.8.8.1.1.1.@.#.#.#.#.#.#.@.O.O.O.( ( / / / ^ ^ ^ ^ ^ T / / / / / ( _ o.O.o.o.#.$.&.&.&.$.$.$.8.q.q.q.d.q.d.d.d.d.d.D.D.S.S.S.P.D.C.q.w.w.C.D.D.H.L.L.L.Q.Q.Q./.XXXX@X$XoX@X@XoXoXoX$X&X&X&X%X%X%X%X%X&X{.[.[.[.[.{.#X&X&X@X@X].C.=.*.o.{ { { o.{ { =.G.E.Q.Q.Q.S.S.S.A.I.A.U.W.Q.Z.t.q.t.c.Z.A.I.T.R.W.{.{.>X;X:X:X:X;X{.!.Y.y.e.3.>.) ) >.) ) >.p.i.Y.f.Y i - & z & 9 3 6 6 - - & & * * * * & & & 3 & 3 & & & & & & & 3 3 3 3 3 3 q q r r r 3 3 3 3 4 4 3 3 3 4 4 4 4 3 3 3 4 4 3 3 2 3 3 3 3 3 3 3 3 3 3 3 3 3 3 3 3 4 4 4 4 3 3 3 2 2 2 3 3 3 3 2 2 2 2 2 2 2 2 1 1 2 2 2 2 2 2 2 % $ % 3 q y f j V ",
"m m U m m m U I I Q !  .-.=.=.C.C.F.J.J.J.^.|.|.*X*XeX8XqXwXwXwXtXtXwXwXtXwX0XqX0XwXwXwXtXjXjXjXhXlXlXlXlXlXxXxXxXxXbXbXmXMXmXmXmXbXbXbXvXvXvXvXbXbXbXbXvXbXbXbXvXbXbXbXMXMXMXMXmXMXBXBXBXBXVXVXVXCXCXCXCXCXCXFXFXFXFXFXFXFXFXFXDXDXDXDXDXDXDXDXDXDXDXDXCXCXDXCXVXVXVXVXVXCXDXDXDXDXFXFXFXFXFXFXFXFXFXFXFXFXFXFXFXFXFXFXFXFXFXFXFXFXFXFXFXFXFXFXFXFXFXFXFXFXFXFXFXFXFXCXCXCXFXFXFXDXDXGXGXPXfX3XL.F.x.x.x.w.8.&.&.1.8.9.9.8.8.1.4.4.4.4.1.1.@.@.1.@.O.O.O.O.O.} O.( ( / / ( ( ( ( / / / / ) ^ / ( / / / / ( ( ( ( ( ( ( ( } 3.( O.O.1.5.9.e.e.5.e.e.7.7.2.2.7.7.2.9.y.I.I.I.Y.Y.R.!.{.{.[.[.[.+X[.[.[.[.[.[.'.'.'.+X[.G.8.#.8.D.D.D.C.q.9.9.9.1.<.3.#.#.@.#.#.1.@.@.#.#.+.O.( / ( / / / / ^ ^ ^ / / / / / ( o.+.+.#.#.$.&.w.w.w.8.8.8.q.q.d.d.d.q.q.q.q.q.q.q.q.q.q.q.q.q.q.q.q.D.P.K.E.E.E.Q.XXQ.Q.XXXXXX@X$X&X@X@XoXoXoXoX$X&X&X&X%X%X%X%X%X&X{.{.{.@X@X@X#X#X&X@X@X].F.=.o.{ { { { { { +.x.E.Q.Q.Q.Q.T.S.S.U.I.Z.T.!.W.Z.q.d.c.Z.A.T.T.R.W.[.{.{.>X;X:X:X:X;X#X!.~.I.y.u.>.>.>.>.) >.>.p.y.Y.Y./ i - & z 9 9 3 6 6 - - & & * * & & & & & & & & & & & & & & & 3 3 3 3 3 3 3 q 6 r r 7 3 3 3 4 4 4 3 3 4 4 4 4 3 4 3 4 4 3 3 2 3 3 3 3 3 3 3 3 3 3 3 3 3 3 3 3 3 3 3 4 3 3 2 2 2 2 3 3 3 3 2 2 2 2 3 3 2 2 2 2 2 2 2 2 2 2 2 % $ % & 6 y d h V ",
"m m U P P P U I I Q !  .-.=.=.M.C.F.J.J.L.^.|.|.*X*XeX8X8XwXwXtXtXtXtXtXtXwX0XqXqX0XwXwXtXtXjXjXhXhXhXlXlXxXxXxXxXvXbXbXbXMXmXmXBXmXbXbXvXvXvXbXbXbXbXbXbXbXbXbXvXbXbXbXMXMXMXmXbXmXmXBXBXVXBXBXVXCXCXCXCXCXCXFXFXFXFXFXFXFXFXFXDXDXDXDXDXDXDXDXCXCXCXVXVXVXVXVXVXVXVXVXVXCXDXFXDXDXDXFXFXFXFXFXFXFXFXFXFXFXFXFXFXFXFXFXFXFXFXFXFXFXFXFXFXFXFXFXFXFXFXFXFXFXFXFXFXFXFXCXCXCXCXFXFXDXDXGXHXPXIX3X-X].H.D.D.Z.D.Z.Z.t.9.9.9.8.<.#.1.1.1.1.<.@.O.O.<.@.O.O.O.O.O.} O.} ( ( ( ( ( ( ( / / / ( / / / / / ( ( ( ( ( O.( O.O.O.( 3.3.3.3.3.2.5.9.9.5.5.7.5.5.5.5.5.7.7.u.e.y.I.Y.U.~.!.!.!.{.!.[.[.+X@X[.[.[.[.[.+X{.[.}.[.[.T.0.@.@.&.q.q.C.q.q.q.9.1.1.1.1.1.1.1.8.8.@.@.@.@.#.O.( ( +.( _ ( / / / / / / / / ( O.#.#.#.$.$.$.w.w.w.w.8.8.8.q.8.8.q.q.q.8.8.8.8.8.8.8.8.8.8.8.d.D.K.E.S.K.E.E.E.L.E.Q.XXXXXXXXXX@X$X&X$X@XoXoXoXoX$X$X$X&X%X%X%X%X$X#X@X@X#X#X#X#X#X#X&X@X#X'.D.=.o.Q ' ' { { { *.C.].].Q.Q.E.U.S.S.U.U.I.W.[.!.Z.d.Z.Z.Z.U.R.W.W.[.[.[.+X>X>X:X:X:X;X>X+X~.Y.y.p.>.>.>.N >.>.>.>.u.Y.f.( v ; > z 9 9 3 3 6 - - & & * & & & & & & & & & & & & & & & & 3 3 3 3 3 3 3 3 3 6 r 6 4 3 4 4 4 4 4 4 4 3 3 3 3 3 3 4 4 3 3 2 3 3 3 3 3 3 3 3 3 3 3 3 3 3 3 3 3 3 3 3 3 2 2 2 2 3 3 3 3 3 3 2 2 2 2 2 2 2 3 2 2 2 2 2 2 2 2 % & & & 3 y a k V ",
"m m m P P P I I ~ ! !  .-.=.=.M.C.F.J.J.L.^.|.|.*X*XeX8X8XqXwXtXtXtXtXtXwXwX0X0XqXwXwXwXtXtXjXtXhXhXhXlXlXxXxXxXxXvXbXbXbXMXmXmXBXmXmXbXbXvXbXbXbXbXbXbXbXbXbXbXbXbXbXbXMXMXMXMXbXmXBXBXVXVXBXBXVXCXCXCXCXCXCXFXFXFXFXFXFXFXFXFXDXDXDXDXDXDXDXDXCXCXCXCXVXVXCXVXVXVXVXVXVXCXDXFXDXDXDXDXFXFXFXFXFXFXFXFXFXFXFXFXFXFXFXFXFXFXFXFXFXFXFXFXFXFXFXFXFXFXFXFXFXFXFXFXGXFXFXFXCXCXCXFXZXZXHXHXGXLXcXsX&X].H.D.D.D.Z.Z.Z.t.t.t.t.9.9.8.4.4.4.1.1.<.@.O.<.@.O.} } O.O.O.O.} ( ( ( } O.O.( ( / ( ( ( / ( / ( ( ( ( ( O.O.O.O.<.<.3.3.3.3.1.2.5.9.9.9.5.e.7.5.5.5.5.7.7.e.y.y.y.Z.I.~.!.{.{.{.[.[.[.[.+X#X[.+X[.[.[.+X{.[.[.[.'.G.q.#.O.#.8.q.C.q.q.q.9.<.8.8.1.8.8.8.8.8.#.1.1.1.#.#.#.#.#.#.#.#.#.O.+._ ( _ _ O.+.#.$.8.$.&.&.w.w.w.w.8.8.8.8.8.$.8.8.8.8.8.8.8.8.8.8.8.d.q.q.q.D.S.K.Q.E.K.K.E.E.E.Q.XXXXXXXXXXXX@X@X$X$X$XoXoX@X$X$X$X&X&X%X%X%X%X#X#X#X#X#X#X#X#X#X#X&X+X#X'.H.=.o.Q { ' { { o.=.H.].'.E.K.K.S.S.S.U.U.U.Q.[.!.U.S.S.S.U.W.W.!.[.[.{.[.{.#X>X;X:X:X;X>X!.~.Y.y.u.>.) >.N a.>.>.>.u.f.f.O.v , , z 9 9 3 3 6 - - & & * & & & & & & & & & & & & & & & & & 3 3 3 3 3 3 3 3 3 7 7 4 3 4 4 4 4 4 4 3 3 3 3 3 4 3 4 4 3 3 2 3 3 3 3 3 3 3 3 3 3 3 3 3 3 3 3 2 2 3 3 3 2 2 2 2 3 3 3 3 3 2 2 2 2 2 2 3 2 2 2 2 2 2 2 2 2 2 % & & & 3 y a k V ",
"m m U U I I ~ ~ Q !  .o.-.=.j.C.C.F.J.J.^.^.|.|.-X*XeXeX8XqXwXwXtXtXtXtXwX0X0X0X0X0XwXwXtXtXtXtXhXhXhXlXlXxXxXxXxXvXbXbXmXMXmXbXBXBXmXbXbXvXbXbXbXbXbXmXbXbXbXbXbXbXbXbXMXMXMXMXbXmXBXBXVXVXBXBXVXCXCXCXCXCXFXFXFXFXFXFXFXFXDXDXCXFXCXCXDXDXDXDXDXDXCXCXVXVXVXVXVXVXVXVXCXCXDXFXDXDXDXFXFXFXFXFXFXFXFXFXFXFXFXFXFXFXFXFXFXFXFXFXFXFXFXFXFXFXFXFXFXFXFXFXFXFXFXFXGXFXFXFXFXCXCXFXFXFXGXLXLXKXSXsXoXK.D.C.D.D.Z.Z.Z.t.t.d.d.t.9.t.9.9.9.5.4.1.@.@.1.@.O.} } O.O.O.O.} } } O.O.O.( ( ( ( ( ( ( ( ( ( ( ( ( / / ( O.( O.3.3.3.3.3.3.2.2.9.9.5.5.e.e.5.5.5.5.7.7.e.y.y.f.Z.I.Y.~.!.{.{.{.{.{.+X+X+X+X+X+X[.W.'.[.[.[.[.'.W.T.b.8.&.&.8.q.D.q.q.q.0.1.1.1.1.1.1.1.1.8.1.8.8.1.@.#.#.#.8.$.#.#.#.#.#.#.#.+.+.+.#.#.&.8.&.&.&.w.w.w.w.w.8.8.8.8.8.8.q.q.d.q.8.8.q.d.d.q.D.D.D.D.D.D.S.G./.E.E.Q.Q./.XX@XXXXXXXXXXX@X@X$X&X$X$X$X&X&X&X$X&X&X&X&X%X%X%X%X#X&X&X#X#X#X#X&X&X+X@X'.H.x.o.! { { ' { *.C.E.XXXXQ.K.K.S.S.A.U.U.T.Q.!.!.!.Q.Q.W.W.!.[.[.[.[.[.[.{.#X>X;X:X:X>X>X+XQ.Y.y.u.p.>.>.N a.>.>.>.p.f.f.u.c , > * 9 9 3 3 6 - - & & * & & & & & & & & 3 3 & & & & & & & & 3 3 3 3 3 3 3 3 r r 7 3 3 4 3 3 4 4 4 3 3 3 3 4 4 4 4 3 3 2 3 3 3 3 3 3 3 3 3 3 3 3 3 3 3 3 2 2 2 2 2 2 2 2 3 3 3 3 3 3 3 3 3 2 2 2 2 3 3 3 2 2 2 2 2 2 2 % & & & & q t k j ",
"m U I I I ~ ~ Q Q !  .o.-.=.j.C.C.J.J.L.^.|.|.|. X*X2XeX8XqXwXwXwXwXtXtXwXqX0X0X0X0XwXwXtXtXtXtXhXhXhXlXlXxXxXvXvXvXbXbXmXMXbXbXBXBXmXbXvXvXbXbXbXbXmXmXbXmXbXbXbXbXbXMXMXMXMXMXbXmXBXBXVXVXBXBXVXCXCXCXCXCXFXFXFXFXFXFXFXFXFXFXCXCXCXDXDXDXDXDXDXDXDXDXDXVXVXVXCXCXCXCXCXCXDXFXDXDXDXFXFXFXFXFXFXFXFXFXFXFXFXFXFXFXFXFXFXFXFXFXFXFXFXFXFXFXFXFXFXFXFXFXFXFXFXFXFXCXCXFXFXCXCXFXFXCXZXHXHXLXSXgXoXE.G.D.D.D.Z.Z.Z.t.t.d.d.r.9.r.9.9.9.9.4.1.@.O.1.@.O.} O.O.O.O.} ( } } O.O.( ( O.( ( ( O.( ( ( } O.O.( / / ( ( ( ( O.3.3.3.,.3.2.2.2.2.2.2.5.e.5.5.5.5.7.e.y.y.I.I.Y.I.Y.~.!.!.{.{.+X#X#X#X+X[.#X#X[.Q.W.}.[.}.W.R.W.W.S.q.8.8.q.D.Z.q.q.t.r.4.<.<.3.3.3.3.#.1.1.1.1.@.#.O.#.$.8.$.#.#.#.#.#.#.&.@.O.+.+.#.#.&.&.&.8.8.8.8.&.&.q.q.q.q.q.d.D.D.D.d.q.d.D.D.D.D.q.d.D.S.S.E.E.E.XXQ.K.Q.Q.E.E.Q.@X@X@XXX@X@X$X$X%X&X&X%X%X%X%X$X%X%X%X%X%X%X%X%X%X&X&X#X#X#X&X%X%X+X+X'.H.x.*.o.{ { ' o.=.H.'.@X$XQ.K.E.U.S.A.U.U.T.Q.W.!.+X+X!.!.[.+X+X[.[.[.!.[.[.#X>X>X;X;X>X>X>X!.~.Y.e.p.>.>.>.a.>.>.>.p.i.f.u.c , - # 9 9 3 3 - 6 - & & * & & & & & & & % 3 3 & & & & & & & & 3 3 3 3 3 3 3 3 r r 6 3 3 6 3 3 3 3 3 3 3 3 3 4 4 4 4 3 3 2 3 3 3 3 3 3 3 3 3 3 3 3 3 3 3 3 1 2 2 3 3 3 2 2 3 3 3 3 3 3 3 3 3 3 2 2 2 2 3 3 2 2 2 2 2 2 2 % & & & & q t k j ",
"P P I I I I T ~ ~ Q ;.o.-.=.M.M.C.J.J.J.J.|.|. X*X*X2XeXqXwXwXtXtXtXwXwXwXwX0X0X0X0XwXwXwXtXjXyXyXhXhXlXlXzXzXzXvXbXbXbXmXmXBXBXBXBXmXbXbXbXbXbXbXbXbXbXbXbXbXbXzXzXbXbXmXmXmXBXbXmXmXBXBXBXVXVXBXCXVXVXCXCXFXFXFXFXFXFXFXFXFXFXFXFXFXDXFXCXCXCXFXDXCXVXCXCXVXVXVXVXVXVXCXCXFXFXCXCXFXFXFXFXFXFXFXFXFXFXFXFXFXFXFXFXFXFXFXFXFXFXFXFXFXFXFXFXFXFXFXFXFXFXFXFXFXFXFXFXFXFXFXFXFXCXFXCXFXFXHXHXSXgXoXK.G.A.b.v.Z.c.Z.Z.d.d.y.t.r.e.9.9.9.9.1.1.1.1.<.O.<.<.<.<.<.O.} } } } O.O.} } O.O.O.( ( ( ( ( ( } } } ( ( ( ( ( O.3.O.( 3.3.3.3.2.5.5.5.5.5.5.5.5.5.e.e.r.y.y.m.m.m.I.~.!.!.!.!.!.$X#X#X$X+X+X[.[.!.W.W.[.[.!.W.W.W.W.T.D.q.8.0.t.D.Z.c.0.9.9.9.<.O.1.1.<.<.<.@.@.@.#.#.O.#.#.#.#.O.#.#.#.O.O.1.#.O.( ( O.@.8.1.8.8.8.8.8.q.D.q.q.q.q.q.q.q.d.D.C.x.C.D.Z.S.S.S.Z.Z.Z.S.T.Q.Q.Q.Q.Q.Q.Q.XXXXXXXXXXXX@X$X&X%X%X$X$X%X%X%X%X%X%X%X%X%X%X%X$X$X#X@X@X#X#X%X%X&X#X&X%X%X'.D.x.#.{ o.+.+.+.w.Q.#X#X+X'.Q.Q.T.U.I.Z.Z.~.!.!.!.!.!.[.>X{.!.+X+X!.!.[.!.!.[.+X>X>X>X>X;X,X!.~.Y.y.3.>.>.>.>.>.>.>.p.f.y.f.c , e # & & 3 6 6 - & & * * * * * & & * * * & & & & & & & & & & 3 3 3 3 3 & q q q 3 6 3 3 3 3 3 3 3 3 3 3 3 3 3 3 3 3 3 3 3 3 3 3 3 3 3 3 3 3 3 3 3 3 3 3 3 3 3 3 3 3 3 2 3 2 2 2 2 2 2 2 2 1 2 3 3 2 3 2 2 3 2 2 2 1 1 $ $ $ $ % 3 r a h j ",
"U I I I T T T T T ! ;.o.-.=.M.M.N.J.J.J._.|. X X X*X2XeXqXwXtXtXtXwXwXwXwXwX0X0X0X0X0XwXwXtXyXjXyXhXhXlXlXzXvXvXbXbXbXbXmXmXmXmXBXBXmXbXbXbXbXbXbXbXbXbXbXbXbXbXzXbXbXmXmXmXmXmXmXmXmXBXBXBXVXVXBXCXVXVXCXCXFXFXFXFXFXFXFXFXCXCXDXDXFXFXCXFXCXCXFXCXCXCXCXCXVXZXVXVXZXZXCXCXFXFXCXCXFXFXFXFXFXFXFXFXFXFXFXFXFXFXFXFXFXFXFXFXFXFXFXFXFXFXFXFXFXFXFXFXFXFXFXFXFXFXFXFXFXFXFXFXFXFXFXCXFXDXHXHXSXgXoXE.G.G.A.Z.A.Z.I.Z.Z.d.Z.y.y.y.t.t.y.e.9.2.1.2.3.3.3.3.1.3.3.<.} } } } 3.<.3.O.O.O.O.( ( ( ( ( ( } } } ( ( ( ( } } } } 3.3.3.3.2.2.5.5.5.5.5.5.7.7.7.e.e.y.v.v.Y.Y.I.Y.~.!.#X#X+X$X$X$X+X+X+X+X[.[.!.!.!.!.!.!.W.W.W.W.T.A.D.c.t.v.Z.Z.c.t.r.r.5.1.1.5.2.<.3.<.#.#.#.#.#.#.#.1.#.#.O.O.#.#.#.O.<.<.#.O.O.<.1.1.1.1.4.8.8.8.0.q.q.q.q.q.D.D.D.D.D.D.D.D.Z.S.S.U.S.S.S.S.U.Q.Q.Q.Q./.XXXXXXXXOX@XoX@X@X$X$X&X%X%X$X$X%X%X%X%X%X%X%X%X%X%X%X$X$X#X+X+X@X#X#X$X#X#X#X#X&X'.D.x.&.+.{ o.o.+.x.Q.+X'.+X'.Q.Q.T.U.U.I.I.Y.Y.U.Y.R.Q.W.[.!.!.!.!.Q.R.R.!.!.!.+X>X>X>X;X:X>X!.!.Y.i.u.p.>.>.>.>.>.>.p.f.y.y.c - w # & 9 3 6 6 6 - & * * * & & & & * * % & & & 3 & & & & & & & 3 3 3 3 & q q 6 3 6 3 3 3 3 3 3 3 3 3 3 3 3 3 3 3 3 3 3 3 3 3 3 3 3 3 6 6 3 3 3 3 7 7 7 3 3 3 3 3 3 3 2 2 2 2 2 2 2 2 2 2 1 2 2 2 2 2 2 3 3 2 2 2 2 1 $ $ $ $ % 3 r a h k ",
"I I ~ ~ ~ ~ T T ! ;.o.o.-.=.M.M.J.J.J.J._.|. X X X2X2X8XqXwXtXyXtXtXwXwXwXwX0X0X0X0X0XwXwXtXyXjXyXhXlXlXlXzXvXvXbXbXbXbXmXmXmXmXBXBXMXMXMXbXbXbXbXbXbXbXbXbXbXbXvXbXmXmXmXbXmXmXmXBXBXBXBXBXBXBXBXBXVXVXCXCXFXFXFXFXFXFXFXFXCXCXDXFXDXDXFXFXCXCXDXCXCXCXCXCXCXCXCXCXZXZXCXCXCXFXCXCXFXFXFXFXFXFXFXFXFXFXFXFXFXFXFXFXFXFXFXFXFXFXFXFXFXFXFXFXFXFXFXFXFXFXFXFXFXFXFXFXFXFXFXFXFXFXFXCXFXGXGXHXSXsXoXE.G.G.A.I.I.Z.U.Z.Z.d.Z.Z.v.y.Z.d.y.y.9.9.u.2.1.1.2.2.2.2.3.<.O.3.O.<.3.3.<.3.O.O.O.O.( ( ( ( } } O.} } } } } O.} ( } 3.3.2.2.2.2.5.5.2.2.2.2.e.7.5.7.e.r.v.m.Y.Y.I.Y.R.{.>X;X>X#X#X$X[.[.{.+X[.[.[.[.[.[.!.!.!.W.W.W.T.T.T.S.D.Z.Z.Z.c.t.t.t.9.9.9.r.9.<.<.<.1.1.@.O.O.O.<.1.<.#.O.O.O.@.@.@.3.3.1.1.8.1.8.1.1.1.4.9.9.q.0.0.0.q.t.Z.Z.Z.Z.Z.D.Z.Z.Z.S.S.U.U.U.S.U.U.T.Q.Q.Q.Q.XXXX@X@X@X@X@X@X$X$X&X%X&X&X$X$X$X$X$X%X%X%X%X%X%X%X%X$X$X$X#X+X+X+X@X#X#X#X#X#X#X@X'.G.x.=.*.{ +.#.=.D.'.+X'.+X'.'.Q.W.R.U.Y.Y.y.9.2.e.y.Z.I.Y.Y.R.!.Q.U.I.Z.~.~.Q.!.!.>X>X:X:X>X{.!.Y.i.7.p.>.>.>.>.>.>.p.i.y.u.v ; , * z q 3 6 6 - - & * * & & & & & * * $ & & 3 3 3 3 & & & & 3 3 3 3 3 3 6 6 6 3 6 3 3 3 3 3 3 3 3 3 3 3 3 3 3 3 3 3 3 3 3 3 3 3 3 3 3 3 3 3 3 3 3 3 7 3 3 3 2 2 2 2 2 2 2 2 2 2 2 1 2 2 1 2 2 2 2 2 3 2 2 2 2 2 2 1 1 $ $ $ % 3 r a h k ",
"I ~ ~ ~ ~ ~ T ! ;.;.o.-.-.s.M.M.J.J.J.J.|.|. X X*X2XeX8XqXwXwXtXtXtXwXwXwXwXwX0X0X0X0XwXwXyXyXjXyXhXlXlXlXzXvXvXbXbXbXbXmXmXmXmXBXBXBXMXMXMXbXbXbXbXbXbXbXbXbXbXbXbXmXmXmXbXbXmXBXBXBXBXBXBXBXBXBXCXVXVXCXCXFXFXFXFXFXFXFXFXCXCXFXFXFXDXFXCXCXCXDXDXDXCXCXVXCXCXCXCXCXCXCXCXCXFXCXCXFXFXFXFXFXFXFXFXFXFXFXFXFXFXFXFXFXFXFXFXFXFXFXFXFXFXFXFXFXFXFXFXFXFXFXFXFXFXFXFXFXFXFXFXFXFXFXCXFXGXGXGXIX3X].G.G.T.A.I.U.I.Y.Y.Z.d.v.Z.m.m.y.t.y.r.e.9.u.2.1.1.2.2.2.2.3.<.3.<.<.<.3.3.3.O.O.O.O.O.O.O.O.O.O.O.O.O.} } } O.O.( ( ( 3.3.2.2.2.2.5.2.2.2.2.5.5.5.2.2.5.e.y.v.m.m.Y.U.R.!.#X>X>X>X#X#X$X$X+X[.[.[.[.[.[.[.!.W.!.!.W.W.R.Q.Q.Q.Z.Z.c.t.t.0.0.0.9.r.t.r.2.3.3.1.<.@.3.O.O.O.<.1.1.#.O.O.O.@.<.1.O.3.1.1.8.8.8.1.9.9.9.q.Z.Z.t.q.q.q.D.Z.Z.Z.Z.D.Z.Z.Z.Z.S.S.S.S.U.U.U.U.T.Q.Q.Q.Q.Q.XX@X@XXXXXXXoX$X&X%X%X%X%X$X%X&X$X$X$X%X%X%X%X%X%X%X$X$X#X#X+X+X+X#X$X$X#X#X&X%X#X].K.D.x.=.+.+.&.w.K.@X$X+X+XXX!.W.Q.R.~.Y.I.2.( ) ( 3.2.9.e.y.f.Y.Y.I.v.v.I.I.Y.U.!.!.>X;X>X>X{.~.Y.f.e.p.>.>.>.>.>.>.p.i.f.1.v , > * q q 3 6 6 - - & & * & & & & & * * $ & & & 3 3 3 & & & & 3 3 3 3 3 3 6 6 6 3 6 3 3 3 3 3 3 3 3 3 3 3 3 3 3 3 3 3 3 3 3 3 3 3 3 3 3 3 3 3 3 3 3 7 7 3 3 2 2 2 2 2 2 2 2 2 2 2 2 2 2 2 1 2 2 3 3 3 2 2 2 2 2 2 2 2 2 $ % % % 3 r a h k ",
"I ~ ~ ~ T ~ Q ! ;.o.o.-.-.s.M.M.J.J.J.J.|.|. X X*X2XeX9XqXwXwXtXjXtXtXwXwXwX0XwX0X0X0XwXwXyXyXjXyXhXhXlXlXlXvXvXbXbXbXbXmXmXmXmXMXMXBXBXMXMXbXbXbXbXbXbXbXbXbXbXbXbXmXmXmXbXbXmXBXBXBXBXVXVXBXBXBXCXVXVXCXCXFXFXFXFXFXFXDXDXCXCXDXFXDXFXFXCXCXCXDXDXDXCXCXDXVXCXCXCXCXCXCXCXCXCXFXFXFXFXFXFXFXFXFXFXFXFXFXFXFXFXFXFXFXFXFXFXFXFXFXFXFXFXFXFXFXFXFXFXFXFXFXFXFXFXFXFXFXFXFXFXFXFXFXFXFXGXGXGXIX3X].H.D.G.A.I.U.Z.Y.Z.d.y.y.y.m.m.y.t.r.r.t.e.9.5.2.2.2.2.2.2.3.3.1.<.<.<.<.3.} } O.O.O.O.O.O.O.O.O.3.O.O.} } 3.3.O.( ( ( 3.3.2.2.2.2.2.2.2.2.2.5.5.5.2.2.5.r.v.m.m.I.Y.~.!.!.+X#X#X#X%X>X;X>X#X+X[.[.[.[.[.[.!.W.!.!.W.W.E.Q.Q.Q.A.A.b.c.t.0.0.0.0.t.r.5.<.O.<.2.<.3.<.O.O.O.<.<.1.3.O.O.O.<.1.1.1.1.2.2.u.u.9.9.q.q.t.d.Z.Z.d.q.t.d.D.Z.Z.Z.D.D.Z.Z.Z.Z.Z.Z.Z.Z.S.U.U.U.T.T.Q.Q.Q.'.XX+X@XXXXXXXXX@X$X%X%X%X%X%X%X%X%X%X%X%X%X%X%X%X$X$X#X#X#X#X+X+X@X#X#X$X#X#X&X#X@X'.E.H.x.=.*.*.=.x.T.@X$X@X+X+X!.!.Q.~.U.Y.y.( ) b ) ) ( ( 3.2.u.e.e.y.y.y.y.y.I.Y.R.!.>X;X>X>X{.~.Y.f.y.u.>.>.>.>.>.>.p.i.f.O.c , > * q 9 3 6 6 ; - - & & & & & & & * * * & & 3 3 3 3 & & & & & 3 3 3 3 3 6 6 3 3 3 3 3 3 3 3 3 3 3 3 3 3 3 3 3 3 3 3 3 3 3 3 3 3 3 3 3 3 3 3 3 3 3 3 3 3 2 2 2 2 2 2 2 2 2 2 2 2 2 2 2 2 2 2 2 3 2 2 2 1 1 2 2 2 1 1 2 $ % % % 3 r a h k ",
"I ~ ~ ~ T ~ ! ! ;.o.o.-.-.s.M.M.J.J.J.J.|.|. X X2X2XeX9XqX0XwXtXjXjXtXwXwXwXwXwX0X0X0XwXwXyXyXjXyXhXhXlXlXlXvXvXbXbXbXbXmXmXmXmXMXMXBXBXBXMXbXbXbXbXbXbXbXbXbXbXbXbXmXmXmXmXmXmXmXBXBXVXVXVXVXBXBXCXVXVXCXCXFXFXFXFXFXFXDXDXCXCXFXFXFXFXFXCXCXCXDXDXDXDXDXDXDXDXCXCXCXCXCXCXCXFXFXFXFXFXFXFXFXFXFXFXFXFXFXFXFXFXFXFXFXFXFXFXFXFXFXFXFXFXFXFXFXFXFXFXFXFXFXFXFXFXFXFXFXFXFXFXFXFXFXCXDXFXGXGXIX3X_.D.D.A.A.I.I.Z.I.Z.d.y.y.v.m.v.t.t.t.y.t.t.r.9.2.2.2.1.2.1.3.<.2.<.<.<.<.3.} } O.3.<.<.O.O.O.O.3.3.3.O.} O.3.3.O.} } 3.3.2.2.2.2.2.2.2.2.2.2.5.5.5.5.7.r.y.v.I.m.Y.R.!.!.!.+X#X#X#X%X>X:X;X#X+X+X[.[.[.[.[.!.!.!.!.!.W.W.E.Q.E.T.U.A.v.c.c.t.r.9.0.5.<.} O.<.<.<.<.<.<.<.O.<.<.1.<.3.<.1.1.2.2.u.u.u.u.9.e.t.t.q.t.d.Z.Z.Z.d.t.D.Z.Z.Z.Z.Z.D.D.S.S.S.S.S.Z.Z.Z.Z.U.U.T.T.T.Q.Q.XXXX+X@X@X@X$X@XoX@X$X%X%X%X%X%X%X%X%X%X%X%X%X%X%X%X$X@X@X@X#X#X+X+X@X#X#X#X#X+X{.#X{.'.E.D.x.*.=.=.w.D.T.XX@X$X@X+X+X[.!.~.~.Y.7.) v v b N ) ) ( >.p.3.3.u.e.y.e.y.v.I.U.!.,X;X>X>X>X!.~.Y.i.u.>.>.>.>.>.p.u.i.y.( v , - & 9 & 3 6 7 ; 6 - - & & & & & & & & & & & 3 3 3 3 & & & & 3 3 3 3 3 3 6 6 3 3 3 3 3 3 3 3 3 3 3 3 3 3 3 3 3 3 3 3 3 3 3 3 3 3 3 3 3 3 3 3 3 3 3 3 3 3 3 3 2 2 3 2 2 2 2 2 2 2 2 2 2 2 2 2 2 2 2 2 1 1 1 1 1 2 1 2 2 3 % % % 3 r a h k ",
"I I ~ ~ ~ Q ! ;.;.o.o.-.-.M.M.C.J.J.J.J.).|. X X2X2XeX9XqX0XwXtXjXtXtXtXwXwXwXwX0X0X0XwXwXyXyXjXyXhXhXlXlXzXvXvXbXbXbXbXmXmXmXmXMXMXBXBXBXMXbXbXbXbXbXbXbXbXbXbXvXbXmXmXmXmXBXBXbXmXBXVXVXVXVXBXBXCXVXVXCXCXFXFXFXFXFXFXDXDXCXCXFXFXFXFXCXCXCXCXCXDXDXDXDXDXDXDXDXDXFXFXFXFXFXFXFXFXFXFXFXFXFXFXFXFXFXFXFXFXFXFXFXFXFXFXFXFXFXFXFXFXFXFXFXFXFXFXFXFXFXFXFXFXFXFXFXFXFXFXFXFXFXFXFXCXDXDXGXGXIX3X_.D.D.A.A.I.I.Z.I.Z.d.d.Z.v.m.v.y.t.y.y.y.y.e.5.9.2.2.1.2.2.3.3.2.<.3.3.<.3.<.3.O.3.<.3.3.O.O.O.3.3.O.O.} } 3.3.3.3.3.3.2.u.7.2.e.7.2.2.2.2.2.5.5.5.7.e.r.v.I.I.Y.~.!.!.!.!.#X>X>X#X$X#X;X;X#X+X#X+X[.[.[.!.!.!.!.!.!.W.W.Q.Q.Q.W.T.I.A.A.Z.b.r.9.0.5.<.3.3.1.<.3.<.1.1.1.1.1.1.1.1.1.1.2.9.9.u.e.e.e.r.t.t.d.d.t.d.Z.Z.Z.Z.Z.Z.Z.Z.Z.Z.Z.Z.Z.Z.Z.Z.S.S.U.U.S.S.A.U.W.Q.Q.Q.Q.+X+X+X@X@X$X$X&X&X$X$X$X&X%X%X%X%X%X%X%X%X%X%X%X$X%X%X$X@X+X+X@X#X+X+X+X+X+X+X{.[.{.{.{.[.'.K.D.8.x.x.D.G.Q.'.#X#X%X#X#X+X!.!.~.Y.3.) v v b b b N ) ) >.( >.,.u.u.u.7.y.y.I.~.!.>X>X;X>X!.~.Y.i.p.>.>.>.>.>.p.u.y.e.Y i , & & 9 3 3 6 7 7 6 & > z * & & & & & & & & & & & & & & & & & & 3 3 3 3 3 q q q 3 3 3 3 3 3 3 3 3 3 3 3 3 3 3 3 3 3 3 3 3 3 3 3 3 3 3 3 3 3 3 3 3 3 3 3 3 3 3 3 3 3 3 2 2 3 3 3 3 2 3 3 3 2 2 2 2 2 1 $ $ $ $ 1 2 2 2 2 3 % & & 3 r a f h ",
"I Q ~ Q Q T ;._ ;.o.o.-.-.M.M.J.J.J.J.J.).|..X X2X2XeX9XqX0XwXtXjXtXtXtXwXwXwXwX0X0X0XwXwXyXyXjXyXhXhXlXlXzXvXvXbXbXbXbXmXmXmXmXMXMXBXBXBXMXbXbXbXbXbXbXbXbXbXbXvXbXmXmXmXmXBXBXbXmXBXVXVXCXVXVXBXCXVXVXCXCXFXFXFXFXFXFXDXDXCXCXFXFXFXFXFXCXCXCXCXDXDXDXDXDXDXDXDXDXFXFXFXFXFXFXFXFXFXFXFXFXFXFXFXFXFXFXFXFXFXFXFXFXFXFXFXFXFXFXFXFXFXFXFXFXFXFXFXFXFXFXFXFXFXFXFXFXFXFXFXFXFXFXFXCXDXDXGXGXcX3X].H.D.G.A.I.I.Z.I.Z.Z.Z.I.I.m.v.y.t.y.t.y.y.9.1.e.9.2.1.3.2.2.2.<.3.3.2.2.2.2.<.3.<.3.3.O.O.O.O.3.3.O.} } } 3.3.3.3.3.2.e.e.7.2.e.7.2.2.2.2.2.5.2.2.5.e.r.v.v.m.Y.Y.~.!.!.!.#X>X;X%X#X#X#X#X#X+X#X+X[.!.!.!.!.!.!.!.!.!.[.!.!.!.W.T.U.I.A.A.t.r.r.r.e.2.2.9.5.<.<.1.2.2.2.2.2.2.1.1.2.2.e.e.e.e.e.e.e.y.t.d.d.d.d.Z.U.U.Z.Z.Y.U.S.S.Z.Z.S.S.S.S.Z.Z.S.U.U.T.T.T.S.T.W.W.W.W.[.@X+X+X@X@X@X$X&X&X%X&X$X$X$X$X$X$X$X$X%X%X%X%X$X#X%X%X$X@X+X+X@X#X+X+X+X+X[.[.[.[.[.{.#X@X+X].H.x.C.D.G.Q.'.+X$X;X;X;X#X$X+X!.~.Y.3.) v v b b b b N ) >.) ) >.p.p.p.3.7.e.y.I.!.!.>X>X>X!.~.f.i.p.>.>.>.>.p.7.y.y.1.c e - * 3 9 3 3 6 7 7 6 - > z * * & & & > 3 3 & & & & & & & & & & & 3 3 3 3 3 q q q 3 3 3 3 3 3 3 3 3 3 3 3 3 3 3 3 3 2 3 3 3 3 3 3 3 3 3 3 3 3 3 3 3 3 3 3 3 3 3 3 3 3 3 2 2 3 3 3 3 2 2 3 3 2 2 2 2 2 1 $ $ $ $ 1 1 2 2 2 3 % % & 3 r a f h ",
"Q Q Q Q ! ! ! ;.;.o.o.-.-.M.M.N.J.J.J.J.).|..X X2X2XeX9XqX0XwXtXjXjXtXwXwXwX0XqX0X0X0XwXwXyXjXhXhXhXlXlXlXzXvXvXvXvXbXbXbXmXmXmXmXMXMXBXBXMXbXbXbXbXbXbXbXbXbXbXbXbXbXbXmXmXBXBXbXmXBXVXVXVXBXBXCXCXVXCXCXCXDXFXFXFXFXFXFXFXCXCXDXFXFXFXFXFXDXCXDXDXCXDXCXCXCXCXCXCXCXFXCXCXFXFXFXFXFXFXFXFXFXFXFXFXFXFXFXFXFXFXFXFXFXFXFXFXFXFXFXFXFXFXFXFXFXFXFXFXFXFXFXFXFXFXFXFXFXFXFXFXFXFXFXFXGXDXDXHXcX3X_.H.D.D.A.I.I.v.I.Z.Z.Z.I.I.m.v.y.t.r.r.r.r.r.r.e.5.2.2.5.5.2.3.<.3.3.<.3.<.3.} <.3.3.O.O.O.O.3.} } <.<.3.3.<.3.3.3.3.5.e.e.e.7.3.2.u.u.2.2.3.3.2.2.5.5.e.r.v.I.Y.~.Y.U.!.[.+X>X:X;X;X>X%X%X%X%X+X[.[.[.[.[.!.W.!.!.!.!.!.W.!.!.!.W.T.T.A.A.v.b.9.9.9.5.2.1.1.5.2.2.3.2.2.2.3.3.3.3.3.2.5.e.5.2.e.e.t.t.t.d.d.f.Z.Y.Y.Y.U.U.T.Q.U.S.S.S.U.S.Z.Z.U.U.S.U.T.T.T.U.W.R.W.!.[.[.!.Q.@XXXXXXXXX@X$X&X%X%X&X$X$X%X%X%X;X%X%X%X%X%X%X%X%X$X#X@X#X#X@X+X+X+X[.+X+X+X[.[.{.{.{.@X&X@XG.x.H.H.K.'.#X%X%X;X:X;X>X$X!.!.!.f.>.N v v b b b b ) ) >.>.>.>.>.>.p.p.u.7.e.y.~.!.>X>X>X,X~.Y.i.p.p.) >.p.p.7.Y.e.<.c , w & 9 q $ 3 6 7 6 - & & z & & & & & & & & & & 3 3 3 3 3 3 3 3 3 3 3 3 3 3 3 3 3 3 3 3 3 3 & 3 q 6 3 3 3 3 3 3 3 3 3 3 3 3 3 4 3 3 3 3 3 3 6 6 3 3 3 3 6 3 2 2 2 2 2 3 3 3 3 3 3 3 2 2 3 3 3 3 2 2 2 2 2 2 2 2 1 1 2 3 2 3 3 & 3 3 r a h j ",
"Q Q Q Q Q ! ! ;.;.o.o.-.=.M.M.N.J.J.J.).|.|. X X*X2XeX9XqX0XwXtXjXtXtXwXwXwX0XqX0X0X0XwXwXtXyXjXhXhXlXlXlXzXvXvXbXbXbXbXbXmXmXmXmXMXBXBXBXMXbXbXbXbXbXbXbXbXbXbXbXmXbXmXmXmXBXBXbXmXBXVXVXVXBXBXBXCXVXCXCXCXDXFXFXFXFXFXFXFXCXCXDXFXFXFXFXFXDXCXDXCXCXCXCXVXCXCXCXCXCXFXCXCXFXFXFXFXFXFXFXFXFXFXFXFXFXFXFXFXFXFXFXFXFXFXFXFXFXFXFXFXFXFXFXFXFXFXFXFXFXFXFXFXFXFXFXFXFXFXGXGXFXFXFXFXFXDXHXGXcX8XOXH.D.D.A.I.U.I.I.I.I.I.I.I.I.v.v.t.r.r.r.r.e.e.e.5.2.2.5.5.2.3.2.2.2.2.<.3.3.<.3.3.3.3.O.O.O.3.} <.<.<.<.<.3.3.5.5.2.5.7.7.7.7.2.2.u.u.2.2.2.3.2.5.7.e.e.y.v.I.Y.~.Y.R.!.+X#X;X;X;X;X;X%X%X#X#X+X[.[.[.[.{.!.!.!.!.!.!.!.!.!.[.{.!.W.T.U.A.v.v.r.r.e.9.5.1.1.2.2.2.2.2.2.2.2.3.2.3.3.2.5.e.5.2.u.u.e.t.y.d.Z.Z.Y.U.U.U.U.U.T.Q.U.S.S.U.U.U.S.Z.S.S.S.U.T.T.T.U.R.W.Q.W.W.Q.Q.Q.+X+XoXXXoX@X$X&X%X&X$X$X$X$X%X%X%X%X$X%X%X%X%X%X%X$X@X+X@X@X@X@X+X+X[.+X+X+X[.[.#X{.{.{.@X@X].H.K.G.E.XX#X%X;X:X:X;X;X>X#X#X!.y.( N v v b b b b N N ) ) ) ) >.>.>.>.,.p.u.e.Y.~.,X>X>X,X~.f.i.p.p.>.>.u.p.7.Y.e.^ i - - & 3 y 3 3 6 7 6 6 & & z & & & & & & & & & & 3 3 3 3 & & 3 3 3 3 & 3 3 3 3 3 3 3 3 3 3 3 & 3 q 6 3 3 3 3 3 3 3 3 3 3 3 3 3 4 3 3 3 3 3 3 6 3 3 3 3 6 3 3 2 2 2 2 3 3 3 3 3 3 3 3 2 2 3 3 3 3 3 3 2 2 2 2 2 2 1 1 2 3 2 3 3 & 3 3 r a f j ",
"I I Q Q Q ! ! ;.o.o.o.-.-.M.M.M.J.J.J.).|.|. X X*X2XeXeXqX0XwXtXtXwXwXwXtXwXwX0X0X0XwXwXwXtXyXyXhXhXlXlXlXlXvXvXbXbXbXbXmXmXmXZXMXMXBXBXMXMXbXbXbXbXbXbXbXbXbXbXmXmXmXmXmXmXBXBXbXmXBXBXVXVXVXVXCXCXVXCXCXCXDXFXFXFXFXFXFXFXCXCXDXFXFXFXFXFXDXCXCXCXVXCXVXVXCXCXFXFXFXFXDXDXFXFXFXDXFXFXFXFXFXFXFXFXFXFXFXFXFXFXFXFXFXFXFXFXFXFXFXFXFXFXFXFXFXFXFXFXFXFXFXFXFXFXFXFXFXFXGXGXDXFXFXFXFXFXDXGXPXgX-XL.D.G.A.A.U.U.Y.Y.I.I.I.I.I.v.v.v.r.r.e.e.e.5.e.5.2.2.5.5.2.3.2.2.5.5.2.2.2.2.3.3.<.3.3.3.O.O.<.3.<.<.3.3.3.<.e.e.7.7.7.2.2.2.2.u.u.2.2.3.2.2.2.2.e.r.y.y.I.I.m.Y.R.!.{.#X#X:X;X;X;X;X%X%X#X#X#X+X[.[.!.!.!.!.!.!.!.!.!.[.[.[.[.[.W.R.T.I.A.v.b.b.r.9.5.5.1.1.9.2.2.2.2.2.2.2.2.1.1.2.2.9.5.2.2.u.e.t.f.I.I.I.U.U.~.R.T.T.T.T.U.U.U.U.T.U.U.S.S.Z.S.U.T.T.T.T.W.W.W.W.W.Q.Q.'.'.+X$X$X$X@X$X&X%X&X$X$X@X$X$X$X%X$X$X$X%X;X;X;X%X#X+X+X+X+X@X@X[.[.[.+X+X+X{.[.{.#X{.{.@X#X@X'.].Q.'.+X$X%X;X:X:X:X:X:X;X>X!.f.( N b b b b b b b N N N N ) ) ) ) >.>.p.p.u.i.Y.!.,X,X,X~.f.u.p.>.>.p.7.7.y.m.1.c ; * - * 3 y q 6 6 7 7 6 & & & & & & & & & & & & & 3 3 & & & & 3 3 & & & 3 3 3 3 3 3 3 3 3 3 3 3 3 q 6 3 3 & 3 3 3 3 3 3 3 3 3 3 3 2 2 2 2 3 3 3 3 3 3 3 3 3 3 2 2 3 3 3 3 3 3 3 3 2 3 2 2 3 3 3 3 3 3 3 3 2 3 2 2 1 1 2 3 2 3 3 & & 3 r a h j ",
"I I Q Q Q ! ! ;.o.o.o.-.-.M.M.M.J.J.J.).|.|. X X*X2XeX9XqX0XtXtXtXwXwXwXwXtXwX0XwXwXwXwXwXtXyXyXhXhXlXlXlXzXvXvXbXbXbXmXmXBXZXZXBXBXBXBXMXMXbXbXMXMXMXMXMXMXMXMXbXmXmXmXmXmXBXBXbXmXBXBXVXVXVXVXBXCXVXCXCXCXDXFXFXFXFXFXFXFXCXCXDXFXFXFXFXFXDXDXCXCXCXCXCXCXCXDXFXFXFXFXDXDXFXFXFXDXFXFXFXFXFXFXFXFXFXFXFXFXFXFXFXFXFXFXFXFXFXFXFXFXFXFXFXFXFXFXFXFXFXFXFXFXFXFXFXFXFXFXGXGXDXFXFXFXFXFXDXGXHXfX3XL.F.G.T.A.I.U.Y.Y.Y.I.I.Z.v.v.v.t.r.r.e.e.e.5.e.5.5.2.5.5.2.2.2.5.5.5.5.5.2.2.3.3.<.3.3.O.O.O.3.<.<.<.3.3.3.2.e.e.r.e.e.7.2.2.7.u.2.2.2.3.2.2.2.2.e.y.y.v.I.Y.I.~.R.!.#X>X>X:X:X:X:X;X;X;X%X#X#X#X{.!.!.!.!.!.R.!.!.!.!.[.[.[.[.[.W.W.T.T.A.v.v.c.r.e.9.5.5.1.9.5.2.1.2.2.2.2.2.2.2.2.2.5.5.5.2.u.e.y.I.I.I.I.U.U.T.R.T.T.R.R.Q.Q.T.T.T.T.U.S.S.S.S.U.Q.Q.Q.Q.W.W.W.W.W.T.!.+X'.+X%X%X$X$X$X&X%X%X%X$X@X@X@X@X#X#X#X$X%X;X;X;X%X#X+X[.+X+X@X@X[.[.[.+X+X+X+X[.{.#X#X{.{.&X&X&XoX'.XX@X#X#X;X:X:X:X:X:X:X:X#XY.3.) N b b b b b b N N N N N ) ) >.>.>.>.p.p.y.Y.~.,X,X,X~.f.i.p.>.p.p.7.e.v.9./ c w - w & 3 q 3 6 6 7 7 6 & & z & & & & & & & & & & 3 3 & & & & 3 3 & & & 3 3 3 3 3 3 3 3 3 3 3 3 3 q 6 3 3 & 3 3 3 3 3 3 3 3 3 3 3 2 2 2 2 3 3 3 3 3 3 3 3 3 3 3 3 3 3 3 3 3 3 3 3 2 2 2 2 3 3 3 3 3 3 3 3 3 3 2 2 1 1 2 3 2 3 $ % & 3 r a h j ",
"I I Q Q ! ! ! o.o.o.o.-.-.M.M.M.J.J.J.).).|. X X*X2XeX9X0X0XtXyXtXwXwXwXtXtXwX0XwXwX0XwXwXtXyXyXhXhXlXlXlXzXvXvXbXbXbXmXmXmXZXZXBXBXBXBXMXMXbXbXMXMXMXMXMXMXMXMXmXmXmXmXmXmXBXBXmXBXBXBXVXVXVXVXCXCXVXCXCXDXFXFXFXFXFXFXDXFXCXCXFXFXFXFXFXFXDXDXCXCXCXCXCXCXDXCXDXDXCXFXFXFXFXFXDXFXFXFXFXFXFXFXFXFXFXFXFXFXFXFXFXFXFXFXFXFXFXFXFXFXFXFXFXFXFXFXFXFXFXFXFXFXFXFXFXFXFXFXFXDXFXFXFXFXFXFXFXGXGXcXsX|.H.K.T.I.I.I.Y.Y.Y.Z.Z.Z.v.v.y.r.r.r.r.r.e.e.e.7.7.5.5.5.5.5.2.5.5.5.5.2.2.2.3.<.3.O.O.O.O.O.3.<.<.<.3.3.2.2.5.e.y.y.e.7.2.3.2.2.2.2.3.3.2.2.2.2.e.e.y.y.I.I.Y.R.!.!.#X>X#X;X:X;X;X:X:X;X;X;X#X#X+X[.!.!.!.!.R.!.!.!.!.[.[.+X[.{.[.W.W.T.I.A.A.v.r.e.9.9.5.1.5.2.2.1.1.1.1.2.2.1.2.1.2.5.9.e.e.e.v.Z.I.I.I.I.Z.A.U.T.T.T.R.W.!.W.W.W.T.T.S.A.S.S.T.T.Q.W.!.W.!.!.W.W.T.T.E.'.'.+X%X%X&X@X$X&X%X%X%X$X$X$X@X@X@X@X#X#X%X;X;X%X$X@X+X[.+X+X+X+X+X+X{.+X+X+X+X[.{.#X#X@X@X@X#X#X@X+X+X@X#X#X;X:X:X:X:X:X:X:X;X!.u.) ) N b b b b b b N N N N ) ) >.>.>.>.p.p.7.i.Y.,X,X,X~.f.i.p.p.p.p.7.m.I.<.H u w w w 3 3 3 3 6 6 7 ; - & & z & & & & & & & & & & & & & 3 3 3 3 3 & & & 3 6 6 3 3 3 3 3 3 3 3 3 3 q 3 3 3 & 3 3 3 3 3 3 3 3 3 4 2 2 2 3 3 3 3 3 3 3 3 3 2 2 2 3 3 3 3 3 3 3 3 3 2 2 2 3 3 3 3 3 3 3 3 3 3 3 3 2 2 1 1 1 3 2 3 $ $ % 3 r a h j ",
"I I Q Q Q ! ! ;.;.o.o.-.-.M.M.M.J.J.J.J.).|. X X*X2XeXeX0XwXtXyXjXtXtXtXtXtXwX0X0X0X0XwXwXtXyXyXhXhXlXlXlXzXvXvXbXbXbXbXmXmXmXZXBXBXBXBXMXMXbXbXMXMXMXMXMXMXMXMXmXmXmXmXmXmXBXBXBXBXBXBXBXVXVXVXCXCXVXCXCXDXFXFXFXFXFXFXDXCXFXCXFXFXFXFXFXFXDXDXDXDXDXDXDXCXCXCXDXDXCXFXFXFXFXFXDXFXFXFXFXFXFXFXFXFXFXFXFXFXFXFXFXFXFXFXFXFXFXFXFXFXFXFXFXFXFXFXFXFXFXFXFXFXFXFXFXFXFXFXGXGXFXFXFXFXFXFXDXGXGXPXdX-XL.K.T.U.I.I.Y.I.Z.Z.Z.Z.Z.v.y.r.r.r.r.r.r.r.e.e.e.7.5.5.5.5.5.5.5.5.2.2.3.3.<.3.3.O.3.3.3.3.3.<.<.3.3.3.2.5.2.e.y.y.e.2.3.3.2.2.2.2.2.3.2.2.2.e.e.e.y.y.v.I.Y.R.!.!.#X#X#X;X;X:X:X:X:X;X;X%X#X+X+X[.!.W.W.!.R.!.!.!.!.!.[.[.{.[.[.[.!.W.T.T.A.v.r.e.r.9.5.1.4.2.2.1.1.<.1.1.1.2.5.2.5.9.e.y.y.v.Z.I.I.I.I.I.A.I.U.U.T.T.R.W.!.W.Q.W.E.T.G.A.T.T.T.W.!.!.[.!.[.!.W.W.T.A.S.T.[.+X%X%X&X$X$X&X%X%X%X%X$X$X@X@X@X+X#X#X%X;X%X%X#X+X+X+X+X#X+X+X#X+X+X+X#X+X{.[.{.#X#X#X@X@X+X+X@X@X@X#X#X#X;X:X7X:X7X:X:X:X:X#Xt.( ) ) b b b b b b b b b b b b b b ) >.>.p.p.i.Y.,X,X,X~.f.i.p.p.p.u.i.Y.A.} F 7 ; - & 3 3 3 3 6 6 7 7 - & & z & & & & & & & & & & & & 3 3 3 3 3 3 & & & 3 6 6 3 3 3 3 3 3 3 3 3 3 q 3 3 3 & 3 3 3 3 3 3 3 3 3 4 4 2 2 2 2 3 3 3 3 3 3 2 2 2 2 3 3 3 3 3 3 3 3 3 2 2 2 3 2 3 3 3 3 3 3 3 3 3 3 2 2 1 1 1 3 2 3 $ $ $ 3 q a h j ",
"I I Q Q Q Q ! ! ;.;.o.-.-.M.M.M.J.J.J.).).|. X X*X2XeX9X0X0XtXyXjXjXjXtXtXwXwX0X0X0X0X0XwXtXyXjXhXhXlXlXlXzXvXvXbXbXbXbXmXmXmXmXVXBXBXBXMXmXbXbXmXmXmXbXmXbXbXbXbXbXmXmXmXmXBXBXBXBXBXBXBXBXVXBXBXCXVXVXCXDXFXFXFXFXFXFXDXCXCXCXFXFXFXFXFXFXDXDXFXFXFXDXDXCXCXCXCXCXCXFXFXFXFXFXDXFXFXFXFXFXFXFXFXFXFXFXFXFXFXFXFXFXFXFXFXFXFXFXFXFXFXFXFXFXFXFXFXFXFXFXFXFXFXFXFXFXFXFXGXGXGXFXFXFXFXFXDXGXGXHXcX3X].K.G.T.R.Y.U.Y.Z.Z.Y.I.Z.Z.v.v.r.r.r.r.r.e.r.r.e.7.7.7.7.7.7.7.5.5.2.2.3.3.<.3.<.<.<.3.3.3.3.<.<.<.<.2.7.e.e.y.y.e.2.3.3.3.3.3.2.2.2.3.3.2.e.e.e.e.r.y.v.I.Y.R.!.!.#X#X#X:X;X;X;X;X:X;X%X#X[.+X+X[.!.R.R.W.R.!.!.!.!.!.!.[.[.[.[.[.[.W.R.T.A.v.r.e.r.e.5.1.1.8.9.9.1.1.1.1.1.1.9.9.9.9.t.v.Z.I.I.I.I.T.R.R.R.T.T.T.T.T.R.R.W.W.W.E.W.T.T.G.T.T.T.W.W.!.'.!.[.!.W.W.E.T.T.T.[.+X#X$X&X&X&X$X%X%X%X$X$X#X@X@X+X+X#X#X%X%X%X$X+X+X+X#X#X#X+X+X#X#X+X+X+X+X[.[.{.#X#X@X{.&X#X+X@X@X#X$X#X#X;X:X7X7X7X7X:X:X:X>XZ.<.( ) ) b b b b b b b b b b b b b b >.>.p.p.7.f.,X,X,X~.f.i.p.p.7.i.m.Y.5.Y p ; ; & * 3 9 3 3 6 6 7 ; - & & z & & & & & & & & & & & & 3 3 3 3 3 3 3 3 & 3 6 6 3 3 3 3 3 3 3 3 3 3 6 3 3 3 3 3 3 3 3 3 3 3 3 3 4 4 2 2 2 2 2 2 3 2 3 3 3 3 2 2 2 3 2 2 2 2 3 3 3 3 2 2 2 2 2 2 3 3 2 3 2 2 2 2 2 2 1 1 1 3 2 3 $ # $ 3 q a h j ",
"I I I I ~ ~ Q ! ! ;.o.-.-.M.M.C.J.J.J.).).|. X X*X2X2XeXqXwXtXjXjXjXjXjXtXwX0X0X0X0X0X0XwXyXjXhXhXhXlXlXlXzXvXvXvXvXbXbXbXmXmXmXVXVXBXBXMXmXbXbXmXmXmXbXmXmXbXmXbXbXmXmXmXmXBXBXVXVXVXBXBXBXBXBXVXVXVXCXCXDXFXFXFXFXFXDXDXCXCXCXFXFXFXFXFXFXDXDXFXFXFXDXDXCXCXCXCXCXCXFXFXFXFXFXDXFXFXFXFXFXFXFXFXFXFXFXFXFXFXFXFXFXFXFXFXFXFXFXFXFXFXFXFXFXFXFXFXFXFXFXFXFXFXFXFXFXFXFXFXFXFXFXFXFXFXFXDXGXGXHXPXgXoXH.D.T.W.R.U.Y.Z.Y.U.U.I.I.Z.v.v.t.r.r.r.e.r.r.e.e.7.7.7.7.7.7.7.7.5.2.3.3.3.3.3.3.3.3.2.2.<.<.2.<.2.5.e.y.y.y.y.7.3.3.3.3.3.3.2.2.2.2.2.2.e.e.r.e.r.y.v.I.I.~.R.!.#X>X;X:X;X;X;X;X:X;X#X#X[.{.{.[.!.R.R.W.R.R.!.W.!.W.W.[.W.W.W.W.W.R.T.A.A.b.r.e.r.r.5.1.1.9.9.9.9.1.1.2.1.2.9.9.9.9.t.Z.I.I.I.I.T.R.R.W.!.W.R.T.T.T.T.R.W.E.E.E.W.W.R.T.T.T.T.E.W.W.W.W.[.W.W.W.[.'.'.'.+X+X+X@X$X&X&X@X$X$X$X$X#X@X@X@X@X@X#X#X%X%X$X#X+X+X+X#X$X#X+X+X#X#X#X+X+X+X[.[.#X#X{.[.@X&X&X@X@X@X%X%X$X#X;X:X7X7XsX7X:X:X:X#XU.9.( ( ) ) b b b b b b b b b b b b b >.>.p.p.7.i.~.,X,X~.f.i.p.u.i.i.Y.I.} g 7 7 w 6 & 3 9 3 & 6 6 6 - - & & & & & & & & & & & 3 3 & & 3 3 3 3 3 3 3 3 3 3 6 6 3 3 3 3 3 3 3 3 3 3 q 3 3 3 3 3 3 3 3 3 3 3 3 3 4 4 4 4 2 2 2 2 2 2 3 2 2 2 2 2 2 2 2 2 2 2 3 3 3 2 2 2 2 2 2 2 3 3 2 2 2 2 2 2 2 2 1 1 1 3 2 3 $ # $ 3 q a h j ",
"U I I I I I Q ! ! ;.o.-.=.M.M.C.J.J.).).|.|. X*X*X2X9X9XqXwXtXwXtXtXjXjXtXwX0X0XwXwX0XwXtXyXyXyXyXhXlXlXlXlXvXvXnXvXbXmXbXbXMXMXVXVXBXBXBXmXmXbXmXmXmXmXmXmXmXMXMXMXMXMXMXMXMXMXmXmXBXBXVXVXCXCXCXCXCXCXDXDXFXFXFXFXDXDXFXFXFXCXFXFXFXDXDXDXFXFXCXCXCXCXCXCXCXCXCXCXCXDXFXFXFXFXFXFXFXFXFXFXFXFXFXFXFXFXFXFXFXFXFXFXFXFXFXFXFXFXFXFXFXFXFXFXFXFXFXFXFXFXFXFXFXFXFXFXFXFXFXFXFXFXFXFXFXFXGXGXGXGXPXgXoXG.G.T.T.R.U.Y.Z.Z.Z.Z.I.I.v.v.v.v.v.b.r.0.r.r.e.e.e.7.5.5.e.e.7.5.2.2.2.2.2.2.2.3.3.3.3.3.5.5.2.5.5.e.r.y.y.y.y.2.3.( ( 3.3.2.2.2.3.2.5.e.e.e.r.r.y.v.m.I.Y.!.!.!.{.;X:X;X:X;X%X#X;X:X;X#X>X{.{.!.!.!.!.R.!.!.!.Q.R.R.W.W.W.R.T.R.W.E.T.A.A.c.0.9.r.r.e.5.<.5.5.5.5.2.5.5.5.5.5.5.e.v.v.v.T.I.Z.Z.U.R.R.W.W.R.R.T.T.I.T.T.T.R.R.W.W.R.T.A.T.R.R.R.W.}.W.E.W.W.!.!.Q.W.Q.!.@X@X#X@X#X#X@X@XoX$X&X&X@X@X@X@X@X@X@X#X#X#X#X#X#X$X+X+XXX+X@X#X$X@X+X#X@X[.[.+X+X{.{.{.@X@X@X@X&X@X@X@X@X#X%X7X7X7X7X:X:X:X:X;X!.e.O.( ) ) J b b b b J b b b J J b J >.>.>.p.7.i.~.,X,X~.i.i.i.i.7.m.U.t.^ p w 6 3 & & q 9 3 3 6 6 6 6 - & & 3 3 3 & & & & 3 3 3 3 & & & & & 3 3 3 3 3 3 3 3 3 3 3 3 3 3 3 3 3 3 3 3 3 3 3 3 3 3 3 3 3 3 3 3 3 3 3 3 3 3 3 3 3 3 3 3 3 3 3 2 2 2 2 3 3 3 3 2 2 2 2 2 3 3 3 2 2 3 2 2 2 2 2 2 2 3 3 1 $ $ 1 2 3 $ $ $ 3 y a f j ",
"P U I I I I T ! ! ;.o.$.=.j.M.C.J.J.).).|.|. X X2X2XeX9XqXwXtXwXtXtXjXjXtXwXwX0XwXwX0XwXtXyXyXyXyXhXlXlXlXlXvXvXvXvXbXmXmXmXMXMXBXBXBXBXBXmXmXbXmXmXmXmXmXmXmXmXMXMXMXMXMXMXMXMXBXBXBXBXVXVXVXCXCXCXCXCXCXDXFXFXFXFXDXDXFXFXCXCXFXFXFXDXDXDXFXFXCXCXCXCXCXCXCXCXDXCXCXDXDXFXFXFXFXFXFXFXFXFXFXFXFXFXFXFXFXFXFXFXFXFXFXFXFXFXFXFXFXFXFXFXFXFXFXFXFXFXFXFXFXFXFXFXFXFXFXFXFXFXFXFXFXFXFXFXGXGXGXGXPXfX&XK.E.T.U.R.U.Y.Y.Z.I.I.I.I.v.y.v.v.b.b.b.r.b.r.r.r.e.e.e.7.e.e.7.5.2.2.3.2.2.2.3.3.3.3.3.3.5.5.5.5.5.7.e.r.y.y.e.2.,.( ,.3.3.2.2.2.2.2.7.e.e.r.r.y.v.m.I.Y.I.~.!.!.!.>X;X;X:X;X;X#X>X;X>X#X#X{.!.!.!.!.R.R.R.~.~.R.R.R.R.T.W.R.T.T.T.T.T.S.A.D.r.9.e.r.r.r.5.5.7.5.5.5.5.e.e.e.e.e.y.m.m.v.U.A.Z.I.U.R.R.R.T.T.T.R.R.R.R.W.T.T.T.R.W.R.T.T.R.T.T.G.T.W.W.R.W.!.'.!.!.!.'.'.+X@X#X$X#X$X#X@XoX$X&X&X@XoX@X@X@X@X+X#X#X#X#X#X#X@X+X+X+X$X$X%X$X@X+X+X@X[.[.+X{.[.{.{.@XoX@X&X&X&X@X&X&X#X%X7X:X7X:X;X:X:X:X>XW.t.<.3.( ) ) J b b b J b b b b b b b a.>.>.p.p.i.~.,X,X~.i.i.i.i.Y.~.I.O.c 8 ; 6 & & & q 9 & & 3 3 3 3 z & & 3 3 3 3 & & & 3 3 3 3 & & & & 3 3 3 3 3 3 3 3 3 3 3 3 3 3 3 3 3 3 3 3 3 4 4 4 3 3 3 3 3 3 3 3 3 3 3 3 2 2 3 3 3 3 2 3 3 3 3 3 3 3 2 2 3 3 3 3 2 2 2 2 2 2 3 3 3 3 3 2 2 2 2 2 2 2 3 3 1 $ $ $ 2 3 $ $ $ 3 y a f j ",
"V P U I I I T T ! ! o.o.=.=.M.M.J.J.).|.).|..X X X2XeX9XqXwXjXjXjXtXtXtXwXwXwXwXwXwX0XwXwXyXyXyXyXhXlXlXlXlXvXvXvXbXbXmXmXmXMXMXBXBXBXBXmXmXmXmXBXBXmXmXmXmXBXMXMXMXMXMXMXMXMXMXBXBXBXBXBXVXVXVXCXCXCXCXCXCXFXFXFXFXDXDXFXFXFXFXFXFXDXDXDXDXFXFXDXDXDXDXCXDXDXDXDXDXDXDXDXFXFXFXFXFXFXFXFXFXFXFXFXFXFXFXFXFXFXFXFXFXFXFXFXFXFXFXFXFXFXFXFXFXFXFXFXFXFXFXFXFXFXFXFXFXFXFXFXFXFXFXFXFXFXFXGXGXGXGXLXIX=XE.E.T.I.U.U.Y.Y.Z.I.I.I.I.Z.y.y.t.b.b.b.b.b.b.v.r.r.r.e.e.r.e.7.7.7.2.2.2.7.2.3.3.3.3.3.2.5.5.5.5.5.7.7.7.e.7.5.3.3.3.3.3.3.2.2.2.2.2.e.e.e.e.y.v.I.I.Y.Y.I.R.!.!.[.#X;X;X;X:X;X#X+X#X>X#X{.{.{.!.W.!.W.R.R.R.R.R.R.T.I.I.R.R.T.T.G.G.S.S.S.A.c.0.9.e.r.y.e.e.e.5.5.5.7.e.r.y.y.r.v.I.Y.I.I.A.I.I.U.R.R.T.T.I.T.R.W.W.W.W.A.T.T.R.R.W.W.W.W.R.A.A.T.W.}.W.[.'.'.'.'.'.[.'.'.+X#X$X%X$X#X@X@X$X$X$X@XoXoX@X@X@X@X#X#X#X#X+X+X+X+X@X$X$X%X%X#X+X+X+X@X'.'.+X+X+X{.+X@XoX@X@X@X@X&X&X%X$X%X:X:X:X;X&X%X;X;X>X!.t.2.2.3.( ) ) ) N b b b b b b b b b b >.>.p.p.i.~.,X,X~.i.i.i.Y.~.~.e.Y i ; - 6 3 & & q q & & 3 3 3 3 z z 3 3 3 3 3 & & & 3 3 3 3 3 & 3 3 3 3 3 3 3 3 3 3 3 3 3 3 3 3 3 3 3 3 3 3 4 4 4 4 3 3 3 3 3 3 3 3 3 3 3 3 3 2 3 3 3 3 3 3 2 2 3 3 3 3 2 3 3 3 2 2 2 2 2 2 3 3 3 3 3 3 3 3 2 2 2 2 3 3 2 2 2 1 $ $ 2 3 3 $ & 6 y a h V ",
"j K P U U I T T T ! o.o.-.=.M.C.J.J.).|.|.|..X X X2X4X9XqXwXjXjXjXjXtXtXwXwXwXwXwXwXwXwXwXyXyXyXyXhXhXlXlXlXvXvXvXbXbXMXmXMXMXMXMXmXmXmXmXmXmXmXBXBXmXmXmXmXBXMXMXBXBXBXMXMXMXMXBXBXBXBXBXVXVXVXCXCXCXCXCXCXCXFXFXFXDXDXFXFXFXFXFXFXDXDXDXDXFXFXFXFXDXDXDXDXFXFXFXDXFXFXFXFXFXFXFXFXFXFXFXFXFXGXFXFXFXFXFXFXFXFXFXFXFXFXFXFXFXFXFXFXFXFXFXFXFXFXFXFXFXFXFXFXFXFXFXFXFXFXFXFXFXFXFXFXFXFXGXGXGXGXGXSX3X].K.T.I.U.U.U.U.Y.I.I.I.I.Z.v.t.t.b.v.b.v.b.b.b.v.v.r.r.r.r.e.7.7.7.7.2.2.7.2.3.3.3.3.2.5.5.5.5.e.e.e.e.5.7.2.3.3.3.3.3.3.3.2.u.u.2.e.e.e.e.e.y.Z.I.I.I.Y.~.!.!.{.{.;X:X:X;X:X:X#X{.{.#X>X{.{.{.{.[.!.W.W.W.!.!.!.!.R.T.I.T.T.T.T.A.A.A.S.A.A.Z.t.r.e.r.y.r.e.e.5.5.5.e.e.e.r.r.r.v.I.Y.I.I.I.U.T.R.R.T.T.R.R.T.R.W.W.R.A.G.T.T.T.T.R.W.W.}.W.R.R.R.R.}.[.@X'.'.'.'.+X+XoX'.oX@X&X%X&X&X@X$X$X$X$X@X@X@X@X$X#X#X#X#X$X#X+X!.'.+X+X@X@X#X@X#X+X+X+X@X[.[.+X+X+X+X+X@XoX@X@XoXoX@X%X%X%X%X:X:X:X%X@X#X#X;X#X!.Z.e.5.3.3.( ) ) ) ) J b b b J b b b a.>.>.p.p.i.~.,X,Xm.i.i.i.m.~.U.O.v w 7 - 6 3 & & 9 q 3 & 3 3 3 & & & 3 3 3 3 3 & & 3 3 3 3 3 3 & 3 3 3 3 3 3 3 3 3 3 3 3 3 3 3 3 3 3 3 3 3 3 4 4 4 4 3 3 3 3 3 3 3 3 3 3 3 3 2 2 3 3 3 3 3 3 2 2 3 3 3 3 2 3 3 3 3 2 2 2 2 2 3 3 3 3 3 3 3 2 2 2 3 3 3 3 2 2 2 1 $ 1 1 % 3 % & q y a h V ",
"j V P P P U T T T ! o.o.-.=.M.C.J.J.).|.|.|..X X X2X2X9XqXtXjXjXjXjXjXtXwXwXwXwXwXwXwXwXtXyXyXyXyXhXhXlXlXlXvXvXvXbXMXMXMXMXMXBXMXMXMXMXMXMXMXMXBXBXBXBXMXMXMXMXMXMXMXMXMXMXMXMXBXBXVXVXVXVXVXVXCXCXCXCXCXCXFXFXFXFXFXFXFXFXFXFXFXFXFXDXFXFXFXFXFXDXDXDXDXFXFXFXFXFXFXFXFXFXFXFXFXFXFXFXFXFXFXGXFXFXFXFXFXFXFXFXFXFXFXFXFXFXFXFXFXFXFXFXFXFXFXFXFXFXFXFXFXFXFXFXFXFXFXFXFXFXFXFXFXFXFXFXGXGXGXGXPXSX7X].G.T.U.U.U.U.U.U.Y.I.I.I.I.Z.y.y.t.v.v.v.b.b.b.v.v.r.r.e.r.e.7.7.7.7.7.7.7.2.2.3.3.2.5.5.5.5.e.e.r.e.e.5.2.3.3.3.3.3.3.3.3.2.u.u.e.e.e.e.e.e.y.Z.I.I.I.I.R.!.{.{.#X;X:X:X;X7X7X;X{.{.>X>X{.{.{.{.{.[.[.[.{.!.!.!.!.!.R.T.T.T.T.T.A.A.A.A.b.D.Z.v.t.r.e.e.e.e.7.5.5.7.e.e.5.e.y.y.v.I.I.I.I.U.T.R.R.R.R.R.W.R.R.R.R.R.I.v.T.R.R.T.T.T.R.W.R.W.[.[.W.T.W.{.[.].'.].].'.+XoX'.'.@X&X&X&X&X@X$X$X$X$X&X&X$X$X%X$X$X$X#X#X#X+X'.+X+X@X@X+X+X+X#X+X+X+X+X[.'.+X+X+X+X+X@X@X@X@X@X-X&X=X%X%X%X;X:X;X%X+X+X$X#X#X[.U.y.9.3.3.3.( >.) N b b b b b b b b a.>.>.p.i.i.~.,X~.i.i.i.i.Y.~.v./ c e w & 6 3 & & 6 3 & & & & & & 3 3 3 3 3 3 & & & & 3 3 3 3 3 3 3 3 & & 3 3 3 3 3 3 6 3 3 3 3 3 3 3 3 3 3 4 4 4 4 3 3 3 3 3 3 3 3 3 3 3 3 3 3 3 3 3 3 3 2 2 2 2 2 2 2 2 3 3 2 2 3 3 3 3 3 3 3 3 2 3 3 3 3 3 2 2 2 2 3 3 3 2 2 1 1 1 1 $ 3 $ & q y a f V ",
"j j j m P U Y T Q ! / o.%.=.M.C.J.J.).|.|.|. X X X2X3X9XqXwXjXjXjXjXjXtXtXwXwXwXtXwXwXwXtXtXyXtXyXhXhXhXlXlXlXvXvXbXMXMXMXMXMXBXMXMXMXBXMXMXMXMXBXBXMXBXMXMXMXMXBXBXBXBXMXMXBXBXBXBXBXVXVXVXVXCXCXCXCXDXCXDXDXDXFXFXFXFXFXFXFXFXFXFXDXDXFXFXFXFXFXDXDXDXDXDXFXFXFXFXFXFXFXFXFXFXFXFXFXFXFXFXFXGXFXFXFXFXFXFXFXFXFXFXFXFXFXFXFXFXFXFXFXFXFXFXFXFXFXFXFXFXFXFXFXFXFXFXFXFXFXFXFXFXFXFXFXFXGXGXGXGXPXSXsX].G.T.U.U.U.U.U.U.Y.Y.I.I.I.Z.v.y.v.v.v.v.b.b.b.v.y.r.r.e.r.e.7.7.7.7.7.2.2.2.2.2.2.2.5.5.5.5.e.e.r.e.e.7.2.3.3.3.3.2.3.3.2.2.u.u.e.e.e.e.e.r.y.Z.I.I.I.I.T.R.!.{.#X#X;X:X:X7X7X;X;X#X>X;X{.#X#X{.{.{.{.{.{.{.!.!.[.!.R.I.R.T.T.T.A.A.b.c.q.c.c.b.t.r.7.5.7.5.5.5.e.e.e.7.e.y.v.v.v.I.Y.I.I.U.T.R.R.R.R.R.R.T.T.R.R.T.T.A.R.R.W.R.T.T.R.E.T.R.}.{.W.T.R.[.'.].].].].'.oXoXoXoX@X@X@X@X@X@X&X$X@XoX$X&X$X$X$X$X$X$X#X#X#X+X@X@X@X@X@X@X+X+X+X+X[.+X+X[.+X+X+X+X+X+X@X@X@X&X&X@X&X%X%X%X;X;X:X;X%X+X+X#X#X$X!.U.Z.r.2.2.3.,.>.) b b b b b b b b b a.>.>.p.i.i.~.~.~.i.i.i.Y.~.Y.4.Y d e 7 $ q 3 & & 6 q & & & & & & 9 z 3 3 3 3 & & & & 3 3 3 3 3 3 3 3 & & 3 3 3 3 3 3 6 3 3 3 3 3 3 3 3 3 3 3 4 4 4 4 3 3 3 3 3 3 3 3 3 3 3 3 3 3 3 3 3 3 2 3 2 2 3 2 2 2 3 2 2 2 3 3 3 3 3 3 3 3 2 3 3 3 3 3 2 2 2 2 3 3 2 2 2 2 2 1 1 $ 3 $ & 6 y a f V ",
"f f g j m U U Y T Q ! o.o.-.j.M.C.J.J._.|.|.|..X X2XeXeXqXwXtXjXjXjXjXjXjXtXwXwXtXwXwXwXtXtXtXtXyXyXhXhXhXlXlXvXvXbXMXMXMXMXMXBXBXBXBXBXBXMXMXMXMXMXMXMXMXMXMXMXBXBXBXBXMXMXBXBXBXBXBXVXVXCXCXCXDXDXDXDXDXDXFXFXFXFXFXFXFXFXFXFXFXFXDXDXFXFXFXFXDXDXDXDXDXDXDXDXFXFXFXFXFXFXFXFXFXFXFXFXFXFXFXFXFXFXFXFXFXFXFXFXFXFXFXFXFXFXFXFXFXFXFXFXFXFXFXFXFXFXFXFXFXFXFXFXFXFXFXFXFXFXFXFXFXFXFXFXGXGXGXGXPXPXgXoXG.T.T.T.T.U.U.U.~.Y.I.I.Y.I.Z.v.v.v.v.v.v.v.v.v.v.y.y.y.y.7.2.2.7.7.7.2.2.2.7.7.7.7.5.5.5.5.5.7.e.e.7.7.2.2.2.5.2.2.2.2.e.e.u.u.u.e.e.9.y.y.y.y.v.Z.Z.Z.v.I.R.{.#X#X%X;X;X7X7X:X;X;X;X#X#X#X>X#X{.{.{.{.{.{.!.!.[.[.W.R.R.T.T.T.I.A.c.0.0.0.0.0.b.r.7.5.5.5.5.e.r.r.r.9.r.v.I.I.Z.I.I.I.I.I.R.R.T.I.T.T.T.T.R.R.R.T.T.T.R.W.}.W.R.R.R.W.R.T.E.'.}.T.T.}.].].'.'.'.].'.oX@XoXoXoXoX-X@X&X&X@XoXoX@X&X$X#X@X@X@X@X$X$X#X+X@X@X@X@X@X+X+X+X+X[.'.+X+X[.+X+X+X+X+X+X@X@X@X&X&X@X@X&X%X%X;X:X:X%X&X+X+X$X$X+X!.T.Y.Z.y.e.e.3.p.>.b b b b b b a.b a.>.>.p.p.i.~.~.~.f.i.i.m.~.~.y.( c w 6 6 $ 9 & & & q q 3 & 9 9 & & z z & & 3 3 3 & & 3 3 3 3 3 3 3 & & & & 3 3 3 3 3 3 3 3 3 3 3 3 3 3 3 3 4 4 4 4 4 4 4 4 3 3 3 3 3 3 3 3 3 3 3 3 3 3 3 3 3 3 3 3 3 3 2 2 3 3 2 2 2 3 3 3 3 3 2 2 2 2 3 3 3 3 3 3 2 3 3 3 2 2 2 2 2 1 1 $ 2 $ % 3 y a f j ",
"f f f k m m U U T T ! ! o.-.=.M.M.F.J.J._.|.|. X*X2XeXeXqXwXtXtXjXjXjXjXjXtXwXwXtXwXwXwXtXtXtXtXyXyXhXhXhXlXlXvXvXbXMXMXMXMXMXBXBXBXBXBXBXBXMXMXMXMXMXMXMXMXMXMXBXBXBXBXMXMXBXBXBXBXBXBXVXCXCXCXDXDXDXDXDXFXFXFXFXFXFXFXFXFXFXFXFXFXDXDXFXFXFXFXDXDXDXDXDXDXDXDXFXFXFXFXFXFXFXFXFXFXFXFXFXFXFXFXFXFXFXFXFXFXFXFXFXFXFXFXFXFXFXFXFXFXFXFXFXFXFXFXFXFXFXFXFXFXFXFXFXFXFXFXFXFXFXFXFXFXFXFXFXGXGXGXGXHXgXoXE.T.T.T.T.U.T.T.U.Y.I.I.U.I.I.Z.A.v.v.b.v.v.v.v.v.y.y.y.e.7.2.2.7.7.7.2.3.2.7.7.7.5.5.5.5.5.5.5.5.7.7.7.5.5.7.7.7.7.7.7.e.e.u.2.u.e.e.9.y.y.y.y.y.v.Z.Z.b.A.W.{.#X#X%X:X%X:X7X:X;X;X;X{.{.#X>X#X{.{.{.{.,X{.{.!.{.{.{.W.R.R.I.T.T.A.t.6.0.0.6.9.e.r.0.5.5.5.5.r.y.v.r.e.t.v.I.I.v.v.v.v.I.I.T.I.I.I.T.T.R.W.W.W.T.T.T.T.T.W.}.}.W.R.W.}.}.T.T.}.}.R.R.W.}.'.'.'.'.].'.oX&X@XoXoXoX-X@X&X$XoX'.'.@X#X$X@X@X+X+X+X@X@X+X+X+X+X+X+X+X+X+X+X+X[.'.+X+X'.+X+X+X+X+X+XoXoX@X&X&X&X@X&X%X%X;X:X%X%X#X+X+X+X+X!.Q.T.~.~.Y.I.y.u.p.>.) b b b b b a.a.>.>.>.p.i.i.~.~.~.i.i.i.~.~.Y.9.^ u - % 3 3 9 & & & q q 3 3 3 9 9 3 z & & & 3 3 3 & & 3 3 3 & & 3 3 3 & & & 3 3 3 3 3 3 3 3 3 3 3 3 3 3 3 3 4 4 4 4 4 4 4 4 3 3 3 3 3 3 3 3 3 3 3 3 3 3 3 3 3 3 3 3 3 3 2 2 3 3 2 2 2 3 3 3 3 2 2 2 2 2 3 3 3 3 3 3 2 2 3 3 2 2 2 2 2 2 $ $ % $ $ 3 y a f j ",
"f k j j x m U Y T T T ! o.o.-.j.C.F.J.J.).).|. X*X2XeX9XqXtXjXhXjXjXjXtXwXwXwXwXwXwXwXwXwXwXtXyXhXhXyXhXhXlXlXvXbXMXMXMXbXmXMXBXBXBXBXBXBXBXBXBXMXMXMXMXMXMXmXbXbXMXMXBXBXBXBXBXBXBXBXBXVXVXCXCXCXCXDXFXFXFXDXFXDXDXFXFXFXFXFXFXFXFXDXDXDXDXDXDXDXDXDXDXDXFXFXDXDXDXFXFXFXFXFXFXFXFXFXFXFXFXFXFXFXFXFXFXFXFXFXFXFXFXFXFXFXFXFXFXFXFXFXFXFXFXFXFXFXFXFXFXFXFXFXFXFXFXFXFXFXFXFXFXCXFXFXFXFXGXGXGXDXPXfX&XE.T.T.U.R.T.T.T.~.Y.I.I.U.I.v.v.I.A.v.v.v.m.m.m.v.r.r.y.y.e.7.7.y.y.7.2.7.7.7.5.7.5.5.5.5.<.} <.5.5.5.5.5.e.y.y.7.2.7.7.y.y.e.e.e.e.e.e.r.y.t.t.t.t.c.v.A.T.W.[.#X%X;X:X%X:X7X7X7X;X;X;X{.{.{.{.#X#X{.{.>X>X>X{.,X,X{.W.W.R.I.T.T.A.t.0.9.4.6.0.e.0.0.e.e.e.9.e.r.t.v.v.v.v.I.I.I.I.I.I.I.I.I.T.R.T.I.A.R.R.W.W.R.T.T.G.W.W.E.R.R.}.W.R.R.}.[.}.}.R.W.}.'.'.].].].'.'.].].'.'.'.oXoX@X@X@XXXE.E.'.%X%X+XXX@X$X$X$X+X+X+X+XXX+X+X+X+X@X@X+X[.'.'.'.'.+X#X+X+X+X+XoXoX-X-XoX&X&X&X&X%X;X:X:X&X[.+X+X!.Q.Q.~.~.~.Y.f.f.i.e.p.>.) ) ) b b >.>.>.>.>.p.p.i.i.~.~.~.i.i.i.~.~.I.<.Y 7 7 y $ & 3 3 & & z z & & & & & & 3 3 & & 3 3 3 & & 3 3 3 3 3 3 & & 3 3 3 3 3 3 3 3 3 3 3 3 3 3 3 3 3 3 3 3 3 4 4 4 4 4 4 3 3 3 3 3 3 3 3 3 3 3 3 3 3 3 3 2 2 3 3 2 2 2 2 3 3 3 3 3 3 2 2 2 2 2 2 2 3 3 3 3 3 2 2 2 2 2 2 2 2 2 2 2 1 1 $ $ $ % 3 r y f V ",
"f f k k k x m U Y T T ! ! o.-.=.M.C.J.J.J._.|. X*X2X3X8XqXwXyXyXjXjXjXtXtXwXwXwXwXwXwXwXwXtXtXyXhXhXhXhXhXlXlXvXbXbXMXMXmXmXMXBXBXBXBXBXBXBXBXBXMXMXMXMXMXMXMXMXMXMXMXBXBXBXBXBXBXBXBXBXVXVXCXCXCXCXDXFXFXFXFXFXDXFXFXFXFXFXFXFXFXFXDXDXDXDXFXFXDXDXDXDXFXFXFXFXDXDXFXFXFXFXFXFXFXFXFXFXFXFXFXFXFXFXFXFXFXFXFXFXFXFXFXFXFXFXFXFXFXFXFXFXFXFXFXFXFXFXFXFXFXFXFXFXFXFXFXFXFXFXFXFXCXFXFXFXFXGXGXGXGXHXIX=XE.T.T.U.R.T.T.T.U.Y.I.I.I.I.v.v.A.I.m.v.v.v.m.v.v.r.e.y.y.e.7.7.y.7.7.2.7.7.7.5.5.5.5.5.5.<.3.3.2.5.5.5.e.y.y.y.e.7.e.y.y.y.y.e.e.e.e.e.e.r.y.t.t.t.t.v.A.T.R.'.@X%X;X:X:X7X7X7X7X;X;X;X#X{.{.{.#X;X>X>X>X>X>X,X,X,X{.[.!.R.I.I.I.c.0.9.6.4.1.4.5.5.5.5.0.5.5.e.r.t.v.v.v.v.I.I.I.I.I.I.I.T.R.R.R.R.T.T.R.W.W.W.W.R.T.R.R.R.R.T.R.W.W.R.R.W.}.}.R.R.W.}.].].'.].'.'.'.].].'.'.'.].'.oX@XoXXX].E.'.#X#X'.+X@X$X$X@X+X+X+X+X+X+X+X+X+X+X+X'.'.'.'.'.'.+X@X@X@X+X+XoXoX-X-X-X&X%X&X%X%X:X:X;X#X+X+X[.R.Y.Y.f.Y.Y.Y.Y.Y.i.e.p.>.) >.>.>.a.>.>.>.p.p.7.i.i.f.~.f.f.f.i.Y.~.!.v./ c 7 6 y & & 3 3 & & z z 3 & & & & & 9 3 3 3 3 3 3 & & 3 3 3 3 3 3 & & & 3 3 3 3 3 3 & 3 3 3 3 3 3 3 3 3 3 3 3 3 4 3 4 4 4 4 3 3 3 3 3 3 3 3 3 3 3 3 3 3 3 3 2 2 3 3 2 2 2 2 3 3 3 3 3 3 2 2 2 2 3 2 2 2 3 3 3 3 2 2 2 2 2 2 2 2 2 2 2 1 1 $ $ $ % 3 r y f V ",
"t f f g k x m m m U T Q ! o.-.=.j.M.J.J.J.).|.|.*X*X3XeX9XwXtXtXjXjXjXjXtXwXwXwXwXwXwXwXwXtXyXyXhXhXhXhXhXlXzXvXvXbXMXMXMXMXMXMXBXBXBXBXBXBXBXBXMXMXMXMXMXMXMXMXMXMXBXBXBXBXBXMXmXBXBXBXVXVXVXCXCXDXDXFXFXFXFXFXDXFXFXFXFXFXFXFXFXFXFXDXFXFXFXFXDXDXFXFXFXFXFXFXDXFXFXFXFXFXFXFXFXFXFXFXFXFXFXFXFXFXFXFXFXFXFXFXFXFXFXFXFXFXFXFXFXFXFXFXFXFXFXFXFXFXFXFXFXFXFXFXFXFXFXFXFXFXFXFXCXFXFXFXFXGXGXGXGXGXIX3X].T.T.T.R.T.T.U.~.U.Y.I.I.I.v.v.I.I.m.m.m.m.m.v.y.y.y.y.e.7.7.7.7.7.7.2.7.7.7.7.0.0.0.6.5.<.3.3.3.3.5.7.y.y.y.y.e.y.y.m.m.v.y.y.r.e.e.e.r.r.t.t.t.t.c.Z.A.A.T.}.@X%X%X%X7X7X7X7X:X;X;X;X;X{.{.{.#X;X;X>X;X>X>X,X,X,X,X{.{.!.I.I.v.r.9.5.6.1.<.4.4.<.<.4.5.5.5.9.r.t.v.v.v.v.Z.I.I.U.U.U.U.R.R.R.R.R.R.R.W.W.}.}.}.W.W.W.R.R.T.G.R.W.}.W.R.R.R.R.R.W.}.}.}.'.'.].].'.'.].'.'.'.].'.].oX@X@X+X'.'.'.+X+XXX@X@X@X+X+XXXXXXX'.+X+X+X+XXX'.'.'.'.[.[.'.'.'.+X@X@X@X+XoXoX-X-X-X&X%X%X%X%X;X%X#X#X#X+X!.Y.y.y.y.y.f.f.Y.Y.i.7.p.>.>.>.>.>.>.>.>.p.p.i.i.i.f.~.f.i.i.f.Y.~.!.~.5.c i 7 - q 3 & 3 3 3 3 3 3 3 3 & & 9 9 9 3 3 3 3 3 & & & & 3 3 3 3 & & & 3 3 3 3 3 & & & 3 3 3 3 3 3 3 3 3 3 3 3 3 3 3 3 3 4 4 3 3 3 3 3 3 3 3 2 2 3 3 3 3 3 3 3 3 3 3 3 7 7 3 2 2 2 2 3 3 3 3 3 3 3 3 2 2 2 2 3 3 2 2 2 2 2 2 2 2 2 2 2 1 1 $ $ $ % 3 r y f V ",
"t u p g g x m m m m U T ! o.o.-.=.M.F.J.J.J._.|. X*X3XeX9X0XtXtXjXjXjXjXtXtXwXwXwXwXwXwXwXtXyXyXhXhXhXhXhXlXvXvXvXbXMXMXMXMXMXMXBXBXBXBXBXBXBXBXMXMXMXMXMXBXBXBXBXBXBXBXBXBXBXBXBXBXBXBXVXVXVXVXDXDXDXDXFXFXFXFXFXFXFXFXFXFXFXFXFXFXFXFXFXFXFXFXFXFXFXFXFXFXFXFXDXFXFXFXFXFXFXFXFXFXFXFXFXFXFXFXFXFXFXFXFXFXFXFXFXFXFXFXFXFXFXFXFXFXFXFXFXFXFXFXFXFXFXFXFXFXFXFXFXFXFXFXCXCXCXCXCXCXFXFXFXFXGXGXGXGXcX7X'.T.T.T.R.T.T.U.~.U.Y.Y.I.I.I.I.I.I.I.m.m.m.v.v.y.y.y.y.y.e.7.7.7.7.7.2.7.7.7.5.5.5.5.5.4.<.<.<.3.<.5.y.y.v.v.y.y.y.y.m.I.I.v.y.y.r.r.r.t.t.t.t.t.c.Z.A.A.A.T.W.+X&X%X%X:X:X:X;X;X>X;X>X#X{.[.{.#X;X;X>X;X;X>X,X{.,X,X{.{.!.R.I.A.r.9.5.9.4.<.4.<.<.<.<.5.5.9.r.t.v.v.v.v.v.Z.I.I.U.U.I.I.I.T.T.R.R.R.!.R.W.}.}.}.W.W.}.W.W.R.T.T.}.}.}.W.E.R.R.W.}.}.}.E.'.'.'.'.[.[.'.'.'.'.'.'.'.'.@X+X@X@X+XoX+X@X@X@X@X+X'.'.Q.'.'.'.+X+X+X+X'.'.Q.Q.'.+X+X'.'.'.+X@X@X+XoXoXoX-X-X-X&X%X%X%X%X%X#X+X#X#X!.~.y.e.u.e.e.i.i.f.f.i.e.7.p.>.>.p.p.p.p.7.i.i.i.i.i.~.~.~.f.i.f.Y.!.!.I.O.i 7 w - w q & 3 3 3 3 3 3 3 3 & & 3 9 3 3 3 3 3 3 & & & & 3 3 3 3 & & & 3 3 3 3 3 & & & 3 3 3 q 6 3 3 3 3 3 3 3 3 3 3 3 3 3 3 3 3 3 3 3 3 3 3 2 2 3 3 3 3 3 3 3 3 7 3 7 7 7 3 2 2 2 2 3 3 3 3 3 3 3 3 2 2 2 2 3 3 2 2 2 2 2 2 2 2 2 2 2 1 1 $ $ $ $ 3 q y d j ",
"t u p g k x x m m m U I Q ! o.-.-.j.C.J.J.J._.|. X*X3XeX9XwXwXwXjXjXjXjXjXtXwXwXwXwXwXwXwXtXyXyXhXhXyXhXhXlXvXvXnXvXMXMXMXMXMXMXBXBXBXBXBXMXMXMXMXMXMXMXMXBXBXBXBXBXBXBXBXBXBXBXBXBXBXBXBXVXVXVXDXDXDXDXDXDXFXFXFXFXFXFXFXFXFXFXFXFXFXFXFXFXDXDXFXFXFXFXFXFXFXFXDXDXFXFXFXFXDXDXFXFXFXFXFXFXFXGXFXFXFXFXFXFXFXFXFXFXFXFXFXFXFXFXFXFXFXFXFXFXFXFXFXFXFXFXFXFXFXFXFXFXFXFXCXCXCXCXCXCXFXFXFXFXGXGXGXGXcXsXoXG.T.U.T.T.T.T.~.U.U.Y.U.U.U.I.I.m.m.m.m.m.v.y.y.y.y.y.y.e.7.2.2.2.7.7.2.5.7.5.6.6.6.4.<.<.<.<.3.<.5.v.m.m.I.I.m.y.y.y.I.Y.m.v.v.y.y.t.t.t.t.c.c.c.Z.A.A.U.T.W.[.#X%X%X%X%X#X#X#X>X>X>X#X[.[.[.{.;X;X>X;X>X>X,X{.{.{.{.!.!.R.~.I.b.0.9.0.4.@.@.<.@.<.<.5.5.9.t.v.Z.I.Z.v.Z.Z.I.I.I.I.I.I.I.T.T.R.R.W.!.R.W.}.W.W.E.E.}.W.}.T.R.R.}.}.}.W.R.R.R.R.}.}.E.T.W.}.}.}.[.[.[.[.[.[.'.[.'.[.+X'.XX+X@X+X+X@X$X@X@XXX'.Q.Q.Q.'.XX+X+X+X+X'.'.W.Q.'.[.+X+XoX+X+X@XXXoXoXoXoXoXoX-X&X%X%X%X%X$X+X+X#X#X!.f.y.u.u.i.u.u.i.i.i.i.i.Y.i.7.u.7.i.i.i.i.i.i.i.i.i.Y.~.~.f.i.i.Y.!.!.t./ 8 7 w - > q & 3 9 3 3 3 3 9 z 3 3 3 9 & 3 3 3 3 3 3 & & 3 3 3 3 3 & & & & 3 3 3 3 & & 3 3 3 6 q q 3 3 3 3 3 3 3 3 3 3 3 3 3 3 3 3 3 3 3 3 3 3 2 2 3 3 3 3 3 3 6 6 7 7 7 7 7 7 2 2 3 3 3 3 3 3 3 3 2 2 2 3 3 3 3 3 2 2 2 2 2 2 2 2 2 2 2 1 1 $ $ $ $ 3 q y a j ",
"t u p g g c x x x m U I ~ Q  .o.-.=.M.C.F.J._.|. X*X2XeX9XwXtXtXtXjXjXjXjXtXwXwX0X0X0XwXwXwXtXyXhXhXyXhXhXlXvXvXnXvXbXMXMXMXMXMXBXBXBXBXBXMXMXMXBXBXMXMXMXMXBXBXBXBXBXBXBXBXBXBXBXBXBXVXVXVXVXVXDXDXCXCXDXDXFXFXFXFXFXFXFXFXFXFXFXFXFXFXFXFXDXDXFXFXFXFXFXFXFXFXDXDXDXFXFXFXFXDXFXFXFXFXFXFXFXGXFXFXFXFXFXFXFXFXFXFXFXFXFXFXFXFXFXFXFXFXFXFXFXFXFXFXFXFXFXFXFXFXFXFXFXCXCXCXCXCXCXFXFXFXFXFXGXGXGXGXcXsXoXG.S.T.T.~.T.T.R.U.U.~.~.~.U.I.I.v.v.m.m.m.v.y.y.y.y.y.y.y.7.2.3.2.7.7.3.5.7.5.6.<.<.6.<.<.2.2.3.3.5.y.I.I.I.Y.Y.I.m.y.Y.Y.I.m.v.v.v.v.t.t.t.r.0.c.c.Z.S.U.T.Q.!.+X@X$X&X#X#X+X#X>X>X>X+X+X[.[.{.>X>X>X>X>X>X,X!.!.{.{.!.!.R.R.I.c.0.0.5.<.} } } } } <.5.9.r.v.Z.I.I.Z.Z.Z.Z.Z.I.I.A.A.T.I.R.R.R.R.W.!.R.R.E.E.R.R.E.E.R.R.R.G.R.R.R.R.R.R.R.R.R.R.R.R.T.W.}.W.W.}.[.[.[.[.[.[.[.[.[.+X'.'.'.+X+XXX+X#X@X+X'.!.Q.'.'.Q.+X+X+X+X+X'.'.'.Q.'.'.+X+X@X+X+X@XXXoXoXoXoXoXoX-X&X&X&X%X%X#X+X+X#X!.Y.y.u.u.u.u.p.u.i.i.i.Y.~.!.~.~.Y.m.Y.~.~.~.~.~.m.m.Y.~.~.Y.i.i.Y.Y.!.R.4.Y 7 7 w - > & & & 3 3 3 3 3 z z 3 3 3 3 & 3 3 3 3 3 & & & & 3 3 3 3 & & & 3 3 3 3 3 & & 3 3 3 6 q 3 3 3 6 3 3 3 3 3 3 3 3 3 4 3 3 3 3 3 3 3 3 3 2 2 3 3 3 3 3 3 6 7 7 7 7 7 7 7 3 2 3 3 2 2 3 2 3 3 2 2 3 3 3 3 3 3 2 2 2 2 2 2 2 2 2 2 2 1 1 $ $ $ $ 3 q y a k ",
"t u p p g g c c x x m P I Q !  .-.-.j.M.C.J.J.|. X X2X2XeXqXwXwXtXtXjXjXjXtXwXwX0X0X0X0XwXwXwXtXhXhXhXhXhXlXvXvXnXvXbXbXbXMXMXBXBXBXBXBXBXBXMXMXVXBXMXMXMXMXBXBXBXBXBXBXBXBXBXVXVXBXVXVXVXVXVXVXDXCXCXCXCXCXDXFXFXFXFXFXFXFXFXFXFXDXFXFXDXDXDXDXDXDXDXDXFXDXFXFXDXDXFXFXFXFXFXFXFXFXFXFXFXFXFXGXFXFXFXFXFXFXFXFXFXFXFXFXFXFXFXFXFXFXFXFXFXFXFXFXFXFXFXFXFXFXFXFXFXFXFXCXCXCXCXCXCXFXFXFXFXFXGXGXGXGXSXgX@XG.G.Q.T.T.~.~.R.~.~.~.Y.U.Y.I.v.v.m.m.m.m.v.y.y.v.y.y.y.7.7.7.2.2.7.7.2.5.7.5.6.<.6.6.<.<.<.2.<.<.<.5.m.m.m.m.I.I.m.m.Y.Y.I.I.I.I.I.A.v.v.b.c.x.c.b.A.A.U.U.T.Q.Q.XX+X+X[.[.[.{.#X{.[.!.[.[.[.[.[.{.{.{.,X>X,X!.!.{.{.!.!.R.~.I.t.0.0.6.<.} } } } <.2.5.9.r.v.Z.I.I.v.I.Z.Z.Z.I.I.I.I.I.I.I.R.R.R.R.R.R.R.W.R.T.T.E.E.R.R.R.R.R.}.R.G.R.R.}.}.R.R.G.G.T.W.[.!.W.W.[.[.[.[.[.[.'.'.[.[.'.'.'.+X@X'.'.XX+X'.!.'.XXXX'.Q.+X+X+X+X+X+X'.'.'.'.'.'.#X$X#X+X@X@X@XoXoX-X-X-X&X&X&X@X%X%X%X#X#X,X!.Y.e.u.p.p.p.p.p.u.i.i.~.,X,X,X,X,X~.~.~.~.~.~.Y.Y.Y.Y.Y.Y.i.i.Y.Y.~.!.v.( v 8 w ; - > * > & 3 3 3 & & z & 3 3 & & & & 3 3 3 3 & & & 3 3 3 3 3 & & & 3 3 3 3 3 3 3 3 3 3 6 3 3 3 3 6 6 6 6 3 3 4 4 4 4 4 4 3 3 3 3 3 3 3 3 2 2 4 3 3 3 3 3 3 7 7 7 7 7 7 7 3 3 3 3 2 2 2 2 3 2 2 2 3 3 3 3 2 2 2 2 2 2 2 2 2 2 2 2 2 1 1 $ % $ $ 3 6 y a h ",
"e u p p p p p p c x x m U I Q ! o.-.=.M.M.F.J._.|. X*X2XeXqXwXtXtXtXjXjXjXtXwXwX0X0X0X0X0XwXwXtXhXhXhXhXhXlXvXvXvXvXbXbXbXMXMXBXBXBXBXBXBXBXBXMXVXBXBXMXMXMXBXBXBXBXMXMXBXBXVXVXVXVXVXVXVXVXVXVXCXCXCXCXCXCXFXFXFXFXFXFXFXFXFXFXFXDXFXFXFXDXDXDXDXDXDXDXDXDXFXFXDXDXFXFXFXFXFXFXFXFXFXFXFXFXFXGXFXFXFXFXFXFXFXFXFXFXFXFXFXFXFXFXFXFXFXFXFXFXFXFXFXFXFXFXFXFXFXFXFXFXFXFXCXCXCXCXCXFXFXFXFXFXGXGXGXGXPXgX&XK.G.Q.R.~.~.~.R.R.~.~.I.Y.I.I.m.v.m.m.m.m.b.y.y.v.y.y.7.e.y.7.7.2.2.2.2.7.7.5.6.<.<.5.6.<.<.<.3.3.3.3.y.y.e.y.y.m.m.I.Y.Y.Y.I.I.I.I.I.I.A.A.b.b.b.A.A.A.S.U.T.T.Q.Q.Q.[.[.}.}.[.!.!.W.Q.Q.[.!.W.R.!.!.!.{.,X,X!.!.{.{.!.!.R.Y.v.r.0.r.0.4.@.@.@.<.6.6.5.9.r.b.Z.Z.v.v.Z.Z.Z.I.I.I.I.T.v.m.I.I.R.R.T.T.R.R.W.R.T.T.T.E.}.}.}.}.}.}.W.R.R.}.{.{.}.R.R.T.T.W.[.W.W.W.!.[.[.[.[.'.!.!.'.[.+X'.[.#X#X+X'.XX+X'.'.'.XXXXXXQ.+X+X+X+X[.+X+X+X+X'.'.'.#X%X#X+X$X$X$X&X&X&X&X&X&X&X@X@X%X%X;X#X+X,X!.Y.e.u.p.>.>.>.p.u.i.i.~.,X!.,X>X,X!.~.~.~.Y.Y.m.Y.Y.Y.Y.i.i.Y.~.~.~.~.9.Y i w w * - w * q 3 3 & & & & & & & & & & & 3 3 3 3 3 3 & & 3 3 3 3 3 3 & & 3 3 3 3 3 3 3 3 3 3 3 3 3 3 3 q q q q 3 3 4 4 4 4 4 4 3 3 3 3 3 3 3 3 2 2 4 3 3 3 3 3 6 6 7 7 7 7 7 7 3 3 3 3 2 2 2 2 3 2 2 2 3 3 3 3 2 2 2 2 2 2 2 2 2 2 2 2 2 1 1 $ $ $ $ 3 6 r a k ",
", , e i i p v c c c x m I I Q ;. .-.-.=.M.M.J.).)..X*X2XeX0XwXtXhXjXjXtXtXtXtXtX0X0X0X0XwXtXtXyXhXhXhXnXvXvXvXvXvXbXbXbXbXbXMXMXMXBXBXBXBXBXBXBXBXBXBXBXBXBXBXBXBXBXBXBXBXBXBXBXVXVXVXVXVXCXCXCXDXDXFXFXFXFXFXFXFXFXFXFXFXFXFXFXFXDXDXDXDXDXFXFXFXDXDXDXDXDXDXFXDXFXFXFXFXFXFXFXFXFXFXFXFXFXFXFXFXFXFXFXFXFXFXFXFXFXFXFXFXFXFXFXFXFXFXFXFXFXFXFXFXFXFXFXFXFXFXFXFXFXFXFXCXCXCXCXFXFXFXFXFXGXGXDXDXGXPXgX&XE.K.U.W.R.~.~.~.~.U.U.Y.m.m.m.m.m.m.m.m.m.m.m.m.m.y.y.7.7.7.7.7.7.7.7.5.2.5.5.5.<.<.<.<.6.<.2.2.2.2.2.y.7.7.7.2.2.e.y.y.Y.~.Y.I.I.T.G.G.G.G.D.b.c.c.c.c.A.T.T.T.T.E.E.T.T.W.W.R.T.T.T.W.T.T.T.W.W.W.W.!.!.{.!.!.!.{.{.!.!.Y.I.v.y.e.5.5.<.} } } <.6.0.9.0.t.b.b.v.v.Z.I.I.I.I.I.A.I.U.A.A.I.T.I.I.I.T.W.W.}.W.T.T.T.E.[.[.}.}.}.W.R.R.R.R.W.}.'.}.W.R.T.W.[.'.W.W.'.+X+X[.!.Q.Q.Q.Q.Q.[.'.'.[.+X+X+X'.'.'.XX@XXXXX'.].+X+X@X#X+X+X[.[.[.[.+X#X#X#X@X@X@XoXoXoXoX&X&X&X&X&X&X&X%X%X%X#X{.!.Y.f.e.u.p.>.p.p.p.p.i.f.~.,X,X,X>X>X{.!.!.!.~.~.Y.Y.m.m.m.m.7.Y.~.~.!.U.+.x e w q q q z & & 3 3 & & & & & & & & & 3 3 3 3 & & & & & & & & 3 3 3 & & & & & & 3 & & & & 3 3 3 3 3 3 6 3 3 3 3 3 3 4 4 4 3 3 4 3 3 3 3 3 3 3 3 2 2 2 2 3 3 3 3 3 3 6 6 6 7 7 7 3 3 3 3 2 2 2 2 3 2 2 2 3 3 3 3 3 3 2 2 2 3 3 3 2 2 2 2 2 1 1 $ & % $ % & q a k ",
", , < i i i p v c c c x P U ~ ! ;.%.-.-.M.M.N.).).|. X2X2XqX0XwXjXjXyXtXtXtXtXwX0X0XwXwXwXtXtXtXhXhXhXlXnXvXvXvXvXbXbXbXbXMXMXBXBXBXBXBXBXBXBXMXBXBXBXBXBXBXBXBXBXBXBXBXBXBXBXBXVXVXVXVXVXCXCXCXDXDXFXFXFXFXFXFXFXFXFXFXFXFXFXFXFXDXDXDXDXDXFXFXFXDXDXDXDXDXDXDXDXFXFXFXFXDXFXFXFXFXFXFXFXFXFXFXFXFXFXFXFXFXFXFXFXFXFXFXFXFXFXFXFXFXFXFXFXFXFXFXFXFXFXFXFXFXFXFXFXFXFXFXCXCXCXCXFXFXFXFXGXGXGXDXDXDXPXgX=XE.K.T.R.R.Y.U.~.~.U.Y.Y.Y.m.m.m.m.m.m.v.y.y.y.y.y.y.y.7.7.7.7.7.7.5.5.3.3.<.2.<.<.<.<.6.6.6.2.2.3.3.7.p.7.7.u.( ) ( 2.y.m.Y.I.m.A.A.v.A.D.D.b.c.c.c.c.b.A.T.T.I.T.T.T.T.T.T.T.T.T.T.T.v.b.b.A.U.T.R.R.R.W.!.R.R.!.!.!.R.~.I.I.v.y.e.5.9.5.<.<.5.0.r.t.0.q.t.t.t.b.v.v.m.I.I.U.I.I.A.A.A.A.A.A.I.A.T.T.R.E.W.W.T.T.T.E.}.}.}.}.}.W.W.R.R.R.W.}.}.}.W.R.T.W.[.[.W.W.!.[.'.!.Q.Q.Q.Q.Q.Q.!.}.!.[.+X+X+X[.'.'.XXXXXXXXXX'.+X+X@X#X+X{.{.[.[.[.[.+X+X+XoXoX@X@XoXoX@X&X&X&X&X&X&X&X%X$X#X$X+X!.Y.y.e.u.p.p.p.p.p.i.i.~.,X,X,X>X>X,X{.!.~.U.m.Y.Y.m.m.i.y.i.m.~.~.!.!.Z./ i e q q q q 9 & & 3 3 z z & & z z & & & 3 3 3 3 3 & & & & & & & & 3 3 & & & & 3 & & & & & & 3 3 3 3 3 6 6 3 3 3 3 4 3 4 4 4 3 4 4 3 3 3 3 3 3 3 3 2 2 2 2 3 3 3 3 3 2 6 6 7 7 7 7 3 3 3 3 2 2 2 2 3 2 2 2 3 3 3 3 2 2 2 3 3 2 2 2 2 2 2 2 1 1 $ $ % % % % & q a h ",
", , < < i i i p v p g x m m U ~ W  .%.-.-.M.M.J.).|. X2X2XqX0XwXjXjXyXtXtXtXwXwXwXwXwXwXwXwXtXtXyXyXhXlXnXnXnXnXvXvXbXbXbXMXMXBXBXBXBXBXBXBXMXMXBXBXBXBXBXBXBXBXBXBXBXBXBXBXBXBXVXVXVXVXVXCXCXCXDXFXFXFXFXFXFXFXFXFXFXFXFXFXFXFXFXDXFXFXFXFXFXFXFXFXDXDXDXDXFXFXFXFXFXFXDXDXFXFXFXFXFXFXFXFXFXFXFXFXFXFXFXFXFXFXFXFXFXFXFXFXFXFXFXFXFXFXFXFXFXFXFXFXFXFXFXFXFXFXFXFXFXFXCXCXCXVXFXFXFXFXGXGXGXGXDXDXPXfX=XE.T.Q.R.~.~.U.~.~.U.Y.Y.Y.m.m.m.m.m.Y.v.y.y.y.y.y.7.7.y.7.7.7.5.5.5.5.3.,.,.<.<.,.<.<.6.6.5.2.2.3.3.3.p.p.7.u.3.( ( 3.7.y.m.m.v.v.v.b.b.b.b.x.b.b.r.r.b.A.A.A.A.A.A.v.b.b.b.v.v.v.v.v.b.c.c.v.A.A.A.I.I.R.R.R.R.~.R.R.I.I.I.I.v.r.r.e.5.5.5.0.0.r.r.0.t.t.t.t.t.t.y.v.v.I.U.U.U.I.Z.A.A.A.A.A.A.A.T.R.T.R.W.W.E.E.R.R.R.R.R.E.}.}.W.W.W.R.R.W.}.}.}.W.W.'.[.'.}.'.'.W.'.Q.Q.Q.Q.Q.Q.Q.W.W.W.'.+X+X+X[.XX'.'.'.'.XXXXXX+X+X@X@X+X{.[.[.[.[.[.'.'.XXXXXX@X@X&X&X&X&X&X&X&X&X&X@X#X@X+X[.[.Q.Y.y.e.u.u.u.u.u.i.i.~.~.,X,X,X>X>X,X!.!.U.Y.m.m.m.m.i.y.i.y.~.~.!.!.U.1.Y , q > 9 9 9 9 3 & 3 3 & z & & z z & & 3 q 3 3 3 3 3 & & & & & & & 3 & & & & & 3 3 & & & & & 3 3 3 q q q q 6 6 r r 4 3 3 4 3 3 3 3 3 3 3 3 3 3 3 3 3 3 2 2 3 3 3 3 3 3 6 6 7 7 7 7 3 2 3 3 2 2 3 2 3 3 2 2 3 3 3 3 3 3 3 2 2 2 2 2 2 2 1 1 $ $ $ $ % % % % & q a f ",
", , , < i i i p p p g k j j K I W !  .o.-.j.M.J.)..X X2X2XqXwXtXyXyXyXtXtXtXwXwXwXwXwXwXwXwXwXtXyXyXhXhXlXnXnXnXnXvXbXbXbXMXBXBXBXBXBXBXBXBXMXMXBXBXBXBXBXBXBXBXBXBXBXBXBXBXBXBXBXVXVXVXVXCXCXCXDXDXFXFXFXFXFXFXFXFXFXFXFXFXFXFXFXFXFXFXFXFXFXFXFXDXDXDXDXDXFXFXFXFXFXFXFXFXFXFXFXFXFXFXFXFXFXFXFXFXFXFXFXFXFXFXFXFXFXFXFXFXFXFXFXFXFXFXFXFXFXFXFXFXFXFXFXFXFXFXFXFXFXFXCXCXCXVXFXFXFXFXFXGXGXGXDXDXHXfX=XE.K.Q.R.~.U.~.U.U.Y.I.~.Y.Y.m.m.m.Y.Y.m.v.y.y.y.y.7.7.e.7.7.7.5.5.5.5.2.3.<.<.<.} <.<.6.5.5.5.2.3.3.3.u.p.,.3.u.2.3.3.7.y.m.m.b.b.b.x.b.b.b.0.0.0.0.r.b.v.A.v.v.A.A.b.b.b.b.b.b.0.6.6.0.6.4.6.6.0.r.v.v.I.I.I.I.U.R.U.I.I.I.v.e.9.9.r.9.e.r.r.r.r.0.0.q.t.t.t.t.t.y.v.m.Y.I.I.I.A.Z.A.A.A.A.A.A.I.R.W.T.R.W.}.}.W.E.E.R.R.R.}.}.}.}.}.}.}.W.W.}.}.}.}.'.'.}.W.W.}.}.W.'.'.Q.Q.Q.Q.Q.Q.W.W.'.'.[.[.[.'.+X'.'.'.'.'.XXXX+X+X+X+X+X{.[.[.+X+X[.'.'.'.XXXX@X&X&X%X%X&X&X&X&X&X@XoX+X+X[.[.!.R.Y.f.y.y.i.i.i.i.i.~.~.~.~.,X,X,X,X,X!.!.~.I.m.m.m.m.y.7.i.m.~.~.~.~.t./ c i > & z z 9 9 3 & 3 3 & z & & z & & & 3 q 3 3 3 3 3 & & & & & & & 3 3 & & & 3 3 3 & & & & & 3 3 3 q q q q q q q r 4 3 3 4 3 3 3 3 3 3 3 3 3 3 3 3 3 3 2 2 3 3 3 3 3 3 2 6 6 7 7 7 2 2 3 3 3 3 3 3 3 3 2 2 2 3 3 3 3 2 2 2 2 2 1 1 2 2 1 1 $ $ $ $ % % % & 3 q y f ",
", , , < i i p p p p p k j j :.P ~ W !  .-.-.M.N.).|. X*X2X9XwXtXtXtXtXtXtXtXwXwXtXtXtXwXwXwXwXwXyXyXhXhXlXlXlXlXnXvXbXbXbXMXBXBXBXBXBXBXBXBXMXMXBXBXBXBXBXBXBXBXBXBXBXBXBXBXBXBXBXBXVXVXVXCXCXCXDXFXFXFXFXFXFXFXFXFXFXFXFXFXFXFXFXFXFXFXFXFXFXFXFXFXDXDXDXDXFXFXFXDXFXFXFXFXFXFXFXFXFXFXFXFXFXGXFXFXFXFXFXFXFXFXFXFXFXFXFXFXFXFXFXFXFXFXFXFXFXFXFXFXFXFXFXFXFXFXFXFXFXFXFXCXCXCXFXFXFXFXFXFXGXDXGXGXHXcXsXXXT.T.T.T.U.U.U.U.Y.I.~.~.Y.Y.I.I.Y.Y.m.v.y.y.y.7.7.7.y.e.7.7.5.5.5.5.5.<.<.<.} } } <.<.6.6.5.2.3.3.p.p.,.>.,.3.u.2.u.7.y.v.v.b.b.b.0.x.x.x.0.0.0.e.0.c.b.b.b.A.A.A.c.c.c.0.0.4.@./ ^ H H H Y ^ } <.r.b.v.I.I.I.I.I.I.I.I.v.e.5.5.9.r.v.v.v.v.b.b.c.t.0.q.q.q.r.t.v.v.I.I.I.Z.v.v.A.I.I.I.A.A.A.T.T.R.R.R.W.W.}.}.}.E.W.W.W.}.}.W.E.E.}.}.E.E.W.}.}.}.[.[.W.E.E.}.'.W.'.'.'.Q.'.Q.Q.Q.!.'.[.[.'.'.'.'.[.'.'.Q.].'.XX@X+X+X+X+X+X+X[.[.+X+X[.'.'.XXXX@X@X@X&X%X&X&X&X-X&X-XoX@X@X+X+X[.!.!.!.~.~.Y.Y.f.Y.Y.~.~.~.Y.~.!.,X,X,X!.!.!.~.Y.Y.m.i.i.7.i.m.~.~.~.!.~.4.Y p i & & & z q 9 3 & 3 3 & & & & z z & & 3 q 3 3 3 3 3 3 & & & & 3 3 & & & & & & & & 3 3 & & & 3 3 3 q q 6 6 6 q r r 4 3 3 3 4 4 4 3 3 3 3 3 3 3 3 3 3 3 3 3 3 3 3 3 3 3 3 3 7 7 7 3 2 2 2 2 3 3 3 3 3 3 3 3 2 2 2 2 3 2 2 2 2 2 1 1 2 2 2 1 1 $ $ $ $ % % & 3 q y a ",
", , , , i i i p p u p g k k j :.~ W W ! %.-.h.M.J.)..X X<XeX0XwXtXtXtXyXtXtXwXwXtXtXtXwXwXwXtXtXyXyXhXhXlXlXlXlXvXvXbXbXbXMXMXBXBXBXBXBXBXBXMXMXBXBXBXBXBXBXBXBXBXBXBXBXBXBXVXBXBXBXVXVXVXCXCXCXDXFXFXFXFXFXFXFXFXFXFXFXFXFXFXFXFXDXFXFXFXFXFXFXFXFXDXDXDXDXFXFXDXDXFXFXFXFXFXFXFXFXFXFXFXFXFXGXFXFXFXFXFXFXFXFXFXFXFXFXFXFXFXFXFXFXFXFXFXFXFXFXFXFXFXFXFXFXFXFXFXFXFXFXFXFXFXFXFXFXFXFXFXFXFXDXGXGXHXPXgX&XE.T.Q.R.T.~.~.~.U.Y.~.~.Y.Y.I.Y.Y.Y.v.y.y.7.7.7.7.7.y.y.e.7.5.5.5.5.2.<.,.} } } } } <.<.2.5.2.3.3.3.u.p.p.,.,.,.3.7.7.7.y.y.b.b.b.0.0.x.0.6.0.0.5.5.r.c.c.c.b.b.b.x.0.6.@.} ^ H v i 8 8 8 v c ^ } <.5.r.v.v.v.v.v.v.I.v.r.e.5.5.e.t.A.A.A.v.b.r.c.c.0.q.q.q.r.r.v.v.I.m.v.v.v.v.A.U.T.T.T.T.T.T.T.R.W.W.R.E.}.}.}.E.}.}.}.}.}.}.E.E.'.}.E.E.}.}.}.}.[.'.}.T.T.W.'.'.'.'.].'.'.'.Q.Q.'.[.[.[.'.'.'.'.'.'.'.Q.'.'.XX@X+X+X+X+X+X+X{.{.+X+X[.'.'.XX@X@X@X@X&X&X&X&X&X-X-X-X@X@X#X@X+X[.!.{.+X,X!.!.~.~.~.~.~.~.~.Y.~.,X,X!.!.!.!.!.!.~.m.m.i.7.7.i.m.~.~.!.!.R.@.c w w & & & 9 q q 3 & 3 3 & & & & z & & & 3 q 3 3 3 3 3 3 & & & & 3 3 & & & & & & & & 3 3 & & & 3 3 3 3 3 3 3 3 3 3 3 4 3 3 3 4 4 4 4 3 3 3 3 3 3 3 3 3 3 3 3 3 3 3 3 3 3 7 3 3 7 7 3 2 2 2 2 3 3 3 3 3 3 3 3 2 2 2 2 3 3 3 2 2 2 2 2 2 2 2 2 2 1 1 $ $ % & & 3 q y a ",
", , , , , w i i i i u g f f k :.U W W !  .-.-.M.N.).|..X X2X9X0XwXtXtXyXtXtXwX0XtXtXwXwXwXtXtXtXyXyXhXhXlXlXlXlXvXbXbXbXbXMXMXBXBXBXBXBXBXBXBXMXBXBXBXBXBXBXBXBXBXBXBXBXBXBXBXBXBXBXVXVXVXCXVXCXDXDXFXFXFXFXFXFXFXFXFXFXFXFXFXFXFXDXDXDXFXFXFXFXFXFXFXDXDXFXFXFXDXDXFXFXFXFXFXFXFXFXFXFXFXFXFXFXFXFXFXFXFXFXFXFXFXFXFXFXFXFXFXFXFXFXFXFXFXFXFXFXFXFXFXFXFXFXFXFXFXFXFXFXFXFXFXFXFXFXFXFXFXFXFXFXGXFXHXHXIX=X].T.Q.T.T.T.~.~.U.Y.U.~.~.Y.Y.Y.m.m.v.y.y.7.7.7.7.y.y.y.e.e.7.5.5.5.<.,.} } } } } } ,.<.2.5.2.2.u.u.7.u.7.p.,.>.,.7.7.7.7.7.r.b.b.0.0.0.6.6.5.5.5.5.0.b.b.0.b.c.0.6.4.+./ E H v i 8 8 i n v v H ^ } <.5.e.e.e.y.b.r.v.y.r.r.r.t.b.b.b.v.A.v.b.b.c.b.t.q.q.0.0.r.v.v.v.v.v.v.v.v.A.I.T.T.T.T.T.T.T.R.W.R.R.T.T.E.E.R.'.'.}.}.}.}.E.E.}.W.E.E.}.}.}.}.'.'.].}.}.'.'.'.'.'.'.'.'.].W.E.W.'.[.[.'.'.'.[.'.'.'.Q.'.'.XX+X+X+X+X+X+X+X+X+X[.[.[.'.'.XXXX@X@X@X&X&X&X&X&X&X-X-X@X&X#X+X'.Q.!.{.,X,X,X!.!.,X,X,X~.~.~.Y.~.,X!.!.!.!.!.!.~.~.m.i.i.i.i.m.~.~.!.!.~.r.^ p - - > z 9 q q q & & 3 3 & & & & z z & & & 3 3 3 3 3 & & & & & & & & & & & & & & & & 3 3 & & 3 3 3 3 3 3 3 3 3 3 3 3 4 4 3 3 3 3 4 4 3 3 3 3 3 3 3 3 3 3 3 3 3 3 3 3 3 3 3 3 3 7 7 3 3 3 3 3 3 3 2 2 2 2 3 2 2 2 3 3 2 2 2 3 3 2 2 2 2 3 2 2 2 2 2 % $ $ & & 3 6 y a ",
", , > > > , , , w e u p f f k j U ~ W W  .-.-.M.J.).|. X XeX0X0XwXtXtXyXyXtXwX0XtXtXwXwXwXtXtXtXyXyXhXhXlXlXlXlXvXbXbXbXbXbXMXMXMXBXBXBXBXBXBXBXBXBXBXBXBXBXBXBXBXBXBXBXBXBXBXBXBXBXVXVXVXCXVXCXDXDXFXFXFXFXFXFXFXFXFXFXFXFXFXFXFXDXDXDXDXFXFXFXFXFXFXFXDXFXFXFXDXDXFXFXFXFXFXFXFXFXFXFXFXFXFXFXFXFXFXFXFXFXFXFXFXFXFXFXFXFXFXFXFXFXFXFXFXFXFXFXFXFXFXFXFXFXFXFXDXDXFXFXFXFXFXFXFXFXFXFXFXFXFXFXFXCXHXGXSXsXXXE.Q.Q.T.R.~.~.U.Y.U.~.~.~.Y.I.m.m.m.m.y.y.y.y.y.y.y.y.r.e.7.5.5.5.<.<.<.<.,.} } <.} <.2.5.2.2.7.7.u.p.,.,.,.,.,.3.7.7.7.7.7.b.b.0.0.6.6.6.6.6.2.2.0.0.0.8.0.0.6.@.&.} ^ Y H H c v i n v H H ^ ^ } } <.5.5.5.7.7.5.r.e.r.t.v.Z.v.v.b.Z.A.I.A.A.A.A.c.c.c.0.0.0.r.v.r.b.v.v.v.v.A.A.T.R.R.R.T.T.T.T.W.R.T.T.T.T.E.T.}.}.}.}.}.}.W.W.E.E.E.E.W.}.W.E.}.'.[.'.].'.'.'.'.'.'.'.'.].E.R.W.'.[.[.'.'.[.+XQ.Q.'.'.'.'.XX+X+X+X+X+X+X+X+X+X[.'.'.'.'.XXXXXX&X&X&X&X&X&X&X&X-X-X&X&X#XXXQ.T.Q.[.{.!.!.!.!.!.,X~.~.~.Y.m.~.,X,X!.!.!.!.!.~.Y.m.i.i.i.Y.~.~.~.!.R.b.( x i w > > > q q q q & * 3 3 & & & & z z & & & 3 3 3 3 & & & & & & & & & & & & & & & & & 3 3 & & 3 3 3 3 3 3 3 3 3 3 3 3 4 4 3 3 3 4 4 4 3 3 3 3 3 3 3 3 3 3 3 3 3 3 3 3 3 3 3 3 3 3 3 3 3 3 3 3 3 3 2 2 2 2 2 2 2 3 3 3 3 3 2 2 2 3 3 3 2 2 2 3 2 2 2 2 $ $ & & 3 6 y a ",
"> > > > , , , w i i e u u f g k :.P W Q !  .-.j.N.).)..X<XeX9X0XwXtXjXtXtXtXtXwXwXwXwXwXwXwXtXyXyXyXyXhXlXlXlXlXlXvXMXBXBXBXBXBXBXBXBXBXBXBXBXBXBXBXBXBXBXBXBXBXBXBXBXBXBXBXBXBXVXVXVXVXVXCXCXCXCXCXFXFXDXDXFXFXFXFXFXFXFXFXFXFXFXDXDXDXDXDXDXDXDXDXDXDXFXFXFXFXDXDXDXDXFXFXFXFXFXFXFXFXFXFXFXFXFXFXFXFXFXFXFXFXFXFXFXFXFXFXFXFXFXFXFXFXFXFXFXFXFXFXFXFXFXFXFXFXFXFXFXFXFXFXFXFXFXFXFXFXFXFXFXFXFXFXFXGXcXsX-XE.E.Q.T.U.Y.U.~.~.R.R.U.Y.Y.m.m.v.m.y.y.y.y.y.y.e.y.y.7.7.5.5.5.2.5.<.} ,.<.<.} } <.<.<.2.2.2.u.u.u.p.p.p.,.,.,.,.7.7.7.7.7.5.0.b.0.6.6.<.6.<.<.<.6.8.0.x.x.0.&.@.+.} } | { / ^ Y ^ ^ ^ ^ ^ | } @.} } <.<.5.5.5.0.e.r.v.v.b.v.A.I.A.A.A.A.A.v.b.b.D.c.c.q.r.r.b.v.r.b.v.v.v.v.Z.Z.I.T.R.R.R.R.W.W.T.T.T.W.W.R.T.R.W.'.'.}.W.T.T.T.'.G.G.T.}.}.}.'.}.'.'.'.'.'.'.'.].'.'.].].'.'.W.'.W.W.W.'.'.'.!.[.[.[.'.Q.'.+X@X#X+X[.+X@X@X[.'.'.[.[.XXXXoX@X$X@X@X&X&X&X&X&X&X&X-XoX@X#X+X!.W.W.W.W.!.!.!.!.!.,X,X!.~.m.m.m.~.~.!.!.!.,X,X!.~.m.i.m.~.Y.Y.~.~.R.T.q.E u 7 - - w q q q z z & & 3 3 3 & & & & & > > q q 3 3 3 & 3 & & & & & & & & & & & & & & & 3 3 3 & & 3 3 3 3 3 3 3 4 3 3 3 4 4 4 4 4 3 3 3 4 4 3 3 3 3 3 3 3 3 3 3 3 3 3 3 3 3 3 3 3 3 3 3 3 3 2 2 2 3 3 3 3 2 2 2 2 2 3 3 3 3 3 3 3 3 3 3 3 2 2 2 2 1 $ $ 3 3 $ $ 3 7 a f ",
"- - > > > , , , w w e u u p f f j P I ~ Q  .-.j.M.J.)..X*XeX9X0X0XtXtXtXtXtXtXtXwXwXwXwXwXwXtXyXyXyXyXhXlXlXlXlXlXvXMXBXBXBXBXBXBXBXBXBXBXBXBXBXBXBXBXBXBXBXBXBXBXBXBXBXBXBXBXBXBXBXVXVXVXCXCXCXVXDXFXFXDXDXFXFXFXFXFXFXFXFXFXFXFXDXDXFXDXDXDXDXFXDXDXDXFXFXFXFXDXDXDXDXFXFXFXFXFXFXFXFXFXFXFXFXFXFXFXFXFXFXFXFXFXFXFXFXFXFXFXFXFXFXFXFXFXFXFXFXFXFXFXFXFXFXFXFXFXFXFXFXFXFXFXFXFXFXFXFXFXFXFXFXFXFXDXGXPXdX&X].E.Q.T.U.U.U.~.~.~.~.U.Y.Y.I.m.m.v.v.y.y.v.m.v.y.y.y.e.7.5.5.5.<.5.<.} <.<.<.@.} <.<.<.2.2.2.u.u.u.3.,.p.,.,.,.,.3.3.7.7.7.5.5.0.6.6.<.<.<.<.<.@.@.@.&.4.0.0.8.6.8.6.4.&.&.&.@.+.} } <.<.<.4.6.5.5.5.5.2.4.5.5.0.r.v.Z.I.I.I.T.T.A.I.A.A.A.A.v.b.c.c.q.0.0.0.e.r.r.r.v.v.v.c.c.Z.A.A.T.T.T.I.T.T.R.R.R.R.R.T.T.T.W.'.'.}.W.R.E.R.E.G.G.E.E.T.T.W.].'.'.'.'.'.'.].W.W.'.'.'.'.'.W.W.W.E.W.'.'.'.'.'.'.[.'.'.'.+X+X#X+X[.[.+X@X[.[.[.[.[.XXXXoX$X$X@X$X&X&X&X&X&X&X&X-XoX@X@X+X!.Q.T.T.R.R.R.R.R.!.!.!.!.~.m.m.m.m.~.~.,X,X,X,X~.Y.m.i.Y.~.~.~.!.!.T.x./ c w - w w q q q z z z & & 3 3 3 & & & & & > > q q 3 3 3 & 3 & & & & & & & & & & & & & & & 3 3 3 & & 3 3 3 3 3 3 3 4 3 3 3 4 4 3 4 4 4 3 3 4 4 3 3 3 3 3 3 3 3 3 3 3 3 3 3 3 3 3 3 3 3 3 3 3 3 2 2 2 3 3 3 3 3 2 2 2 2 3 3 3 3 3 3 3 3 3 3 3 2 2 2 2 1 $ $ 3 $ $ $ 3 7 a d ",
"& & - - - - > > > , w e u u u p k j P U W ! %.-.M.J.)..X*X2XeX0XqXwXtXtXtXtXtXtXwXwXwXwXwXtXiXyXyXyXyXlXlXlXlXlXlXvXmXMXBXBXBXBXBXBXBXBXBXBXBXBXBXBXMXBXMXMXBXBXBXBXBXBXBXBXBXBXBXBXVXVXVXCXCXCXVXDXFXFXFXFXFXFXFXFXFXFXFXFXFXFXFXFXDXDXDXDXDXDXFXFXDXDXFXFXFXFXDXDXFXFXFXFXDXDXFXFXFXFXFXFXFXFXFXFXFXFXFXFXFXFXFXFXFXFXFXFXFXFXFXFXFXFXFXFXFXFXFXFXFXFXFXFXFXFXFXGXFXFXFXFXFXFXFXFXFXFXFXFXFXFXFXCXFXDXHXIX=X].E.T.T.U.T.U.~.~.~.~.U.Y.I.I.m.m.m.v.v.v.m.m.m.m.y.r.e.e.e.5.5.<.<.<.} <.<.<.<.<.<.<.<.<.2.2.2.u.3.,.,.,.,.,.,.,.,.,.2.7.7.7.0.5.6.4.@.@.} } <.@.@.&.6.0.b.b.b.b.b.x.0.0.0.x.x.x.0.x.b.b.b.0.6.6.b.b.0.5.5.5.e.b.v.v.I.T.T.T.R.R.T.T.T.T.G.G.A.A.b.c.x.0.0.0.0.e.r.r.b.b.b.b.b.v.A.I.I.T.T.T.R.W.!.W.W.R.R.R.R.R.R.W.'.}.W.E.R.R.G.T.W.W.T.G.G.W.'.'.'.].].}.W.W.W.W.W.W.W.W.W.W.E.E.E.W.W.'.'.'.Q.!.!.'.[.[.+X+X+XXX'.'.+X#X+X[.+X+X+XXXXXXX$X&X$X$X&X&X&X&X-X&X-X-X@X@X@X+XW.Q.T.T.I.U.U.I.~.!.!.!.!.~.m.y.i.i.m.~.,X,X,X,X~.Y.Y.m.~.!.!.!.!.R.S.#.F w - 6 w q q q 9 9 & & & & 3 3 & & & & z z & > q q 3 3 3 3 & & & & & & & & & & & & & & & & 3 3 & & & & 3 3 3 3 4 4 4 4 3 3 3 3 3 3 4 4 4 4 4 7 3 3 3 3 3 3 3 3 3 3 3 3 3 3 2 2 3 3 2 2 2 2 3 2 2 2 3 3 3 3 3 3 3 3 2 3 3 3 2 3 3 3 3 3 2 2 2 2 2 2 2 1 1 $ 3 2 $ $ 3 3 s a ",
"* * & - - - - - - > w e u u u u f j :.P ~ W o.-.M.J.).|. X2XeX9XqXwXtXtXtXyXyXtXwXwXtXtXwXtXiXyXyXyXyXhXlXlXlXlXvXvXmXMXMXBXBXBXBXBXBXBXBXBXBXBXBXBXMXMXMXMXBXBXBXBXBXBXBXBXBXBXBXBXVXVXVXCXCXCXCXDXFXFXFXFXFXFXFXFXFXFXFXFXFXFXFXFXFXDXFXDXDXDXFXFXDXDXFXFXDXDXFXDXFXFXFXFXFXFXFXFXFXFXFXFXFXFXFXFXFXFXFXFXFXFXFXFXFXFXFXFXFXFXFXFXFXFXFXFXFXFXFXFXFXFXFXFXFXFXGXGXGXFXFXFXFXFXFXFXFXFXFXFXFXFXFXCXFXDXGXcX3X].E.Q.Q.T.T.~.~.~.U.U.U.Y.I.I.m.m.m.m.m.m.m.m.m.v.y.r.r.e.e.5.5.<.<.} } @.<.<.<.<.<.<.<.1.2.2.2.u.3.3.,.,.3.,.,.,.,.,.3.2.7.0.b.0.x.6.4.@.} @.<.@.8.0.b.b.D.D.b.b.x.x.x.x.b.b.b.b.x.b.b.b.b.b.0.0.b.b.r.0.0.b.b.A.v.A.I.T.R.T.T.T.T.T.T.T.T.G.G.A.A.A.c.x.0.0.e.e.r.r.r.b.r.c.b.v.A.A.I.T.R.W.[.[.[.[.}.W.W.W.}.W.T.E.R.E.E.R.E.E.G.R.'.}.}.R.E.'.'.'.'.'.}.}.}.W.W.W.W.W.W.W.}.W.Q.Q.W.W.!.'.!.Q.W.W.!.'.[.+X+X+XXX'.'.'.+X+X+X+X+X+X+XXXXXoX$X&X&X%X%X&X&X&X-X-X-X-X&X$X$X+X!.Q.T.T.I.A.I.I.U.R.~.!.~.~.m.y.y.i.m.Y.!.,X,X,X!.~.~.~.~.!.!.!.R.A.w.! g e e w & - q q 9 9 & & & & 3 3 3 & & & z z & z q q 3 3 3 3 & & & & & & & & & & & & & & & & 3 3 & & & & 3 3 3 3 4 4 4 4 3 3 3 3 3 3 4 4 4 4 4 7 3 3 3 3 3 3 3 3 3 3 3 3 3 3 2 3 3 3 2 2 2 2 3 3 2 2 3 3 3 3 3 3 3 3 2 3 3 3 2 3 3 3 3 3 3 2 2 2 2 2 2 1 1 1 % 2 $ $ 3 3 y a ",
"& & & & - - - - & > w t u p u u f k j P U W  .-.M.J.).|. X2X2XeX9X0XwXwXtXtXyXtXwXtXtXwXwXwXiXiXyXyXjXlXlXlXlXlXzXbXmXmXBXBXBXVXBXBXBXBXBXBXBXBXBXBXBXBXMXBXBXBXBXBXBXBXBXBXBXBXBXVXVXVXVXCXCXCXCXDXFXFXFXFXFXFXFXFXFXFXFXFXFXFXFXFXFXFXFXFXFXDXFXFXFXFXDXDXDXDXFXFXFXFXFXFXFXFXFXFXFXFXFXFXFXGXFXFXFXFXFXFXFXFXFXFXFXFXFXFXFXFXFXFXFXFXFXFXFXFXFXFXFXFXFXFXFXFXGXGXGXFXFXFXFXFXFXFXFXFXFXFXFXFXFXFXFXFXHXSXsX].L.E.T.Q.T.U.~.~.U.U.U.Y.I.Y.I.m.m.I.Y.I.m.v.y.y.y.r.r.r.e.5.4.<.<.} } } <.<.<.<.<.<.<.1.2.2.3.3.3.,.,.,.,.,.} ,.,.,.,.3.<.5.x.x.b.x.0.4.<.@.@.@.4.6.x.b.b.b.x.w.x.b.b.b.b.b.b.b.b.b.b.b.b.b.b.b.b.b.c.b.b.b.A.A.I.I.T.T.T.T.T.I.R.R.R.T.T.G.G.G.A.A.b.c.b.0.7.0.b.b.b.b.b.b.b.A.v.v.Z.A.I.T.R.W.W.W.W.R.W.}.[.}.E.E.E.E.W.W.W.W.T.E.W.'.'.'.'.'.E.E.E.E.W.Q.Q.Q.W.Q.Q.Q.W.Q.W.!.!.'.'.'.'.!.W.W.W.W.W.'.[.+X+X[.'.'.'.'.[.+X+X@X@X@X@XXXXXoX$X&X$X&X%X&X&X@XoX-X&X&X&X$X$X@X+X!.W.T.A.A.v.v.v.I.Y.R.R.Y.m.v.i.i.m.m.!.,X,X,X,X,X!.~.!.!.R.R.T.q.{ U u t e 6 & & q q q & & & & & 3 3 & & & & z z & & q 9 3 3 3 3 & & & & & & & & & & & & & & & & 3 3 3 3 3 3 3 3 3 4 4 4 4 4 4 4 3 3 4 4 4 3 4 4 4 4 3 3 3 3 3 3 3 3 3 3 3 3 3 3 3 3 3 3 2 2 2 2 3 3 3 3 3 2 2 2 2 2 3 3 3 3 3 3 2 2 3 3 3 3 2 2 2 2 2 2 1 1 1 1 2 2 2 2 2 4 r a ",
"* * * & - - - - & - q e t u u p f k j P U W  .%.h.N.).). X<X2XeX9X0XwXwXwXtXtXtXwXtXiXwX0X0XwXiXyXyXjXlXlXlXlXlXzXbXbXmXmXBXBXVXBXBXBXBXBXBXBXBXBXBXBXBXMXBXBXBXBXBXBXBXBXBXBXBXBXBXVXVXVXCXCXCXCXDXFXFXFXFXFXFXFXFXFXFXFXFXFXFXFXFXFXFXFXFXFXFXFXFXFXFXDXDXDXDXFXFXFXFXFXFXFXFXFXFXFXFXFXFXFXGXFXFXFXFXFXFXFXFXFXFXFXFXFXFXFXFXFXFXFXFXFXFXFXFXFXFXFXFXFXFXFXFXGXGXGXFXFXFXFXFXFXFXFXFXFXFXFXFXFXFXFXFXHXPXsXoXL.K.E.Q.T.T.~.~.U.U.U.Y.I.I.I.I.I.Y.Y.Y.m.v.y.y.v.r.r.e.e.5.4.<.<.} } <.<.} <.<.<.3.3.1.2.3.3.3.3.( ( ( } ( ( ( ( ( ( ( } } 6.6.b.b.x.8.4.4.4.4.@.&.6.x.x.x.w.&.0.x.b.b.b.b.b.b.b.b.b.b.b.b.A.A.v.v.A.A.A.v.v.v.T.T.T.T.R.R.T.T.W.R.R.T.G.G.G.G.A.b.c.x.r.0.0.5.r.b.b.b.b.b.b.A.I.A.A.A.A.I.T.T.T.W.W.T.R.}.[.W.'.'.W.W.'.].'.'.E.E.E.W.'.@X[.E.E.K.K.E.W.W.W.Q.W.Q.W.Q.Q.W.Q.Q.Q.'.[.[.[.!.W.W.'.W.W.'.[.+X[.[.'.'.'.'.'.+X+X#X+X@X@X@X@XoX@X$X$X&X&X&X&X@XoXoX&X&X&X$X@X+X$X$XW.R.T.A.v.r.t.v.Y.Y.Y.m.m.m.m.m.m.m.!.,X,X,X>X,X,X!.!.!.R.W.A.&.U d 6 q q & & t q q q & & & & & 3 3 & & & & z z & & & 3 3 3 3 3 & & & & & & & & & & & & & & & & 3 3 3 3 3 3 3 3 3 3 4 4 4 4 4 4 3 3 4 4 3 3 3 3 4 4 3 3 3 3 3 3 3 3 3 3 3 3 3 3 3 2 3 3 2 2 2 2 2 3 3 3 2 2 2 2 2 2 3 3 3 3 3 3 2 2 3 3 3 3 2 2 1 1 1 1 1 1 1 1 1 2 1 2 2 4 r y ",
"* * * * * & & & * - > q e u u p u g j P P ~ !  .-.M.B.). X*X<XeX9X0XwXwXwXtXtXwXwXwXwX0X0X0XwXwXyXyXjXlXlXlXlXlXvXbXbXmXmXBXBXVXVXVXVXVXVXVXVXVXBXBXMXBXBXBXBXBXBXBXBXBXBXBXBXBXVXVXVXVXVXCXCXCXDXDXFXFXFXFXFXFXFXFXFXFXFXFXFXFXFXFXFXFXFXFXDXDXDXDXFXDXFXDXFXFXDXFXFXFXFXFXFXFXFXFXFXFXFXFXFXGXFXFXFXFXFXFXFXFXFXFXFXFXFXFXFXFXFXFXFXFXFXFXFXFXFXFXFXFXFXFXFXFXFXGXFXFXFXFXFXFXFXFXFXFXFXFXFXFXCXFXFXFXDXHXdX=XL.L.E.Q.W.T.~.~.U.U.U.U.I.I.Y.I.m.Y.Y.I.m.v.v.v.v.y.e.7.5.5.<.<.<.<.<.<.<.@.@.4.<.3.1.1.1.3.O.( ( ) ) ( ( ) ) ) ) ( ( ( ( } } &.6.6.0.8.6.4.4.6.&.&.&.&.6.6.6.=.&.6.0.x.x.x.x.x.b.b.x.x.x.b.b.A.G.G.T.G.A.A.v.v.R.T.U.T.R.W.W.W.W.R.T.T.G.A.A.A.D.b.b.b.b.0.7.0.r.r.b.b.b.b.b.v.T.I.A.I.T.R.W.W.T.W.W.R.W.[.[.E.'.W.W.W.W.'.'.W.E.R.T.E.'.+X[.E.Q.E.K.T.E.Q.Q.Q.Q.Q.T.T.T.T.T.T.Q.W.'.[.[.'.'.[.[.!.W.W.[.[.[.[.XXXX'.'.'.'.+X@X+X+X@X@X@XoXoXoX@X$X&X&X&XoXoXoX&XoX@XoX+X+X$X>X[.W.R.T.A.b.v.v.Y.Y.m.m.m.v.i.i.m.~.,X,X,X,X,X,X,X{.{.!.T.A.&.Q f y & 3 q q q q q q > & & & & & 3 3 3 & & z z z * * & & 3 3 3 3 & & & & & & & & & & & & & & & & 3 3 3 3 3 3 3 3 4 4 4 4 4 4 4 4 4 4 4 4 3 3 3 3 4 4 3 3 3 3 3 3 3 3 3 3 3 3 3 3 2 2 2 2 2 2 2 2 2 2 3 3 3 3 2 2 2 2 2 2 3 3 3 3 2 2 2 3 3 3 2 2 1 $ 1 1 1 1 1 1 1 2 1 2 2 3 r y ",
"# # # * * * * * * * - > w e u u u f j P P ~ W  . .M.N.J..X<X<XeX9X0XwXwXwXtXtXwX0XwXwXwX0X0X0XwXyXyXjXlXlXlXlXlXvXbXbXmXmXBXBXVXVXVXVXVXVXVXVXVXBXBXBXBXBXBXBXBXBXBXBXBXBXBXBXBXVXVXVXVXVXCXCXCXDXFXFXFXFXFXFXFXFXFXFXFXFXFXFXFXFXFXFXFXFXFXFXDXDXDXDXDXFXFXFXFXDXFXFXFXFXFXFXFXFXFXFXFXFXFXFXFXFXFXFXFXFXFXFXFXFXFXFXFXFXFXFXFXFXFXFXFXFXFXFXFXFXFXFXFXFXFXFXFXFXFXFXFXFXFXFXFXFXFXFXFXFXFXFXFXCXFXFXFXDXDXkX3XL.L.E.Q.Q.T.~.~.U.U.U.U.Y.Y.Y.Y.m.I.Y.Y.Y.m.m.m.v.y.e.7.5.5.<.<.4.<.<.<.<.<.<.5.<.3.<.3.3.3.( ( ( ) ) ) ) ) ) ) ) ( } } ( } } @.+.@.6.8.6.4.6.6.6.&.@.+.+.@.@.@.&.6.0.0.0.x.b.b.b.b.b.b.b.b.A.A.T.T.T.T.T.A.I.I.T.I.A.I.T.W.W.W.W.R.T.G.G.A.A.A.A.A.v.v.b.b.r.r.7.r.b.b.v.b.b.b.A.v.v.A.T.W.!.[.W.{.[.W.W.[.[.E.'.W.E.E.W.W.E.E.W.W.W.W.'.[.[.W.'.Q.T.T.E.Q.Q.Q.Q.T.T.U.S.S.U.U.G.E.'.'.'.'.[.[.[.'.W.W.'.[.[.[.[.XXXX'.'.'.+X@X[.+X#X$X@X@XoXXX@X@X&X$X@XoXoXoXoXoXoXXXXX+X#X;X+X[.!.W.T.A.I.I.Y.Y.m.m.v.i.i.i.m.~.,X,X,X,X,X{.,X{.{.W.A.0./ u t q q q t q & * q q > & & & & & 9 9 3 & & & z & * * * & 3 3 3 & & & & & & & & & & & & & & & & & 3 3 3 3 3 3 3 3 3 4 4 4 4 4 4 4 4 4 4 4 3 3 3 3 4 4 3 3 3 3 3 3 3 3 3 3 3 3 3 3 2 2 2 2 2 2 2 2 2 2 3 3 3 3 2 2 2 2 2 3 3 3 2 2 2 2 3 3 3 3 2 2 $ $ $ 1 1 1 1 1 1 2 2 2 2 3 r y ",
"* * * * * * * * * * - > w e u u f g j F V P W  .-.M.N.J..X X X2X9XqXwXwXwXtXtXtXtXtXwX0X0X0XtXtXtXyXyXlXlXlXlXxXxXvXmXmXmXBXBXBXBXBXBXBXBXBXBXBXBXBXBXBXBXBXBXBXBXBXBXBXBXBXBXBXVXVXBXBXBXVXCXFXDXDXFXFXFXFXFXFXFXFXFXFXFXCXFXFXFXFXDXDXDXDXDXDXFXFXFXDXDXDXFXFXDXDXFXFXFXFXFXFXFXFXFXFXFXFXFXFXFXFXFXFXFXFXFXFXFXFXFXFXFXFXFXFXFXFXFXFXFXFXFXFXFXFXFXFXFXFXFXFXFXFXFXFXFXFXFXFXFXFXFXFXFXFXFXFXFXFXFXDXDXHXcX=X_.L.E.Q.U.T.~.Y.U.Y.I.Y.m.I.Y.Y.Y.Y.Y.Y.m.m.v.v.y.y.r.r.5.<.<.1.<.<.<.<.<.<.<.4.5.2.<.3.} } ( ( ) ) ) ) ) Y ) ) ) ) ( ( ( } } } @.@.@.6.8.4.4.4.} } @.+.+.@.@.&.&.6.0.6.&.@.6.c.c.b.b.x.0.0.b.G.T.R.R.T.T.I.T.R.W.T.T.T.T.T.T.[.W.R.T.I.T.T.A.A.v.v.A.v.b.b.r.r.0.r.b.b.b.b.b.b.b.v.m.I.T.T.R.W.R.W.W.W.W.E.W.!.Q.E.G.G.T.Q.W.W.G.E.E.T.W.[.[.T.R.E.R.T.E.W.E.T.T.T.T.T.T.A.I.T.T.E.'.'.'.'.'.'.'.'.'.'.{.#X{.'.'.'.'.'.+X+X#X#X+X@X&X&X@X@XoXoX@X&X%X&XoXXXXXoXXX@X@X[.!.[.#X>X>X>X#X!.R.U.I.I.I.I.m.m.i.i.m.m.m.~.!.!.!.{.{.{.;X{.}.R.x.^ x d w q q q q & & & q q & & & & & & & z & & & & z z & & * * & & & & & & & & & & & & & & & & & & & & 3 3 & & & 3 3 q 3 3 3 3 4 4 4 4 3 3 3 3 4 4 4 4 4 4 3 3 3 3 3 3 3 3 3 3 3 3 3 3 3 3 3 3 3 3 3 3 2 2 2 2 2 2 3 3 3 2 2 2 2 2 2 2 2 2 2 2 2 2 2 2 2 2 2 2 2 2 2 1 2 $ $ 2 2 2 7 s ",
"* * * * * * * * * * * > w w e e d d k V j K ~ !  .-.M.B..X X<XeX9XqXwXwXwXtXyXtXtXwXwX0X0XwXtXtXtXyXyXjXjXlXlXxXxXbXmXmXBXBXBXBXBXBXBXBXVXBXBXBXBXBXBXBXBXBXBXBXBXBXBXBXBXBXBXBXVXVXBXBXBXVXCXCXDXFXFXFXFXFXFXFXFXFXFXFXFXCXCXCXFXFXDXFXDXDXDXDXFXFXFXDXDXDXFXFXDXDXFXFXFXFXFXFXFXFXFXFXFXFXFXFXFXFXFXFXFXFXFXFXFXFXFXFXFXFXFXFXFXFXFXFXFXFXFXFXFXFXFXFXFXFXFXFXFXFXFXFXFXFXFXFXFXFXFXFXFXFXFXFXFXFXFXDXDXGXcX3X_.L.E.Q.T.R.~.Y.~.Y.Y.Y.m.m.m.Y.Y.Y.Y.Y.m.m.v.v.y.y.r.r.5.<.<.4.@.<.<.@.@.O.<.<.<.<.3.3.3.} ( ( ( ) ) Y Y Y J Y ) ( ( / / ^ / } +.} } +.@.@.@.@.@.@.&.@.@.+.@.@.@.&.&.6.&.@.&.8.6.&.&.0.x.b.c.b.b.b.b.v.v.v.A.A.T.T.T.T.T.T.T.W.W.T.T.T.T.T.T.A.v.v.v.v.v.b.b.b.0.r.r.b.b.b.b.b.b.v.I.I.I.T.R.W.W.W.W.W.T.T.Q.'.Q.Q.E.G.T.E.Q.W.G.T.T.T.R.[.[.T.R.R.R.W.W.E.T.T.R.T.T.T.T.I.I.T.G.E.].].'.].].].'.].'.'.[.[.[.'.'.'.'.'.'.'.'.+X'.@X@X@X@XoXoXoX@X&X%X&X@XoXXXoXXX@X+X!.Q.W.[.#X>X>X>X!.!.W.R.R.R.R.m.m.m.i.m.m.m.m.!.!.}.}.}.{.{.}.T.b.*.U u e q q q q > > & & q 9 & & & & & 9 & z z & & & & & & & * * & & & & & & & & & & & & & & & & & & & & 3 3 & & & 3 3 q 3 3 3 3 4 4 4 4 3 3 3 3 4 4 4 3 4 4 3 3 3 3 3 3 3 3 3 3 3 3 3 3 3 3 3 3 3 3 3 3 2 3 2 2 2 2 3 3 3 3 2 2 2 2 2 2 2 2 2 2 2 2 2 2 2 2 2 2 2 2 2 1 2 $ $ 2 2 2 7 y ",
"* * * * * * * * * * * - > w w e u d f j j j U W  .-.M.N.)..X<XeX9X0XwXwXwXtXyXtXtXwXwXwXwXwXtXyXtXyXyXjXjXlXxXxXxXbXmXmXBXBXBXBXBXBXVXVXVXVXVXBXBXBXBXBXBXBXBXBXBXBXBXBXBXBXBXBXVXVXBXBXBXVXCXCXDXFXFXFXFXFXFXFXFXFXFXFXFXCXCXCXFXFXFXFXFXFXDXFXFXFXFXFXDXDXDXFXDXDXFXFXDXFXFXFXFXFXFXFXFXFXFXFXFXFXFXFXFXFXFXFXFXFXFXFXFXFXFXFXFXFXFXFXFXFXFXFXFXFXFXFXFXFXFXFXFXFXFXFXFXFXFXFXFXFXFXFXFXFXFXFXFXFXFXDXDXGXcXsX].L.K.T.T.R.~.U.~.~.Y.Y.I.m.m.m.Y.Y.Y.Y.Y.Y.m.m.v.y.r.e.5.1.<.4.<.<.<.<.O.O.O.O.<.<.3.<.} ( ( ( } ) Y Y ^ ^ Y H ) ( ( / ^ ^ / +./ / / { } } } +.@.&.&.&.@.+.+.+.+.+.+.&.@.@.+.@.&.#.#.8.c.c.x.0.0.0.b.b.A.A.A.A.T.I.T.T.R.T.R.W.T.T.T.T.R.T.T.I.A.A.v.v.A.A.v.b.7.r.r.r.b.b.b.v.v.I.I.I.I.I.T.R.W.W.W.E.T.T.W.W.W.'.'.E.E.E.E.T.T.E.W.T.W.'.W.T.E.R.E.E.E.E.T.T.T.T.I.T.T.T.T.T.G.E.].].].'.'.'.[.'.'.'.'.[.[.'.+X[.'.'.].'.].].'.@X@X@X@XoXoXoX&X@X@X@X@X@X@XXXXX+X'.Q.A.I.R.!.+X#X>X#X+X{.[.!.R.R.R.m.m.m.m.m.m.m.!.!.}.}.}.{.{.R.b.=./ x y w > z > q q q z & q q & & & & & > & & & & & & & & & & * * & & & & & & & & & & & & & & & & & & & & 3 3 3 & & 3 3 q 3 3 3 3 3 3 3 3 3 3 3 3 4 4 3 3 4 4 3 3 3 3 3 3 3 3 3 3 3 3 3 3 3 3 3 3 3 3 3 3 3 3 3 3 3 3 3 3 3 2 2 2 3 2 3 3 2 2 2 2 2 2 2 2 2 2 2 2 2 2 2 1 2 $ $ 2 2 2 4 y ",
"* * * * * * * * * * * - - > w e u a f k j j P ~ W  .h.N.)..X X2XeXqX0X0X0XtXtXtXwXwXwXwXwXtXtXyXtXyXyXjXjXlXxXlXxXbXmXmXBXBXBXBXVXVXVXVXVXVXVXVXBXBXBXBXBXBXBXBXBXBXBXBXBXBXBXVXVXVXVXBXVXVXCXCXDXDXFXFXFXFXFXFXFXFXFXFXFXCXCXCXFXFXFXFXFXFXFXFXFXFXFXFXDXDXFXFXDXDXFXFXDXFXFXFXFXFXFXFXFXFXFXFXFXFXFXFXFXFXFXFXFXFXFXFXFXFXFXFXFXFXFXFXFXFXFXFXFXFXFXFXFXFXFXFXFXFXFXFXFXFXFXFXFXFXFXFXFXFXFXFXFXCXFXDXDXGXPXdXOXL.G.T.T.R.~.U.~.~.Y.Y.I.I.m.m.Y.Y.Y.Y.Y.Y.I.I.v.y.e.e.5.1.1.5.<.1.1.<.O.} } } } @.3.} ( ( ( ( ( ^ Y Y ^ / ^ Y ^ ( / / ^ ^ ^ / / ^ E ^ { { | +.} +.@.@.+.+.} } { { { +.+.+.+.+.&.&.&.8.x.x.8.&.0.0.0.b.b.T.T.T.T.T.T.R.W.R.T.T.T.T.R.W.W.R.T.T.I.A.v.v.I.I.v.b.r.r.r.r.b.b.v.m.m.T.R.R.I.I.T.R.W.W.W.E.T.T.T.E.E.Q.'.W.Q.E.E.T.E.W.W.W.W.'.W.W.E.T.T.T.E.E.E.W.Q.G.A.T.W.W.T.T.T.E.].'.].'.'.'.&X@X'.].'.[.[.+X+X+X[.'.'.].'.'.+X@X@X@X@X@X@X@X&X@X[.@X&X&X@X'.+X'.Q.U.Z.v.R.!.!.+X$X#X#X$X{.[.[.!.!.R.Y.m.m.Y.m.R.!.{.{.}.}.}.}.G.x.&.E j t w & & > q q q q z q q z & & & & > & & & & & & & & & & & & & & * * & & & & & & & & & & & & & & & & 3 3 3 3 3 3 3 6 3 3 3 3 3 3 3 3 4 4 4 3 4 4 3 4 4 4 3 3 3 3 3 3 3 3 3 3 3 3 3 3 3 3 3 3 3 3 3 3 3 3 3 3 3 3 3 3 3 2 2 2 3 3 3 3 2 2 2 2 2 2 2 2 2 2 2 2 2 2 2 1 2 $ $ 2 2 2 3 r ",
"* * * * * * * * * * * - - > w e t t f f k k K I W  .-.N.)..X X2X2X9X0X0X0XtXtXtXrXrXrXrXtXtXtXtXwXtXyXyXjXlXlXxXxXbXmXmXMXMXBXBXVXVXVXVXVXVXVXVXBXBXBXBXBXBXBXBXBXBXBXBXBXVXVXVXBXVXBXVXVXVXVXCXCXDXFXFXFXFXFXFXFXFXFXFXFXCXCXCXFXFXFXFXFXFXFXFXDXDXDXDXFXFXDXDXDXFXDXDXDXFXFXFXFXFXFXFXFXFXFXFXFXFXFXFXFXFXFXFXFXFXFXFXFXFXFXFXFXFXFXFXFXFXFXFXFXFXFXFXFXFXFXFXFXFXFXFXFXFXFXFXFXFXFXFXFXFXFXFXFXFXFXDXDXGXPXfX-XL.G.T.T.~.~.~.~.~.~.Y.Y.Y.m.Y.Y.Y.Y.Y.Y.Y.I.I.v.y.e.e.9.5.1.4.1.1.1.1.<.O.} } } } ( ( / ) ) / ^ Y ^ ^ / ^ ^ Y / / / / / ^ E E ^ E E E ^ / { } { { +.+.+.{ } { { / / { +.+.+.+.*.&.*.=.=.&.&.&.w.6.&.4.0.b.A.A.T.T.T.T.W.W.T.A.A.T.E.W.W.W.T.T.T.A.b.v.A.A.A.b.b.r.r.r.b.b.v.I.I.T.R.R.T.I.T.T.T.T.T.E.E.T.T.G.T.Q.Q.W.W.W.E.T.Q.W.W.Q.Q.W.W.W.E.G.G.G.G.E.!.'.Q.G.A.T.W.W.T.T.T.E.W.'.'.'.'.'.#X@X'.'.'.'.+X@X+X+X'.'.'.+X+X+X@X#X&X@X@X@X&X&X&X@X'.@X&X%X@X'.+XQ.T.A.v.v.U.!.!.[.$X$X#X$X+X[.[.{.!.R.~.~.~.R.!.R.R.}.}.{.}.}.E.H.n.*.! F t y - & q q q q q q q q & & & & & > & & & & & & & & & & & & * * * * & & & & & & & & & & & & & & & & 3 3 3 3 3 3 3 3 3 3 3 3 4 4 3 3 4 4 4 4 3 3 3 3 4 4 3 3 3 3 3 3 3 3 3 3 3 3 3 3 3 3 3 3 3 3 3 3 3 3 3 3 3 3 3 3 3 3 2 2 2 2 3 3 2 2 2 2 2 2 2 2 2 2 3 3 2 2 2 1 2 $ $ 1 2 2 3 r ",
"* * * * * * * * * * * - - > w e t t t f f k :.K ~  .-.M.J.`..X2X2X9XqX0XqXtXtXrXtXtXtXtXtXtXtXtXwXtXyXyXyXjXlXxXxXbXmXmXMXMXBXBXBXVXVXVXVXVXVXVXBXBXBXBXBXBXBXBXBXBXBXBXVXVXVXVXBXVXVXVXVXVXVXCXCXDXFXFXFXFXFXFXFXFXFXFXFXCXCXCXFXFXFXFXFXFXFXFXDXDXDXDXFXFXFXDXFXDXDXDXDXFXFXFXFXFXFXFXFXFXFXFXFXFXFXFXFXFXFXFXFXFXFXFXFXFXFXFXFXFXFXFXFXFXFXFXFXFXFXFXFXFXFXFXFXFXFXFXFXFXFXFXFXFXFXFXFXFXFXFXFXCXDXFXDXGXHXIX-XL.G.T.T.U.~.~.U.~.~.U.Y.Y.Y.Y.Y.Y.Y.Y.Y.I.I.v.v.y.e.e.e.5.1.1.1.1.1.1.<.O.} } } ( ( / ^ / ^ ^ Y ^ ^ ^ ^ Y H Y E E E ^ / / ^ E E Y U Y E E E ^ / { { +.{ { { { / ! ^ { } +.+.+.o.+.+.*.#.+.&.8.w.=.&.@.&.8.x.b.A.G.G.G.T.E.T.A.A.T.W.W.W.E.T.T.T.A.v.A.A.A.A.v.b.b.b.b.b.b.v.I.I.T.I.R.I.T.T.T.T.T.T.T.W.E.T.G.G.T.E.W.W.'.W.T.T.T.E.W.E.E.W.Q.E.T.G.G.T.Q.'.[.Q.T.T.W.W.W.T.T.R.W.Q.'.'.'.].'.[.'.'.'.'.'.'.+X+X+X+X+X+X@X#X#X#X&X&X&X@X&X&X%X&X@X[.{.&X&X+X'.'.G.c.t.t.y.Y.!.~.!.+X+X+X+X+X[.{.{.!.R.R.R.~.R.R.m.m.R.}.}.}.}.H.F.F.*.! V a r q q q q q q q & q q & & & & & > & & & & & & & & & & * & * * * * & & & & & & & & & & & & & & & & & & & 3 3 3 3 3 3 3 3 3 4 4 3 3 4 4 4 4 3 3 3 3 4 4 3 3 3 3 3 3 3 3 3 3 3 3 3 3 3 3 3 3 3 3 3 3 2 2 3 3 3 3 3 3 3 3 2 3 2 2 3 3 2 2 2 2 2 2 2 2 2 2 3 3 2 2 2 1 2 1 $ 1 1 1 3 r ",
"* * * * * * * * & & * & - > w w t t t a f f k K K ! %.h.J.). X2X2X9XqXqX0XtXyXtXtXtXyXtXtXtXrXrXwXtXyXyXyXlXlXxXxXvXmXmXMXMXBXBXBXBXVXVXVXVXBXBXBXBXBXBXBXBXBXBXBXBXBXBXVXVXVXVXBXVXVXVXVXCXVXVXCXDXFXFXFXFXFXFXFXFXFXFXFXFXCXCXFXFXDXFXDXDXDXDXDXDXFXFXFXFXDXDXFXFXDXDXFXFXFXFXFXFXFXFXFXFXFXFXFXFXFXFXFXFXFXFXFXFXFXFXGXGXGXFXFXFXFXFXFXFXFXFXFXFXFXFXFXFXFXFXFXFXFXFXFXFXFXFXFXFXFXFXFXFXFXFXFXCXFXFXDXDXHXcX=X].K.T.Q.U.~.~.U.U.~.U.Y.Y.Y.Y.Y.Y.Y.I.I.I.v.v.v.y.r.r.r.5.1.1.@.<.1.1.<.O.} } } / / / ( / ^ E ^ ^ ^ ^ Y Y Y E Y Y Y E / / ^ ! Y U U Y I I E E ^ { { +.{ { ! Q ! ! / { { { { o./ { +.+.+.#.#.=.=.=.&.&.@.4.q.c.D.A.A.A.G.E.T.A.A.T.E.Q.E.Q.Q.E.T.T.A.A.A.A.A.A.v.v.b.b.b.b.v.v.I.I.I.I.R.R.R.T.R.T.T.T.T.W.W.W.E.E.E.W.'.[.'.T.T.T.E.W.W.E.W.'.W.E.E.E.E.Q.'.'.Q.T.E.W.W.W.Q.E.W.W.W.W.W.W.'.'.'.'.'.'.'.'.oX+X+X+X+X+X+X+X#X#X@X#X@X@X@X&X&X%X&X#XoX@X#X@X[.'.Q.c.4.5.9.e.y.I.I.T.Q.!.!.!.[.!.!.!.R.R.R.R.~.R.m.R.R.R.R.T.}._._._.F.*.W V a r q q q q q q 3 3 q q & & & & & > & & & & & & & & * * * * & & & & & & & & & & & & & & & & & & & & & & & & 3 3 3 3 3 3 3 3 4 4 4 3 3 3 4 4 4 4 4 3 4 4 3 3 3 3 3 3 3 3 3 3 3 3 3 3 3 3 3 3 3 3 3 3 2 2 2 2 3 3 3 3 3 3 3 3 2 2 3 3 2 2 2 2 2 2 2 2 2 2 3 3 2 2 2 1 2 1 $ 1 1 $ 2 r ",
"* * * * * * * * & * * * & - w w y q y t f f f k K W  .h.B.)..X2X2X9XqX0XwXyXyXyXyXyXyXyXtXtXrX0XwXtXyXyXyXlXlXxXxXvXmXmXMXMXBXBXBXBXVXVXVXVXBXBXBXBXBXBXBXBXBXBXBXBXBXBXBXVXVXVXBXVXVXVXCXCXVXCXDXDXFXFXFXFXFXFXFXFXFXFXFXFXCXCXFXFXDXDXDXDXDXDXDXFXFXFXFXFXDXDXFXFXFXFXFXFXFXFXFXFXFXFXFXFXFXFXFXFXFXFXFXFXFXFXFXFXFXFXGXGXGXFXFXFXFXFXFXFXFXFXFXFXFXFXFXFXFXFXFXFXFXFXFXFXFXFXFXFXFXFXFXFXFXFXFXCXFXFXDXHXHXcX3XOXK.E.Q.R.~.~.Y.Y.U.U.~.~.Y.Y.Y.Y.Y.Y.I.v.v.y.v.r.r.r.r.9.1.<.O.@.<.<.O.} } } ( / / ( O.} ^ Y ^ ^ ^ ^ E E ^ / E ^ E E Y Y Y Y Y Y U Y E E E E / { { +.{ / E Q ! ! / o.{ / / / / { +.$.#.+.#.&.#.*.#.#.+.&.w.x.x.c.c.c.A.T.T.A.G.T.E.Q.Q.T.T.E.T.T.T.G.A.A.A.A.v.v.v.v.v.v.v.v.I.v.m.T.R.!.R.T.W.T.I.I.T.W.!.'.W.W.E.E.[.+X'.T.E.E.W.'.'.}.'.[.E.E.E.Q.W.Q.E.E.E.E.W.'.Q.E.Q.W.W.W.W.W.W.W.'.'.'.oX+X@X@X@X@X@X+X+X+X+X+X+X@X#X@X@X@X@X@X@X&X%X&X#X#XoXoX@X'.'.T.0.@.@.5.2.5.e.y.Z.Y.U.~.!.!.!.!.R.~.~.R.R.R.R.m.}.}.}.n.F._.]._._.F.-.W Z a r q q q q q 3 3 & q q & & & & & > & & z z & & & & & * * * & & & & & & & & & & & & & & & & & & & & & & & & 3 & 3 & 3 3 3 3 4 4 4 4 3 3 3 4 4 4 4 3 4 4 3 3 3 3 3 3 3 3 3 3 3 3 3 3 3 3 3 3 3 3 3 3 2 2 2 2 2 3 3 3 3 3 3 3 2 2 3 3 2 2 2 2 2 2 2 2 2 2 3 3 2 2 2 1 2 $ $ 1 1 1 2 7 ",
"* * * * * * * * * * * - - - - w y t t t t f k k K W  .h.N.)..X<X<X9XqXqXiXtXtXjXtXtXuXuXyXtXtXtXtXyXyXyXjXlXxXxXxXxXbXmXMXMXBXBXBXBXVXVXVXVXVXVXBXBXBXBXMXMXBXBXBXBXBXBXVXVXVXVXBXVXVXVXVXVXVXVXDXDXDXFXFXFXFXFXFXFXFXFXFXFXFXFXFXFXFXDXFXDXDXFXFXFXFXFXFXFXDXDXDXFXFXFXFXFXFXFXFXFXFXFXFXFXFXGXFXFXFXFXFXFXFXFXFXFXGXGXGXGXGXFXFXFXFXFXFXFXFXFXGXFXFXFXFXFXFXFXFXFXFXFXFXDXDXDXFXFXFXFXFXFXFXFXCXFXFXCXFXGXHXcXsXOXE.G.T.W.Y.~.~.~.R.~.~.~.~.Y.Y.Y.Y.Y.Y.I.Z.Z.v.r.t.t.5.<.1.1.8.1.<.@.O.} } O.( / / O.@./ Y Y E Y Y E ^ ^ ^ ^ ^ E Y Y Y Y Y Y Y Y U U U Y E ! / / { { { ! ! ! ! ! { o.o.o.{ / / { o.#.+.#.#.=.&.#.#.#.#.#.=.x.x.c.q.8.x.G.T.A.D.S.G.T.G.G.G.T.T.T.G.S.A.A.A.b.b.A.A.v.b.b.v.A.v.v.I.I.T.R.R.!.R.T.T.I.T.R.W.W.W.'.[.}.W.W.'.'.W.Q.E.W.'.'.'.'.'.K.K.E.].E.E.].E.E.T.Q.'.'.Q.G.W.W.W.W.W.W.Q.Q.'.'.'.oX+XoX'.'.+X+X@X@X@X+X@X@X@X#X@X@X@X@X@X&X#X&X&X&XoX].].'.D.&.{ ( } <.5.7.e.v.I.I.I.R.W.R.I.I.I.I.R.R.R.I.R.R.}.}._._._.-X X`.F.l.[ B s y r q q q q q q 3 q q > & & & & > & & & & & & & & & & & & & & & & & & & & & & & & & & * * * * * * & & % % & & 3 3 3 3 3 3 4 4 3 3 3 3 4 4 4 4 4 3 4 4 3 3 3 3 3 3 3 3 3 3 3 3 3 3 3 3 3 3 3 3 3 3 1 1 2 2 2 2 2 2 2 2 2 2 2 2 2 2 2 2 2 2 2 2 2 2 2 2 2 2 3 2 1 $ 2 $ $ 2 2 2 3 r ",
"* * * * * * * * * * * - - - - q q q q t t t f k K ~ ' -.M.N.`. X<X4X9XqXtXtXtXtXtXtXtXtXtXtXtXtXtXyXyXyXyXlXxXxXxXxXbXmXMXMXBXBXBXBXVXVXVXVXVXVXBXBXBXBXMXBXBXBXBXBXBXBXVXVXVXVXVXVXVXVXVXVXVXVXDXDXFXFXFXFXFXFXFXFXFXFXFXFXFXFXFXFXFXDXDXDXFXFXFXFXFXFXFXFXDXDXDXFXFXFXFXFXFXFXFXFXFXFXFXFXFXFXFXFXFXFXFXFXFXFXFXFXGXGXGXGXGXGXFXFXFXFXFXFXFXFXGXFXFXFXFXFXFXFXFXFXFXFXFXFXDXDXFXFXFXFXFXFXFXFXCXFXFXCXFXGXHXcXgXOXL.K.T.R.U.~.~.R.R.R.~.~.~.~.Y.Y.Y.I.I.I.Z.Z.v.r.r.r.5.1.1.@.@.@.O.O.O.} } O.<.( ( O.@.} ^ ^ / ^ E ^ ^ E E E E Y Y Y U U Y Y Y Y Y Y Y Y Y Y ! ! / { { ! Q Q ! ! / / / { / / o.o.o.{ { { +.#.#.#.#.#.#.#.&.w.w.q.0.8.x.G.E.G.G.G.G.G.G.T.E.Q.S.A.A.A.A.A.A.A.b.A.A.A.A.v.v.A.A.A.I.A.I.T.T.R.R.T.T.T.T.R.W.W.W.'.[.'.'.'.'.W.'.Q.W.Q.'.'.'.'.'.E.E.].].].Q.'.Q.E.G.T.E.Q.E.G.E.W.W.Q.Q.W.W.E.E.Q.'.XXoXoXoX+XXX+X+X+X+X+X@X#X#X#X@X@X@X@X@X@X&X&X&XoX'.'.].].x.+.^ ^ / } } } <.7.r.r.b.m.I.I.W.R.I.m.I.R.R.I.R.H.H._._.-X5X5X<X X).l.[ Z a s r r q q q q q 3 q q > & & & & > & & z z & & & & & & & & & & & & & & & & & & & & & & * * * * * * & % % % & & 3 3 3 3 3 3 4 4 4 4 3 3 4 4 4 4 3 3 4 4 3 3 3 3 3 3 3 3 3 3 3 3 3 3 3 3 3 3 3 3 3 3 2 2 2 2 2 2 2 2 2 2 2 2 2 2 2 2 2 2 2 2 2 2 2 2 2 2 2 2 3 2 1 $ 2 $ $ 2 2 2 3 r ",
"* * * * * * * * & * * & - & - - q q q t t t f f K K W  .h.N.). X2X4X9X9X0XtX0XtXtXtXtXtXtXtXtXrXyXyXyXyXjXlXxXxXxXbXbXmXMXMXBXBXBXBXVXVXVXVXVXBXBXBXBXBXBXBXBXBXVXBXBXBXVXVXVXVXBXBXVXVXVXVXVXVXCXDXFXFXFXFXFXFXFXFXFXFXFXFXFXFXFXFXFXFXDXDXDXDXDXDXFXFXFXFXFXFXDXDXFXFXFXFXFXFXFXFXFXFXFXFXFXFXFXFXFXFXFXFXFXFXGXGXGXGXGXGXGXGXFXFXFXFXFXFXFXFXGXFXFXFXFXFXFXFXFXFXFXFXFXFXFXDXFXFXFXFXFXFXFXFXFXFXFXCXFXGXHXcXdX-XL.G.T.W.R.R.R.R.R.R.~.~.~.~.Y.Y.Y.I.I.Z.Z.Z.v.e.r.t.9.4.1.O.O.} ( } } } } O.@.( / ( } } / / { / / / ^ E E E E E E Y U Y E ^ E E E E Y Y U F E E ! { { ! E E ! ! / / / / / / #.o./ / / / o.#.o.o.o.o.o.o.#.$.#.&.=.8.x.G.K.S.T.G.D.D.D.G.K.K.D.c.x.x.c.D.A.S.D.A.A.A.A.A.A.A.A.A.T.A.A.A.A.T.T.T.T.T.R.W.W.W.'.[.[.'.'.'.'.W.'.].].'.'.'.+X[.].].].].'.].].'.oX].E.G.K.E.Q.E.T.W.Q.Q.Q.Q.T.D.D.G.Q.'.'.'.'.+X+X+X+X+X+X+X#X$X$X#X@X@X@X@X@X&X&X&XoX].].'.].H.=.*.{ | { | | } <.0.r.b.b.b.b.b.I.v.b.b.v.m.m.b.G.H._.oX5X6XrXrX5X1X).h.' Z l a y r r r r q 3 3 q q z & & & & > & & & & z & & & & & & & & & & & & & & & & & & & & & * * * * * * & % % % & & 3 3 3 3 3 3 4 4 4 4 3 3 4 4 3 3 3 3 4 4 3 3 3 3 3 3 3 3 3 3 3 3 3 3 3 3 3 3 3 3 3 3 2 2 3 2 2 2 2 2 2 2 2 2 2 2 2 2 2 2 2 2 2 2 2 2 2 2 3 3 3 2 1 $ 2 $ 1 2 2 2 3 r ",
"* * * * * * * * & & & & - & & & q q t t t u f f j K R  .-.N.)..X<X4X9X9X0X0X0XtXtXtXtXtXtXtXtXtXyXyXyXyXyXjXlXxXxXvXbXmXMXMXBXBXBXBXVXVXVXVXVXBXVXBXBXBXBXBXBXBXBXBXBXBXVXVXVXVXVXBXBXVXVXVXVXCXCXDXFXFXFXFXFXFXFXFXFXFXFXFXFXFXFXFXFXFXFXDXDXDXDXDXDXDXFXFXFXFXDXDXFXFXFXFXFXFXFXFXFXFXFXFXFXFXFXFXFXFXFXFXFXFXGXGXGXGXGXGXGXGXFXFXFXFXFXFXFXFXFXFXFXFXFXFXFXFXFXFXFXFXFXFXFXFXFXFXFXFXFXFXFXFXFXFXFXHXFXFXFXPXIX-XL.H.G.R.R.U.R.R.R.R.~.~.~.~.Y.Y.m.m.I.I.Z.Z.I.r.e.r.9.4.<.} ( / / ( ( ( ( } } / / ( ( ( / ( / / / / ^ E ^ / / / / ^ E E ^ / ^ / / / ^ E Y U Y E E { { / Q Q Q ! / / / / { { { / ^ ! / { o.#.o.o.{ o.#.o.o.o.+.+.#.&.w.D.D.D.G.D.c.c.D.S.G.G.x.x.x.x.c.D.D.A.A.A.A.A.A.A.A.A.A.A.T.A.A.A.A.T.T.T.R.W.W.W.W.W.}.[.[.[.'.'.'.E.].'.].].'.'.+XoXoX'.].].'.'.'.'.@X'.].E.E.Q.Q.Q.E.'.'.Q.E.E.D.w.x.S.Q.'.Q.Q.'.'.+X+X+X+X+X+X@X$X$X#X@XoXoX@X@X&XoX&XoX].'.oX_.n.=.x.D.n.&.| | } | } 6.0.b.b.0.5.x.x.b.b.b.b.b.F._.oX5XgXjXjXrX4X4X1X`.k.' C s s s y r r q q 3 3 q q z & & & & z & & & & z & & & & & & & & & & & & & & & & & & & & & * * * * * * & % $ % % & 3 3 3 3 3 3 4 4 3 3 3 3 4 4 3 3 3 3 4 4 3 3 3 3 3 3 3 3 3 3 3 3 3 3 3 3 3 3 3 3 3 3 2 2 2 2 2 2 2 2 2 2 2 2 2 2 2 2 2 2 2 2 2 2 2 2 2 2 3 3 3 2 1 $ 2 $ 1 2 2 1 3 7 ",
"* * * * * * * * & * & - - & * & q q q e t t f f j V I  .-.N.).`.<X2X4X4X0X0X0X0XtXtXtXtXtXtXtXtXyXyXyXyXyXjXlXxXxXbXmXmXBXBXBXBXBXBXVXVXVXVXVXBXVXVXBXBXBXBXBXBXBXBXBXVXVXVXVXVXVXVXBXBXVXVXCXCXCXCXDXFXFXFXFXFXFXFXFXFXFXFXFXFXFXFXFXFXFXFXDXDXDXDXFXFXFXFXFXFXFXFXFXFXFXFXFXFXFXFXFXFXFXFXFXFXFXFXFXFXFXFXGXGXGXGXGXGXGXGXGXGXFXFXFXFXFXFXFXFXFXFXFXFXFXFXFXFXFXFXFXFXFXFXFXFXFXFXFXFXFXFXFXFXFXFXFXHXFXFXFXHXcX-XL.D.A.W.U.U.R.R.R.R.~.~.Y.Y.Y.Y.I.I.I.I.I.Z.v.9.5.9.1.@.} / ( / / / / / / ( / ( } } ( / } } / / | | / ^ ^ | { } } } / ^ / / / / / / ^ E Y Y E E E / / ! E E E ! ! E ^ / o.+./ / ^ / / o.+.o.#.+.+.+.+.o./ / o.#.*.=.w.x.D.x.H.D.D.D.H.H.H.D.q.x.c.D.D.D.D.D.A.A.A.S.G.S.A.A.A.A.G.G.G.G.T.T.T.T.W.W.W.W.W.W.'.[.[.'.'.'.'.E.Q.].].'.'.oXoXoXoXoX].].].].].].oXoX'.].Q.Q.E.Q.E.Q.W.E.K.G.x.+.&.D.E.W.Q.W.'.'.$X@X@X+X+X+X@X$X$X#X@X+XoX+X@X@XoX&X&X].oXoXL.j.j.F.].oXE.x.+.| / | | @.4.6.0.x.6.6.x.x.x.x.F._.&X3XkXkXvXkXrX4X4X1X`.k.] A s s a y r r r q q 3 q q & & & & & > & & & & z & & & & & & & & & & & & & & & & & & & & & * * * * * * & & % % & & 3 3 3 3 3 3 3 3 3 3 3 3 3 3 3 4 4 4 4 4 3 3 3 3 3 3 3 3 3 3 3 3 3 3 3 3 3 3 3 3 3 3 3 3 3 2 2 2 3 2 2 2 2 2 2 2 2 2 2 2 2 2 2 2 2 2 2 2 3 3 2 2 1 1 2 1 1 2 2 1 2 3 ",
"* * * * * * * * & * * & & * * & & z q q q e t u f j U ' -.M.B.)..X2X2X2XqX0X0X0XtXtXtXtXtXtXtXtXyXyXyXyXyXyXlXlXxXbXmXmXBXBXBXBXBXBXVXVXVXVXVXBXVXVXBXBXBXBXBXBXBXBXBXBXVXVXVXVXVXVXVXVXVXVXCXFXCXCXFXFXFXFXFXFXFXFXFXFXFXFXFXFXFXFXFXFXFXFXFXFXDXDXFXFXDXFXDXDXFXFXFXFXFXFXDXDXFXFXFXFXFXFXFXFXFXFXFXFXFXFXGXGXGXGXGXGXGXGXGXGXFXFXFXFXFXFXFXFXFXFXFXFXFXFXFXFXFXFXFXFXFXFXFXFXFXFXFXFXFXFXFXFXFXFXFXFXFXFXFXFXcX=X].G.A.R.I.U.~.R.~.~.R.~.Y.Y.~.Y.I.I.Y.I.Z.t.r.1.<.<.} ( ( / ( / / / / / / / ) ( } } ( / } } } } } } | ^ / } } } @.@.} } / / / / / ^ ^ ^ ^ E ^ ^ ^ ^ E U F F Y E ! E ! / { o./ / ( { { { ( ( +.+.+.+.+.{ / { +.#.&.=.w.w.x.x.x.q.w.x.D.D.x.w.w.x.D.D.A.D.c.x.D.D.A.A.S.G.S.A.A.A.G.T.T.T.T.T.A.T.W.W.W.W.W.'.'.[.'.'.'.[.'.'.].].'.'.oX'.'.oXoXoX].].].].'.].].'.].].Q.E.K.K.E.T.K.T.G.D.&.+.+.x.G.E.Q.'.+X+X@X@X@X+X+X+X@X$X#X#X@X@X@X@XoXoX'.oXoXoXoX].J.j.C._.&X3XsX5X}.x.x.*.+.| +.+.&.x.=.=.x.n.n.F.oX3XgXkXNXNXvXnXiX9X4X1X`.k.] K s r s r r 3 3 6 q 6 q q & & & & & > & & & & & & & & & & & & & & & & & & & & & & & & & & * * * * * * & & % % & & 3 3 3 3 3 3 4 4 3 3 3 3 3 3 3 4 4 4 4 4 3 3 3 3 3 3 3 3 3 3 3 3 3 3 3 3 3 3 3 3 3 3 4 3 2 2 2 2 3 2 2 2 2 2 2 2 2 2 2 2 2 2 2 2 2 2 2 2 3 3 3 2 1 1 1 $ 1 2 2 1 1 3 ",
"* * * * * * * * * * * & & * * & & & > q q e t u f k K W  .-.N.)..X2X2X2X9XqXqX0X0XtXtXtXtXtXtXtXyXyXyXyXyXwXjXxXxXbXmXmXBXBXBXBXBXBXVXVXVXVXVXBXVXVXBXBXBXBXBXBXBXBXBXBXVXVXVXVXVXVXBXBXVXCXFXFXDXDXDXFXFXFXFXFXFXFXFXFXFXFXFXFXFXFXFXFXFXFXFXFXDXFXFXFXDXDXDXDXFXFXFXFXFXDXDXDXFXFXFXFXFXFXFXFXFXFXFXFXFXFXGXGXGXGXGXGXGXGXGXGXFXFXFXFXFXFXFXFXFXFXFXFXFXFXFXFXFXFXFXFXFXFXFXFXFXFXFXFXFXFXFXFXFXFXFXFXFXHXFXGXcX3XoXK.S.T.I.R.R.~.~.~.R.Y.Y.Y.~.Y.I.Y.I.I.y.e.5.<.O.O.( ( } ( ( ( / ( ( / / ( ( ( ( ( ( } } } <.@.} } } | | } } } } } } } } } } } ( ( / / ^ ^ ^ / / ^ Y F F Y Y ^ / / / / ( ( } +.+.+.{ ( ( ( O.} +.+.+.{ O.+.#.#.#.&.=.=.w.w.=.w.w.w.w.w.=.=.w.w.x.x.D.D.D.D.c.c.c.D.S.G.G.S.A.S.G.T.T.T.T.T.S.T.E.E.E.E.W.[.[.[.'.'.[.@X@X'.].'.@X@XoX'.'.oXoXoXoX].].oX'.].].].].].E.E.L.L.Q.G.G.E.E.D.8.&.&.D.E.E.Q.[.+X+X'.XX+X+X+X+X@X$X@X@X$X$X@X+XXX'.].].].].]._.F.j.F.|.3XfXkXkXgX3X&X_.F.n.x.j.x.x.H.F._.oX5X5XgXNXNXPXNXvXnXnXuXaX4X1X`.N...K s r y r 3 3 3 3 6 q q q & & & & & > & & z & & & & & & & & & & & & & & & & & & & & & & & * * % % * * & & % % & & 3 3 3 3 3 3 4 4 4 4 4 4 3 3 4 4 4 4 4 4 3 3 3 3 3 3 3 3 3 3 3 3 3 3 3 3 3 3 3 3 3 3 7 3 2 2 1 2 3 3 2 2 2 2 2 2 2 2 2 2 2 2 2 2 2 2 2 2 3 3 2 2 1 $ 1 1 1 2 2 1 1 2 ",
"* * * * * * * * * * * & & * & & z 9 q q e t u f f h K R [ ..N.).`.1X2X2X4X9X9X0X0X0XrXtXtXtXtXtXyXyXyXyXyXyXjXlXxXvXmXmXmXBXBXBXBXBXVXVXVXVXVXBXVXVXBXBXBXBXBXBXBXBXBXBXVXVXVXVXVXVXVXBXVXVXFXFXCXCXDXFXFXFXFXFXFXFXFXFXFXFXFXFXFXFXFXFXFXFXFXFXFXFXFXFXDXDXDXDXFXFXFXFXFXDXDXFXFXFXFXFXFXFXFXFXFXFXFXFXFXFXGXGXGXGXGXGXGXGXGXGXFXFXFXFXFXFXFXFXFXFXFXFXFXGXGXGXFXFXFXFXFXFXFXFXFXFXFXFXFXFXFXFXFXFXFXFXFXCXFXGXcX3X-XE.G.T.T.R.R.R.R.R.R.I.Y.Y.Y.Y.I.Y.Y.Z.y.9.4.@.@.@.} } @.@.} ( ( ( ( ( ( } <.3.} } @.4.4.@.<.@.} } } } } @.@.} } } @.<.4.4.@.@.@.O.+.( / ^ E / / / E U Y ^ ^ / } ( / ( ( ( } +.@.+.{ / { +.( ( +.+.+.{ +.$.o.o.+.#.#.&.=.w.w.x.x.x.w.w.w.x.w.w.w.w.x.D.D.D.D.x.x.D.A.G.T.G.D.S.G.T.T.G.T.G.A.T.R.E.T.E.W.[.@X{.[.'.[.&X&X@X'.+X@X&X@XoXoXoXoX-XoX].].oXoX].'.XX'.].E.E.E.].'.G.G.'.'.H.q.w.x.G.W.W.W.[.[.!.Q.Q.'.+X+X@X@X$X+X@X$X$X&X@X'.'.'.]._._._.J.F.M.).5XkXcXkXkXkXkXkXgXsXsX3X3X5X3XsX3XgXkXNXNXNXDXGXGXNXvXnXnXiX4X4X1X`.N...L S r r r 3 3 3 3 6 q q q & & & & & > & & z & & & & & & & & & & & & & & & & & & & & & & & * * % % * * & & % % & & 3 3 3 3 3 3 3 3 3 3 4 4 3 3 3 4 4 4 4 4 3 3 3 3 3 3 3 3 3 3 3 3 3 3 3 3 3 3 3 3 3 3 7 4 2 2 1 2 2 3 2 2 2 2 2 2 2 2 2 2 2 2 2 2 2 2 2 2 3 3 2 2 1 $ $ $ 1 2 2 $ 1 2 ",
"* * * * * * * * * * * * * * & & q q q q q q t t a h V R ' ..h.).)..X<X2X2X4X9X9X0XrXrX0XqXwXtXtXjXjXhXhXhXjXjXjXvXbXmXmXmXNXBXVXBXBXBXVXVXVXVXBXBXBXBXBXVXVXVXVXVXVXVXVXBXBXBXVXVXVXVXVXCXCXCXCXDXDXFXFXFXFXFXFXFXFXFXFXFXFXFXFXFXFXFXFXFXFXFXFXFXFXFXFXDXDXFXFXDXDXFXFXFXDXDXFXFXFXFXFXFXFXFXFXFXFXFXFXFXFXFXFXFXFXFXGXGXGXGXGXGXGXGXFXFXFXFXFXFXFXFXFXFXFXFXFXFXFXFXFXFXFXCXCXCXCXCXCXCXFXFXFXFXFXFXFXFXFXFXFXcXgXoXK.K.T.G.T.R.R.R.R.~.~.~.Y.Y.I.I.I.U.U.t.4.1.4.1.+.} @.@.+.} / } +./ ^ ( O.4.1.@.@.<.5.5.4.5.6.<.@.@.@.@.} } @.<.<.6.2.<.<.<.<.@.@.@.+.| ^ ^ ^ { { ^ E ^ / ^ / +.+.( ( O.$.o.*.&.+.} } +.+.} +.@.#.{ { +.&.#.{ { #.&.$.&.w.x.w.w.w.w.w.w.w.w.=.w.w.D.D.D.w.x.x.x.x.A.G.G.D.G.K.T.T.T.T.T.T.T.A.T.W.Q.T.E.!.[.+X+X'.].[.#X#X@XoX@X&X&X@X@XoXXXXXXX'.'.XXXXXXQ.E.E.Q.Q.E.E.Q.K.K.G.T.T.G.D.x.D.T.Q.E.E.Q.'.W.Q.Q.XX@X@X@X@X@X$X&X$X@XoXoXoX].K.].].L.J.F.F.F.|.qXcXcXcXcXcXNXNXNXNXNXcXcXcXcXkXcXcXNXPXDXDXDXVXVXBXbXnXhXiX9X4X1X`.N...L S s 9 3 3 3 3 q r q q q z & & & & & & & & & & & & & & & & & & & & & & & & & & & & & & & * * * * * * & & % % & & & 3 3 3 3 3 3 3 3 3 3 3 3 4 4 4 4 4 4 4 3 3 3 3 3 3 3 3 3 3 3 3 3 3 3 3 3 3 3 3 3 3 3 2 3 2 2 2 2 3 3 3 3 3 3 3 3 2 2 2 3 3 3 3 3 3 2 2 2 2 3 2 1 $ 2 2 2 2 2 2 2 2 ",
"* * * * * * * * * * * * * * & & 3 9 q q q q t t a h V K [ ..h.B.)..X<X<X2X9X9X0X0XrXrX0XqXwXtXtXjXjXjXhXhXjXhXhXbXmXmXmXmXMXBXBXBXBXBXVXVXVXVXBXVXBXBXBXVXVXVXVXVXVXVXVXBXBXBXVXVXVXVXVXCXCXCXCXDXDXFXFXFXFXFXFXFXFXFXFXFXFXFXFXFXFXFXFXFXFXFXFXDXFXFXFXFXDXFXFXDXDXFXFXFXFXFXDXFXFXFXFXFXFXFXFXFXFXFXFXFXFXFXFXFXFXFXFXGXGXFXFXGXGXGXGXFXFXFXFXFXFXFXFXFXFXFXFXGXFXFXFXFXCXCXCXCXCXCXCXCXFXFXFXFXFXFXFXFXCXDXDXNXdX-XK.K.G.S.T.R.W.R.R.~.~.~.Y.I.I.I.I.U.A.c.9.4.4.4.@.+.@.@.} +./ / ( ^ ^ ( +.1.1.@.@.4.0.0.5.5.6.<.<.4.4.6.<.<.<.6.5.5.5.5.5.6.5.6.6.6.@.} { { | | } | / / { / { +.+.+.o.o.#.&.=.=.*.+.*.&.*.+.#.#.+.o.{ +.#.o./ / o.&.$.&.w.w.=.=.=.=.w.w.w.=.=.*.*.=.w.w.w.w.x.x.x.D.S.T.G.K.K.T.G.T.E.R.T.I.A.I.T.T.T.T.Q.Q.'.[.'.'.+X&X&X@XoX@X#X#X@XXXXXXXXXXX'.XXXXXXXX].Q.E.Q.Q.E.E.Q.Q.Q.Q.Q.Q.E.D.c.A.Q.'.Q.W.'.+X'.Q.'.XX@X@X$X@X@X@X$X$XoXoXoXoX].].].]._.J.F.N.J.3XkXNXNXNXNXDXDXDXDXPXNXNXNXNXPXDXDXDXDXDXDXDXDXVXVXBXMXnXhXiX9X4X1X`.N...R S s r q q 3 3 q q q q q & & & & & 9 & & & & & & & & & & & & & & & & & & & & & & & & & & * * * * * * & & % % % & & 3 3 3 3 3 3 3 3 3 3 3 3 3 4 4 4 4 4 4 3 3 3 3 3 3 3 3 3 3 3 3 3 3 3 3 3 3 3 3 3 3 3 2 3 2 2 2 2 3 3 3 3 3 3 3 3 2 2 2 3 3 3 3 3 3 2 2 2 2 3 2 1 $ 2 2 2 2 2 2 2 2 ",
"* * * * * * * * * * * * * * & & & & & & 6 w y t a h h Z W [ ..N.).`..X<X2X4X9X9X0XrXrX0XqXwXtXtXtXjXjXhXjXhXhXzXbXmXmXmXmXMXBXVXBXBXVXVXVXVXVXBXVXVXBXBXVXVXVXVXVXVXVXVXBXBXVXVXVXVXVXVXCXCXCXCXDXDXFXFXFXFXFXFXFXFXFXFXFXFXFXFXFXFXFXFXFXFXFXFXDXFXFXFXFXFXFXFXDXDXFXFXFXFXFXFXFXFXFXFXFXFXFXFXFXFXFXFXFXFXFXFXFXFXFXFXGXGXGXGXGXGXGXGXFXFXFXFXFXFXFXFXFXFXFXFXGXFXFXFXFXCXCXCXCXCXCXCXCXFXFXFXFXFXFXFXCXCXDXDXDXkX=XL.G.G.S.T.U.R.R.R.~.R.~.Y.U.U.I.I.I.A.Z.q.9.9.4.@.@.+.} / } ^ T ^ ^ / } @.4.4.4.4.4.0.0.0.0.6.6.6.6.6.5.6.6.6.6.0.7.0.r.b.b.r.0.0.0.4.@.@.} } } +.+.} { } +.#.&.8.&.&.&.&.w.w.8.=.&.w.0.w.8.8.=.&.#.#.o.o.{ ! ! o.+.$.*.=.x.w.=.=.w.w.=.&.*.&.o.o.&.=.w.w.w.w.x.x.x.D.G.T.E.E.T.G.Q.W.W.T.T.T.G.T.T.G.T.Q.Q.Q.'.'.'.+X@X@X@X@X@X@X@XXXXX'.XXXXXXXXXXXXXXXX'.].Q.].Q.E.E.Q.'.Q.Q.Q.W.E.G.D.G.Q.[.'.'.+X+X+X'.'.XX@X$X$X@X@XoX$X$XoXoXoXoX].].].]._.J.C.F.|.gXcXNXmXNXDXDXDXDXDXDXDXDXDXDXGXGXGXDXDXDXVXNXNXVXVXBXMXnXhXiX9X4X<X`.N...R Z s r r q q 3 6 q q q q & & & & & > & & & & z z & & & & & & & & & & & & & & & & & & & & * * * * * * & & % % % & & 3 3 3 3 3 3 3 3 3 3 3 3 3 3 3 4 4 4 4 3 3 3 3 3 3 3 3 3 3 3 3 3 3 3 3 3 3 3 3 3 3 3 2 3 2 2 2 2 3 2 3 3 2 3 3 3 3 2 2 2 3 2 2 2 2 2 2 3 3 3 2 1 $ 2 2 2 2 2 2 2 2 ",
"* * * * * * * * * * * * * * & & & & & & 6 w y e a f h B K W ..h.N.)..X.X<X2X4X4X9X0X0X0XqXwXtXtXtXtXjXjXhXkXzXzXbXmXmXmXmXMXBXBXBXBXVXVXVXVXVXVXVXVXBXBXBXVXVXBXVXVXBXBXBXBXVXVXVXVXVXVXCXCXCXCXDXDXFXFXFXFXFXFXFXFXFXFXFXFXFXFXFXFXFXFXFXFXFXFXFXFXFXFXFXFXFXFXDXDXFXFXFXFXFXFXFXFXFXFXFXFXFXGXFXFXFXFXFXFXFXFXFXFXFXFXGXGXGXGXGXGXGXGXFXFXFXFXFXFXFXFXFXFXFXFXGXFXFXFXFXCXCXCXCXCXCXCXCXFXFXFXFXFXFXFXCXCXDXDXHXcX3XL.G.G.G.T.U.~.R.R.R.R.R.~.U.U.I.Z.Z.A.Z.t.c.t.6.@.+.} / ^ ^ E E / / { @.4.4.8.0.5.6.5.0.5.b.r.0.0.0.0.5.5.6.6.6.6.6.5.r.b.b.b.b.0.0.6.6.4.@.+.} @.&.&.@.+.&.&.8.w.x.q.w.w.x.c.x.w.w.x.c.x.x.q.w.w.w.=.#.o.o.{ o.o.#.+.&.w.x.w.=.=.=.=.#.#.+.o.#.*.=.w.w.=.w.w.x.q.0.c.S.T.E.E.G.G.T.W.W.T.R.T.T.T.T.T.Q.W.Q.!.[.'.'.[.'.'.'.'.oX+X+XoXXXXXXXXXXXXXXXXXXXXXXX].].].Q.E.K.E.E.Q.E.Q.Q.E.G.G.G.Q.'.Q.'.[.+X[.'.XXoX@X@X$X@X@XoX@X$XoXoX@XoX].K.L._._.J.C.).3XkXcXNXmXNXDXNXDXNXNXNXVXDXDXDXDXNXVXVXVXVXNXNXNXVXBXBXbXnXhXiXaX4X<X`.N...R S s y y r q 6 3 3 q q q & & & & & > & & & & & & & z & & & & & & & & & & & & & & & & & & * * * * * * & % % % % & & 3 3 3 3 3 3 3 3 3 3 3 3 3 3 3 4 4 4 4 3 3 3 3 3 3 3 3 3 3 3 3 3 3 3 3 3 3 3 3 3 3 3 2 3 2 2 2 2 3 2 2 2 2 3 3 3 3 2 2 3 3 2 2 2 2 2 2 3 3 3 2 1 $ 2 2 2 2 2 2 2 2 ",
"* * * * * * * * * * * * * * & & & & z q q q w t a f l B K R ' g.N.).`..X<X<X<X2X9X0X0X9X0XwXtXtXwXtXjXjXhXkXzXzXbXmXmXmXmXNXBXBXBXBXVXVXVXVXVXVXVXVXVXVXBXBXBXBXBXBXBXBXVXVXVXVXVXVXVXVXCXCXCXCXDXDXFXFXFXFXFXFXFXFXFXFXFXFXFXFXFXFXFXFXFXFXFXFXFXFXFXFXFXFXFXFXDXFXFXFXFXFXFXFXFXFXFXFXFXFXFXGXFXFXFXFXFXFXFXFXFXFXFXFXGXGXGXGXGXGXGXGXFXFXFXFXFXFXFXFXFXFXFXFXGXFXFXFXFXCXCXCXCXCXCXCXCXFXFXFXFXFXFXCXCXFXDXDXDXcX3X_.G.G.G.T.U.U.~.~.R.R.R.~.U.U.I.Z.Z.Z.Z.t.Z.0.@.+.} ( / / ^ / { +.} +.4.8.4.0.0.0.0.r.b.r.b.b.0.0.5.6.6.6.6.6.<.<.6.6.5.0.b.b.r.0.0.6.6.6.4.@.@.4.0.0.8.6.&.&.8.w.D.D.C.x.D.D.b.x.b.D.A.c.c.b.x.x.x.w.&.#.o.o.#.+.o.o.#.=.=.&.*.&.#.o.+.o.+.$.&.*.&.=.=.&.=.w.x.w.8.w.D.H.K.K.G.G.T.W.W.T.R.W.T.T.T.T.E.Q.Q.'.+X[.'.'.].].].].'.oX+X@X@X@X@XoXXXXXXXXXXXXXXXQ.E.Q.E.K.K.K.K.T.T.T.E.Q.E.E.E.Q.Q.Q.'.'.[.[.+XXX@X@X@X$X$X$X@X&X&XoX@XoXoX].H.H._._.J.F._.8XcXNXNXNXDXDXDXDXNXNXNXNXVXVXVXDXVXVXVXDXDXDXVXVXBXVXBXMXnXlXiXaX4X<X`.N...R S s y y y q q 3 3 3 q q & & & & & > & & & & & & & & & & & & & & & & & & & & & & & & & & * * * * * * & % $ % & & & 3 & 3 3 3 3 3 3 3 3 3 3 4 3 3 3 3 4 4 3 3 3 3 3 3 3 3 3 3 3 3 3 3 3 3 3 3 3 3 3 3 3 2 3 2 1 2 2 3 2 2 3 3 3 3 2 3 2 2 2 2 2 3 3 3 2 2 3 3 3 2 1 $ 2 2 2 2 2 2 2 2 ",
"* * * * * * * * * * * * * * & & & 3 9 q q w q w y a a h C K [ ..k.F.`..X X<X2X2X9X9X9X9XqX0XwXwXtXjXjXjXjXkXzXzXbXmXmXmXmXNXBXBXBXBXVXVXVXVXVXVXVXVXVXVXBXBXBXBXBXBXBXBXVXVXVXVXVXVXVXVXCXCXCXCXDXDXFXFXFXFXFXFXFXFXFXFXFXFXFXFXFXFXFXFXFXFXFXFXFXFXFXFXFXFXFXFXDXDXFXFXFXFXFXFXFXFXFXFXFXFXFXFXFXFXFXFXFXFXFXFXFXFXFXFXGXGXGXGXGXGXGXGXFXFXFXFXFXFXFXFXFXFXFXFXGXFXFXFXFXCXCXCXCXCXCXCXCXFXFXFXFXFXFXCXCXCXDXDXDXNXsXOXH.G.G.T.U.U.~.~.U.~.~.R.U.U.U.Z.Z.Z.c.q.0.1.} } } } } +.{ +.&.&.+.+.&.4.4.0.t.c.b.v.v.b.r.7.5.6.6.<.,.,.<.<.} } <.<.6.6.6.5.5.0.5.6.0.0.6.4.4.0.b.b.x.x.8.w.w.x.C.D.D.D.D.G.G.D.D.A.A.D.A.c.x.x.x.w.=.$.o.&.&.+.o./ o.*.o.#.&.#.o.o.+.&.=.=.$.o.o.o.#.+.$.w.w.w.=.8.q.x.H.G.G.G.T.T.T.T.T.R.T.T.G.T.E.E.Q.'.+X+X'.'.].].].].'.XXoX@X@X$X@X@XXXXXXXXXXXXX].E.E.Q.E.K.K.K.T.E.T.E.Q.Q.'.'.Q.Q.'.'.'.+X+X+X@X@X@X@X@X@X$X$X$X&X&XoXoXoXoX].K._._._.J.F._.qXcXDXDXDXGXGXDXDXDXVXVXVXVXVXVXVXVXVXDXVXVXVXVXNXBXVXBXMXvXlXuXrX4X<X`.N...R S s a y y q q 3 9 q q q & & & & & > & & & & & & & & & & & & & & & & & & & & & & & & & & * * * * * * & % % % & & & 3 & & & 3 3 3 3 3 3 3 3 4 3 3 3 3 4 4 3 3 3 3 3 3 3 3 3 3 3 3 3 3 3 3 3 3 3 3 3 3 3 2 3 2 2 2 2 3 2 2 3 3 3 3 2 2 2 2 2 2 2 2 3 3 2 2 3 3 3 2 1 $ 2 2 2 2 2 2 2 2 ",
"* * * * * * * * * * * * * * * & & 3 9 q 6 6 q q y a a h C K R ..g.N.).`..X<X2X2X4X9X9X9XqXqXwXwXtXjXjXjXhXhXzXzXbXmXmXmXmXNXBXVXBXBXVXVXVXVXVXBXBXBXVXBXBXBXVXVXVXVXBXBXBXBXBXBXVXVXVXVXCXCXCXCXFXFXFXFXFXFXFXFXFXFXFXFXFXFXFXFXFXFXFXFXFXFXFXFXDXDXFXFXDXDXFXFXFXFXFXFXFXFXFXFXFXFXFXFXFXFXFXFXFXFXFXFXFXFXFXFXFXFXFXFXGXGXGXGXGXGXGXGXFXFXFXFXFXFXFXFXFXFXFXFXGXFXFXFXFXCXCXCXCXCXCXCXCXFXFXFXFXFXFXCXCXCXDXDXDXPXgXoXK.H.D.A.S.U.R.U.R.~.~.U.Y.U.U.I.v.c.q.0.9.@.( } O.} { O.+.+.&.&.@.@.8.8.0.0.b.c.v.v.b.r.2.<.,.,.,.} } } } } } } } } } } } <.6.6.6.6.6.5.6.6.6.0.0.0.0.x.0.0.0.w.x.x.x.D.x.b.A.b.b.D.G.G.G.A.D.C.D.x.=.=.=.=.*.o.o.o.o.*.*.*.=.*.o.o.*.=.=.=.+.o./ o.o.+.o.&.8.=.=.=.w.w.D.G.E.T.T.T.T.T.T.R.W.T.T.E.Q.E.Q.'.+X'.'.[.'.'.'.'.oXXXoX@X+X@X@X@XoXXXXXXXXXXX].Q.E.Q.E.L.K.L.Q.Q.Q.E.E.Q.Q.'.'.'.'.'.+X+X+X@X@X@X@X@X$X$X$X&X&X&X&XoXoXoX].L._.]._.H.F.F. XdXNXDXDXDXDXDXNXDXVXVXVXVXVXVXVXVXVXVXVXVXVXNXMXMXBXVXBXMXvXnXuXrX4X<X.XN.-.W Z s y y y q q q q q q q & & & & & > & & & & & & & & & & & & & & & & & & & & & & & & & & * * % % * * & % % % & & & 3 & & & 3 3 3 3 3 3 3 4 4 4 4 3 4 4 4 3 3 3 3 3 3 3 3 3 3 3 3 3 3 3 3 3 3 3 3 3 3 3 2 3 2 2 2 2 3 2 3 3 3 2 2 2 2 2 3 2 2 3 3 3 3 2 2 3 3 3 2 1 $ 2 2 2 2 2 2 2 2 ",
"* * * * * * * * * * * * * * * & & & z z & & & - q y a f V K R ' ..h.N.)..X X<X<X4X9X9X9X9XqXwXwXtXjXjXjXhXhXhXzXbXmXmXmXmXNXBXVXBXBXVXVXVXVXVXBXBXBXBXBXBXVXVXVXVXVXBXBXBXBXBXBXVXVXVXVXCXCXCXCXFXFXFXFXFXFXFXFXFXFXFXFXFXFXFXFXFXFXFXFXFXFXFXFXDXFXFXFXFXFXFXFXFXFXFXFXFXFXFXFXFXFXFXFXFXFXFXFXFXFXFXFXFXFXFXFXFXFXFXFXGXGXGXGXGXGXGXGXFXFXFXFXFXFXFXFXFXFXFXFXGXFXFXFXFXCXCXCXCXCXCXCXCXFXFXFXFXFXFXCXCXCXDXDXDXDXdXoXH.H.D.D.U.T.R.U.U.~.~.Y.I.U.U.I.v.t.q.8.0.@.} } +.( / / +.O.+.+.@.8.q.0.q.c.b.b.b.b.7.<.,.,.} ( } } ( ( ( ( ^ ^ ^ | | ( | } ,.,.,.<.<.<.6.<.6.6.6.<.4.6.<.@.@.@.@.@.&.6.&.x.b.b.b.b.A.A.E.E.G.G.D.x.w.w.w.=.&.+.+.*.*.*.*.=.=.-.o.! o.-.+.+.+.o.o.o.+.+.{ #.&.&.=.=.w.w.D.G.Q.Q.T.G.T.T.T.W.W.W.E.Q.Q.Q.Q.Q.'.'.'.+X#X@X#X@X+XoXoXXXXXXX@X@XoXXXXXXXXXXX].Q.E.Q.E.L.L.E.Q.Q.Q.E.K.K.Q.Q.'.Q.Q.'.XXXXXX+X@X@X@X@X$X$X$X&X&X&X@XoX].].].L.].]._.F.F._.3XzXDXDXDXDXDXDXNXDXNXVXVXVXVXVXVXDXVXVXVXVXVXVXVXVXBXBXBXMXvXnXuXrX4X<X.XN.g.[ Z s y y r q q q q q q q & & & & & q & & & z z & & & & & & & & & & & & & & & & & & & & & * * % % * * & & % % & & & 3 & & & & 3 3 3 3 3 3 4 4 4 4 4 4 4 4 3 3 3 3 3 3 3 3 3 3 3 3 3 3 3 3 3 3 3 3 3 3 3 2 3 2 2 2 2 3 3 3 3 3 2 2 2 2 3 3 3 3 3 3 3 3 2 2 2 3 3 2 1 $ 2 2 2 2 2 2 2 2 ",
"* * * * * * * * * * * * & & & & 3 9 3 & & & w w q y a f B Z K [ ..-.N.).)..X<X<X<X9X9XeX9X0XqXwXjXjXjXjXjXhXvXvXhXzXbXmXmXMXBXBXVXVXVXVXVXVXVXVXVXVXBXBXBXBXVXVXBXBXVXVXVXVXVXVXVXVXVXVXVXVXVXCXFXFXDXFXFXFXFXFXFXFXFXFXFXFXFXFXGXFXFXFXFXFXFXFXFXFXFXFXFXFXFXFXFXFXFXFXFXFXFXFXFXFXFXFXFXFXFXFXFXFXFXFXFXFXFXFXFXFXFXFXGXGXGXGXGXGXGXGXFXFXFXFXFXFXFXFXFXFXFXFXGXFXFXFXFXCXCXCXCXCXCXCXFXFXFXFXFXFXCXCXCXCXDXDXDXNXdX=XH.x.c.A.T.R.R.U.U.R.I.Z.I.U.I.Z.Z.Z.t.8.6.1.+.} } / / / { o.+.+.@.8.0.c.0.b.b.b.r.b.7.,.,.} ( } ( ) ^ ( | ( | | | ) ) | } } | ^ ) } ,.} } } } } } } } } | } } } | } } } } @.4.6.6.x.b.b.G.G.G.G.H.C.x.=.x.w.=.&.+.+.*.=.*.*.=.-.o.o.o.%.+.o.o.o.{ / / o.o.+.&.=.&.#.=.x.D.G.Q.T.G.T.W.W.W.W.W.Q.T.T.G.T.'.'.'.'.'.'.'.'.@X@X'.oX+X@X@X@XXX'.'.'.'.'.XXXXXX'.].Q.E.L.E.E.E.E.T.K.K.E.Q.'.'.'.'.'.Q.'.XX@X&XoXoX@X&X%X&X&X&XoXoXoXoX_.L._.]._.H.F.F._.qXcXDXVXDXDXDXDXDXVXVXVXVXVXCXVXVXVXVXVXVXVXVXVXVXVXVXVXMXMXbXbXuXrX9X<X.XB.-.R S s y r 6 3 3 3 q q q q z & & & & & q q & & & & & & & & & & & & & & & & & & & & * * * * * * & * * * & & % % & & & 3 3 3 & & 3 3 3 3 3 3 4 7 4 3 3 3 3 3 3 3 3 3 3 3 3 3 3 3 3 3 3 3 3 3 3 3 3 3 3 3 3 2 3 2 2 2 2 3 3 3 2 2 3 3 3 3 3 2 2 2 2 2 2 2 2 2 1 2 2 2 2 2 2 2 2 2 2 2 2 2 ",
"* * * * * * * * * * * * & & & & 3 z & & & & w w q y y d h B K W ' -.M.F.).`..X1X1X4XeX4X9X0XqX0XtXjXjXjXjXjXkXvXkXvXbXmXmXMXBXBXBXVXVXVXVXVXVXVXVXVXBXBXBXBXVXVXBXBXVXBXVXVXVXVXVXVXVXVXVXVXVXCXFXFXDXFXFXFXFXFXFXFXFXFXFXFXFXFXGXFXFXFXFXFXFXFXFXFXFXFXDXFXFXFXDXDXFXFXFXFXFXFXFXFXFXFXFXFXFXFXFXFXFXFXFXFXFXFXFXFXFXFXGXGXGXGXGXGXGXGXFXFXFXFXFXFXFXFXFXFXFXFXGXFXFXFXFXCXCXCXCXCXCXCXFXFXFXFXFXFXCXVXCXCXDXDXDXPXkX=XL.x.C.A.T.R.R.U.~.R.U.I.I.U.I.Z.Z.Z.q.9.8.1.+.+.+.{ / { o.#.#.#.&.8.q.c.b.A.v.r.5.2.,.( ) ) ) ) ( ^ ^ ( | ^ ^ ^ ^ ^ ^ | J J J J ^ ^ | | | | | | ^ ^ ^ ^ | | | | / / / / | | } } } 4.6.0.b.b.A.G.G.H.D.C.x.x.x.w.=.=.=.=.=.=.*.o.o.o.o.o.o./ / o.o.{ { o.o.+.&.=.&.#.&.w.x.H.K.T.G.T.T.T.W.W.E.Q.T.K.K.E.Q.'.'.'.'.'.[.@X@X+XoXoXoXoXXXXXXXXX'.'.'.'.XXXXXX'.'.].E.E.E.E.K.E.E.E.E.Q.Q.'.'.'.'.'.'.'.'.@X&X@XoX@X&X&X&X&XoXoXoXoX].L.L._.]._.H.F.F.-XdXNXDXVXVXDXDXDXDXVXVXVXVXVXCXVXVXVXVXVXVXVXVXVXVXVXVXVXMXMXbXnXuXrX9X1X.XB.g.R S l y r q 3 3 3 q q q q z & & & & & q q & & & & & & & & & & & & & & & & & & & & * * * * * * & & * * & & % % & & & 3 3 3 & 3 3 3 3 3 3 3 4 7 4 3 3 2 3 3 3 3 3 3 3 3 3 3 3 3 3 3 3 3 3 3 3 3 3 3 3 3 3 2 3 2 2 2 2 3 3 2 2 2 3 3 3 3 3 2 2 2 3 3 2 1 2 2 2 2 2 2 2 2 2 2 2 2 2 2 2 2 ",
"* * * * * * * * * * * * & & & & & 3 3 & & & > q q q y a s h C R [ ..h.N.J.)..X.X1X2X2X2X9X9XqXqXtXtXjXjXjXhXhXvXkXvXbXmXMXMXNXBXBXBXVXVXVXVXVXVXVXVXVXBXBXVXVXVXBXBXVXVXVXVXVXVXVXVXVXVXVXVXCXCXFXFXDXFXFXFXFXFXFXFXFXFXFXFXFXFXGXFXFXFXFXFXFXFXFXFXDXDXDXFXFXFXDXDXFXFXFXFXFXFXFXFXFXFXFXFXFXFXFXFXFXFXFXFXFXFXFXFXFXFXGXGXGXGXGXGXGXGXFXFXFXFXFXFXFXFXFXFXFXFXGXFXFXFXFXCXCXCXCXCXCXCXCXFXFXFXFXFXCXCXCXCXDXDXDXDXcX3X_.C.C.A.S.T.R.U.U.U.U.I.I.I.I.I.Z.q.q.q.9.1.+.+.+.o.o.o.#.#.#.$.&.8.q.c.v.v.b.6.<.} ( ) ^ ) ) ^ ( | ^ ^ | ^ J J J J ^ ^ J J ^ ^ ^ J J ^ ^ ^ J J J J J J ^ ^ ^ ^ ^ ^ ^ ^ ^ ^ ^ / | | } @.6.6.b.D.G.G.G.D.C.C.D.C.x.x.w.w.x.=.*.o.{ o.o.o./ / / { o.o.o.o.o.#.&.=.&.&.=.w.w.D.H.K.E.Q.E.T.E.W.E.E.T.K.E.E.Q.'.'.[.[.[.[.@X].[.@X@XXX'.'.XXXXXXXXXX'.'.].].XXXX'.].Q.E.E.E.K.L.E.Q.Q.Q.'.'.'.'.'.'.].].XXXX$X$X$X$X@X@X@X@XoXoXoX].L.H.L._._.H.F.F._.*XkXDXDXVXVXDXDXDXDXVXVXVXVXVXVXVXVXVXVXVXVXVXVXVXVXVXVXVXBXMXbXnXuXrX9X1X.XB.g.` Z s y r q 3 3 3 q q q q > & & & & & & z & & & & & & & & & & & & & & & & & & & & * * * * * * * * * * & & % % % & & 3 3 3 3 3 3 3 6 6 3 4 4 7 4 3 3 2 3 3 3 3 3 3 3 3 3 3 3 3 3 3 3 3 3 3 3 3 3 3 3 3 3 2 3 2 2 2 2 3 3 3 2 2 3 3 3 3 3 3 2 2 3 3 2 1 2 2 2 2 2 2 2 2 2 2 2 2 2 2 2 2 ",
"* * * * * * * * * * * * & & & & 3 3 3 & & & > w w w y a a f Z K W  .-.M.N.).`..X X<X<X<X9X9X9X0XtXtXjXjXhXhXkXvXzXvXbXmXMXMXBXBXBXBXVXVXVXVXVXVXVXVXVXBXBXVXVXVXBXBXVXVXVXVXVXVXCXVXVXVXVXVXCXCXFXFXDXFXFXFXFXFXFXFXFXFXFXFXFXFXGXFXFXFXFXFXFXFXFXFXFXDXDXFXFXFXDXDXFXFXFXFXFXFXFXFXFXFXFXFXFXFXFXFXFXFXFXFXFXFXFXFXFXFXGXGXGXGXGXGXGXGXFXFXFXFXFXFXFXFXFXFXFXFXGXFXFXFXFXCXCXCXCXCXCXCXCXFXFXFXFXFXCXCXCXCXDXVXDXDXcXsXOXF.C.D.S.U.T.U.U.U.U.I.U.I.I.U.Z.0.8.q.0.1.O.@.#.#.o.o.o.+.+.$.&.8.0.c.r.r.0.<.} ( ) ) ( ) J ^ ^ ^ J H E E J J ^ | | | | | | | | ^ H ^ ^ J H H H J ^ ^ E E J J J E E E ^ ^ ^ ^ ^ / | | } } @.6.0.c.A.D.D.D.D.C.x.x.x.x.C.=.*.o.o.o.o.{ { / / o.+.+.+.o.o.o.#.=.=.=.w.x.x.C.D.H.E.Q.Q.T.T.E.E.E.T.T.E.Q.Q.'.[.[.'.'.].'.].@X&X@XoX'.'.XXXXXXXXXX'.].Q.Q.XX].Q.Q.E.E.E.E.G.K.Q.'.'.'.'.XX'.'.'.'.'.'.'.'.oX@X&X$XoXoXoXoXoXoX].L.H.F.F.H._.F.F.F._.5XkXNXNXVXVXDXDXDXDXVXVXVXVXVXDXVXVXVXVXVXVXVXVXVXVXVXVXVXBXMXbXnXuXrX9X<X.XB.h.[ S s r r q 3 3 3 q q q q > & & & & & & > & & & & & & & & & & & & & & & & & & & & * * * * * * * * * * & % % % % & & 3 3 3 3 3 3 3 6 6 3 4 4 7 4 3 3 2 3 3 3 3 3 3 3 3 3 3 3 3 3 3 3 3 3 3 3 3 3 3 3 3 3 2 3 2 2 2 2 3 3 3 2 2 2 2 3 3 2 3 2 2 3 3 2 1 2 2 2 2 2 2 2 2 2 2 2 2 2 2 2 2 ",
"* * * * * * * * * * * * * & & & & 3 3 3 & & - - e w y a a l B C R ' -.h.N.).).`. X2X<X<X4X9X9XqXtXjXhXhXkXkXvXvXvXbXmXMXMXMXBXBXBXBXVXVXVXVXVXVXVXVXVXBXVXVXVXVXBXBXBXBXVXVXVXVXCXCXVXVXVXCXCXCXFXFXDXFXFXFXFXFXFXFXFXFXFXFXFXFXFXFXFXFXFXFXFXFXFXFXFXFXFXFXFXFXDXDXFXFXFXFXFXDXFXFXFXFXFXFXFXFXFXFXFXFXFXFXFXFXFXFXFXFXGXGXGXGXGXGXGXGXFXFXFXFXFXFXFXFXFXFXFXFXGXFXFXFXFXCXCXCXCXCXCXCXCXFXFXFXFXFXFXFXCXCXDXVXDXDXNXgXoXH.D.D.S.U.R.U.I.U.U.U.U.I.U.U.Z.9.8.q.0.4.@.@.#.o.o./ o.o.#.$.4.8.0.c.0.0.6.} } ^ ^ ) ) J J J H H H F c H H H | | *.*.l.%.l.%.| | E ' | H E | E E E H E H H E E E E E ^ ^ ^ ^ ^ ^ ^ / / | | } +.&.x.c.D.D.x.c.x.x.c.C.C.x.*.*.*.*.o./ o.{ { +.+.#.o.o.{ / o.#.=.=.=.w.C.w.w.D.S.T.E.E.T.Q.E.Q.T.T.E.E.Q.'.[.[.'.'.].W.].+X&X#XoX'.'.XXXXXXXXXX'.].Q.Q.'.Q.E.E.E.Q.E.E.G.K.Q.'.'.'.'.'.'.'.'.XXXXXXXX'.oX@X&X@XoXoXoXoX].].].H.F.F.H.H._.F.F.F._.3XcXNXNXVXVXVXDXDXDXVXVXVXDXDXDXDXDXVXDXVXDXDXDXVXVXVXVXVXVXMXbXnXuXiX9X<X.XB.h.[ Z s r r q q q 6 q q q q & & & & & & & & & & & & & & & & & & & & & & & & & & & & * * * * * * * & & & & % % % & & & 3 3 3 3 3 3 3 3 3 3 4 3 4 3 3 3 2 3 3 3 3 3 3 3 3 3 3 3 3 3 3 3 3 3 3 3 3 3 3 3 3 3 2 3 2 2 2 2 3 3 3 3 3 2 2 2 3 2 2 2 2 2 2 2 $ 2 2 2 2 2 2 2 2 2 2 2 2 2 2 2 2 ",
"* * * * * * * * * * * * * & & & & 3 3 3 & & - - w w q y a f h V R W ..h.M.B.).`..X<X<X<X2X9X9XqXtXtXhXlXlXlXvXvXvXbXmXMXMXMXBXBXBXBXVXVXVXVXVXVXVXVXVXVXVXVXVXVXBXBXBXBXVXVXVXVXCXCXVXVXCXCXCXCXFXFXDXFXFXFXFXFXFXFXFXFXFXFXFXFXFXFXFXFXFXFXFXFXFXFXFXFXFXFXFXFXDXDXFXFXFXFXDXDXFXFXFXFXFXFXFXFXFXFXFXFXFXFXFXFXFXFXFXFXGXGXGXGXGXGXGXGXFXFXFXFXFXFXFXFXFXFXFXFXGXFXFXFXFXCXCXCXCXCXCXCXCXFXFXFXFXFXFXFXFXCXCXVXVXDXPXdX-XL.D.D.S.T.R.U.I.I.U.U.U.I.I.A.Z.q.8.9.5.1.@.#.@.o.o.o.+.#.$.&.8.0.x.b.x.6.} } | ) J J J J H H H F F F F Y E ! | *.l.l.n.n.F.n.l.n.%.%.%.| l.n.l.| | E ' E E E ^ ^ E E E E E E ^ ^ ^ E ^ ^ ^ / | } @.6.x.x.b.x.x.x.x.D.c.x.w.w.=.*.o.{ o.o.o.+.o.{ / / / ! / +.*.=.=.=.w.=.=.w.c.D.G.T.T.T.Q.T.G.T.E.Q.Q.'.[.[.].].E.E.].'.@X@XoXXXXX+XXXXX'.'.].].].].'.Q.E.E.Q.Q.E.E.K.E.Q.'.'.'.'.'.'.'.'.XXXX+XXXXXoXoXoX@XoXoXoX].L.L.K.H.H.L._._._.F.F.J.OXgXNXNXNXVXVXDXDXDXDXVXVXVXDXDXDXDXDXDXDXDXDXDXDXDXDXDXBXVXVXMXbXnXuXiX9X<X.XB.h.[ Z s r r r q q q q q q q & & & & & & z & & & & & & & & & & & & & & & & & & & & & * * & * * * * * & & & % % % & & & 3 3 3 & & & 3 3 3 3 4 3 4 4 3 3 3 3 3 3 3 3 3 3 3 3 3 3 3 3 3 3 3 3 3 3 3 3 3 3 3 3 2 3 2 2 2 2 3 3 3 3 3 2 2 2 2 3 2 1 2 2 2 1 $ 2 2 2 2 2 2 2 2 2 2 2 2 2 2 2 2 ",
"* * * * * * * * * * * * * & & & & 3 3 3 & & & - w 6 6 y a a h V K W  .-.h.N.).`..X<X<X<X2X9X9XqXtXtXhXhXlXlXvXvXbXbXMXMXMXMXMXBXBXBXBXVXVXCXVXVXVXVXVXVXVXVXVXVXBXBXBXBXVXVXVXVXCXCXCXCXCXCXCXCXFXFXDXFXFXFXFXFXFXFXFXFXFXFXFXFXFXFXFXFXFXFXFXFXFXFXFXFXFXFXFXFXDXDXFXFXFXFXDXFXFXFXFXFXFXFXFXFXFXFXFXFXFXFXFXFXFXFXFXFXGXGXGXGXGXGXGXGXFXFXFXFXFXFXFXFXFXFXFXFXGXFXFXFXFXCXCXCXCXCXCXCXCXFXFXFXFXFXFXFXFXCXCXVXNXDXPXfX=XL.H.H.S.T.R.U.I.I.I.U.U.U.I.Z.c.t.q.8.<.<.1.@.+.o.o.#.#.$.&.=.8.8.0.0.0.@.} } ( ) J J J J H H v i d c H E { ' ' %.j.n.n.`.5X`.F.`.l.j.l.l.n._.n.l.l.%.| | | | | | E Y H H H E E E H H H E ^ ^ ^ ^ | } @.@.4.6.6.0.x.x.b.x.x.x.x.=.*.+.o.o.+.+.o./ / o.o.{ o.o.=.=.=.=.w.=.=.w.c.c.A.T.T.T.T.T.G.G.T.E.Q.Q.'.'.'.'.].].].'.'.XXoXXX+X+XXXXX].E.Q.Q.'.XXXX].E.E.'.XXQ.Q.E.Q.'.'.'.'.'.XX'.'.'.XX@X$X@X@XoXoXoXoXoXoXoX]._._.L.H.L.]._.L.F.F._._.-XdXPXDXVXVXVXDXDXDXDXDXVXDXDXDXDXDXDXDXDXDXDXDXDXDXDXDXBXVXVXMXbXnXuXiX9X<X.X).h.' C s r r r r q q q q q q & & & & & & > > & & & & & & & & & & & & & & & & & & & & * * & & * * * * & & & % % % & & & 3 3 3 & & & 3 3 3 3 3 3 4 4 3 3 3 3 3 3 3 3 3 3 3 3 3 3 3 3 3 3 3 3 3 3 3 3 3 3 3 3 2 3 2 2 2 2 3 2 2 2 2 2 2 3 3 3 2 1 1 2 2 1 $ 2 2 2 2 2 2 2 2 2 2 2 2 2 2 2 2 ",
"* * * * * * * * * * * * * & & z & 3 3 3 & & & & w & & q y a f j V R ' ..h.N.).`..X<X1X<X2X4X4X9X0XtXjXhXhXlXlXvXbXbXMXMXMXMXMXBXBXBXBXVXVXCXCXCXVXVXVXVXVXVXCXCXBXBXBXBXVXVXVXVXCXCXCXCXCXCXCXCXFXFXDXFXFXFXFXFXFXFXFXFXFXFXFXFXFXFXFXFXFXFXFXFXFXFXFXFXDXFXFXFXFXFXFXFXFXFXFXFXFXFXFXFXFXFXFXFXFXFXFXFXFXFXFXFXFXFXFXFXFXFXGXGXGXGXGXGXFXFXFXFXFXFXFXFXFXFXFXFXGXFXFXFXFXFXCXCXCXCXCXCXCXFXFXFXCXCXFXFXFXFXCXCXMXDXDXIX3X_.H.G.T.T.W.U.Z.I.I.Y.Y.U.I.c.t.Z.q.&.O.@.@.&.#.o.#.&.#.$.&.&.&.4.4.6.6.} / ( ( ^ J J H H v 8 7 : ; 7 h F R F R %.n.F.n.`.gX5X`.`.l.l.l.g.n._.n.l.n.n.l.l.%.*.*.| ! E H H H Y E E H H H H E E E E ^ ^ ^ | } @.&.&.=.6.b.x.x.x.x.=.*.*.o.+.#.+.o./ o.o.&.o.o.*.=.=.=.=.=.=.w.x.A.D.A.T.T.T.T.T.G.G.T.E.E.W.'.+X'.'.].'.].].].'.'.XX@XoXXX'.Q.E.E.Q.XXXXXX'.Q.Q.XXXX'.Q.Q.'.XXXXXX'.XXXX'.'.'.XX$X$X$X@XoX].].oX@X@XoX].oX].L.L.L.]._.H.F.F._._.*XjXDXDXVXVXVXVXDXDXDXVXVXDXDXDXDXDXDXDXDXDXDXDXDXDXDXDXVXVXVXMXbXnXuXiX9X2X.X).N. .K l r r r r q q q 3 q q & & & & & & > > & & & & & & & & & & & & & & & & & & & & * * * * * * * * * & & & % % & & & & 3 3 & & & 3 3 6 3 3 3 4 4 3 3 2 3 3 3 3 3 3 3 3 3 3 3 3 3 3 3 3 3 3 3 3 3 3 3 3 3 2 3 2 2 2 2 2 2 2 2 2 2 2 3 3 3 2 1 1 2 2 1 $ 2 2 2 2 2 2 2 2 2 2 2 2 2 2 2 2 ",
"& * * * * * & & & & & * * * & & & & & & 3 & 3 - q q q q y y a f K R W X.h.N.B.`..X.X1X<X<XeX9X9X0XtXyXhXhXhXlXvXvXvXbXmXMXBXBXVXBXBXBXBXVXVXVXVXVXVXVXVXVXVXVXVXBXBXBXBXBXBXVXVXVXVXVXVXVXCXCXCXCXDXDXFXFXFXFXFXFXFXFXFXFXFXFXFXFXFXFXFXFXFXFXFXFXFXFXDXDXDXFXFXCXCXCXFXFXFXFXFXFXFXFXFXFXFXFXFXFXFXFXFXFXFXFXFXFXFXFXFXFXFXFXFXFXFXFXFXFXFXFXFXFXFXFXFXFXFXFXFXFXFXFXFXFXFXFXFXFXFXFXFXFXFXFXFXCXCXCXFXFXFXFXDXCXCXAXcXsX_.H.K.T.A.A.T.R.Y.I.I.Y.Y.I.Z.Z.D.9.@.@.@.&.#.#.+.&.=.&.&.*.#.&.&.&.4.@./ ^ ^ ^ ^ ^ H H v 8 7 : @ @ @ @ 4 7 4 B %.j.j.F.`.5X X_.F.n.j.%.%.l.n.l.l.l.n.l.j.l.*.%.%.| E h F E E Y H H H H F H H ^ ^ ^ Y ^ ^ ^ / / } +.&.x.D.c.w.=.=.=.*.#.o.o.#.{ / / o.o.+.o.o.=.w.=.$.&.=.w.D.D.D.S.E.T.E.T.G.S.G.E.Q.Q.Q.].Q.].'.oXoX'.XXoXoX'.'.oX@XXXXX'.'.'.'.XXXXQ.XXXXQ.'.XXXXQ.K.L.E.'.XXXX'.'.'.'.XXoX$X$X@XoXoXoXoXoXXXXXXXXXXXL.H.L._.]._._.F.J._._.5XkXNXNXVXVXVXVXVXVXVXVXVXVXVXVXVXVXVXVXDXDXDXVXDXVXDXDXVXVXVXVXMXvXyXrX9X4X1XB.h.[ K l r r 9 9 3 3 9 9 q 9 - & & & & > & & & > & & & & & & & & & & & & & & & & & & * * * * * * & * & & & & % % & 3 3 3 3 3 3 & 3 3 3 6 3 4 4 4 4 3 3 3 3 3 3 3 3 3 3 3 3 3 3 3 3 3 3 3 3 2 2 2 3 3 3 2 4 3 2 2 1 2 2 2 2 2 2 2 2 2 3 3 3 2 2 3 2 2 2 2 2 2 3 3 3 2 1 $ 2 2 2 2 2 2 2 2 ",
"& * * * * * * * & * * * * * & & & & & & 3 3 3 3 q q q q y y a f l K W  .-.M.N.B.`..X1X<X<XeX9X9X0XrXyXyXhXlXlXvXvXbXbXMXmXBXBXVXBXBXVXVXVXVXVXVXVXVXVXBXVXVXVXVXBXBXBXBXVXVXVXVXVXVXVXVXVXCXCXCXCXDXDXFXFXFXFXFXFXFXFXFXFXFXFXFXFXFXFXFXFXFXFXFXFXFXFXDXDXDXDXDXFXFXFXFXFXFXFXFXFXFXFXFXFXFXFXFXFXFXFXFXFXFXFXFXFXFXFXFXFXFXFXFXFXFXFXFXFXFXFXFXFXFXFXFXFXFXFXFXFXFXFXFXFXFXFXFXFXFXFXFXFXFXFXCXCXCXCXFXFXFXFXCXCXCXZXcXgXOXH.E.T.S.U.R.R.I.I.Y.Y.U.U.Y.Z.Z.t.q.8.8.8.&.&.#.&.=.=.*.*.+.+.+.@.@.+./ ^ ^ Y H H H i 8 : @ O O @ @ . + + + 3 R %.l.l.F._._.F.n.l.g.R R ] l.j.l.l.l.%.%.%.%.%.| G d 6 7 k G E Y F c d 8 8 v H H E E E E E E ^ / { | @.8.w.w.w.=.*.{ +.{ { o.{ / / o.o.+.o.o.=.x.=.&.#.*.w.D.D.c.A.T.T.W.Q.G.G.G.E.Q.Q.'.'.'.].oXoXXXoXoXoXXX'.'.XXXXoXoXoXXXXXXXXXXX'.XXXXXXXXXXXXQ.E.E.].'.XXXX'.'.'.].'.XX@X$XoXXXoXoXoXoXXXXXXXOXXX].K.L._.L.H.F.F._._. X3XkXNXNXVXVXVXVXVXVXVXVXVXVXVXVXVXVXVXVXDXDXDXVXVXVXVXVXVXVXVXVXMXvXyXrX9X4X1XB.h.[ K l r r 9 9 9 9 9 q q 9 > & & & & 9 & & & > & & & & & & & & & & & & & & & & & & * * * * * * * * & & & & % % & 3 3 3 3 3 & & 3 3 3 6 4 4 4 4 3 3 3 3 3 3 3 3 3 3 3 3 3 3 3 3 3 3 3 3 3 3 2 2 3 3 3 2 3 3 2 2 2 2 3 2 3 3 2 2 2 2 3 3 3 3 3 3 2 2 2 2 2 3 3 2 3 2 2 1 2 2 2 2 2 2 2 2 ",
"& * * $ % # % % * * % % * * & & & & & 3 3 3 3 3 9 q q q y t t a l K ~ [ -.h.N.B.`..X.X<X<X4X9X9X0XrXtXyXhXlXlXvXbXbXMXMXmXmXBXBXVXVXVXCXCXCXVXVXCXVXVXBXBXBXVXVXVXVXVXVXVXVXVXVXVXVXVXVXVXCXCXCXDXDXDXFXFXFXFXFXFXFXFXFXFXFXFXFXFXFXFXFXFXFXFXFXFXFXDXDXFXFXFXFXFXFXFXFXFXFXFXFXFXFXFXFXFXFXFXFXFXFXFXFXFXFXFXFXFXFXFXFXFXFXFXFXFXFXFXFXFXFXFXFXFXFXFXFXFXFXFXFXFXFXFXFXFXFXFXFXFXFXFXFXFXFXFXCXFXFXCXFXFXFXDXCXCXVXZXAXdX-XL.E.G.T.T.T.U.I.I.Y.f.Y.U.Z.t.t.t.c.q.q.w.8.&.$.&.&.=.&.#.+.+.+.+.} { ^ ^ ^ H H H c 8 8 : O O O @ @ . + + . . 5 B R R ] %.%.] ] ' R s 5 Z ' %.l.l.*.%.l.*.*.%.{ F 7 @ @ 7 u c x i : 7 : : 8 i v H Y H H H Y Y E ^ ^ / } @.6.w.w.&.+.o.{ / { { / / / ! { / o.=.w.=.&.+.&.w.c.D.c.A.S.T.E.E.T.G.T.T.T.Q.'.'.'.'.oXoX'.@XoXoXXXXXXX].].oXoXoXXXXX'.].Q.XXXXXXXXXXXXXXQ.].].'.'.'.XX'.'.'.'.XXXX@X@XXXXXoXoXoXXXXXXXXXXXXX].].]._.H.F.F._._._.-X8XcXNXVXVXVXVXVXVXVXVXVXVXVXVXVXVXVXVXVXDXVXDXVXVXVXVXVXVXVXVXBXmXnXyXiX9X4X1X).k.[ K l r r 9 9 9 9 9 9 q 9 & & & & & z & & & z & & & & & & & & & & & & & & & & & & * * * * * * * * & & & & % % % 3 3 3 3 3 & & 3 3 3 3 4 3 4 3 3 3 3 3 3 3 3 3 3 3 3 3 3 3 3 3 3 3 3 3 3 3 2 3 3 3 3 2 3 2 2 2 2 2 2 3 3 3 3 3 2 3 3 3 2 2 2 2 3 3 3 3 2 3 2 2 2 3 2 2 2 2 2 2 2 2 2 2 ",
"& * * # # # # # # # # # % * & & & & & & 3 3 3 9 3 q q q q y t a l K ~  .-.M.N.B.)..X.X<X<X2XeX9X0XrXtXyXhXlXlXvXbXmXMXMXmXmXBXBXVXVXCXCXCXVXVXVXVXVXVXBXBXBXVXVXVXVXVXVXVXCXCXCXVXVXVXVXVXCXCXCXDXDXFXFXFXFXFXFXFXFXFXFXFXFXFXFXFXFXFXFXFXFXFXFXFXDXDXFXFXFXFXFXFXFXFXFXFXFXFXFXFXFXFXFXFXFXFXFXFXFXFXFXFXFXFXFXFXFXFXFXFXFXFXFXFXFXFXFXFXFXFXFXFXFXFXFXFXFXFXFXFXFXFXFXFXFXFXFXFXFXFXFXFXFXFXCXFXFXFXFXFXFXDXCXCXCXZXNXdX*XL.K.G.T.T.U.Z.v.I.Y.f.Y.U.Z.t.q.q.q.q.0.w.8.&.&.&.&.&.#.+.+.+.+.} { ^ H H H H H H v i 8 : @ O + @ @ + + $ $ + . + 5 0 s S S S B s r 2 1 3 d G E ' ! E E R F G B y @ ; @ @ @ 6 ; @ O : @ : : 7 8 i v H H H H H H Y E ^ ^ / } @.&.@.+.+.o.{ o.o.o./ / ! / / { +.&.+.&.#.&.w.D.D.D.A.A.T.E.Q.E.T.T.T.G.E.Q.].'.'.+X+XXX$XoXXXoXoXoXXX].'.'.'.'.].E.E.L.XXoXXXXXXXXXXXQ.XX'.'.'.'.XXXXXXXXXXXXoXoXXXXXXXoXoXoXoXXXXXXX].].L.].]._.H.H._._._.|.*XgXcXDXVXVXVXVXVXVXVXVXVXVXVXDXDXDXDXVXVXVXVXDXVXVXVXVXVXVXVXBXNXmXnXyXiX9X4X1X`.N.X.K l r r 9 9 9 9 9 9 9 9 & & & & & & & & & z & & & & & & & & & & & & & & & & & & * * * * * * * * * & & % % % % 3 3 3 3 3 & & 3 3 3 3 4 3 4 3 3 3 3 3 3 3 3 3 3 3 3 3 3 3 3 3 3 3 3 3 3 3 2 3 3 3 3 2 2 2 2 2 2 2 2 3 3 3 3 3 3 3 3 3 2 2 2 2 3 2 2 3 2 2 2 3 2 3 2 2 2 2 2 2 2 2 2 2 ",
"& * * # # # # # # # # # % * * & & & & & & & 3 9 & 9 q q q y y a l K W ;.-.M.N.B.).`..X<X<X2XeX9X0XwXtXyXhXlXvXvXbXmXMXMXmXBXBXBXVXVXVXVXVXVXVXVXVXVXVXBXBXBXVXVXVXVXVXVXCXCXCXCXVXVXVXVXVXVXCXCXDXFXFXFXFXFXFXFXFXFXFXFXFXFXFXFXFXFXFXFXFXFXFXFXFXFXDXFXFXFXFXGXFXFXFXFXFXFXFXFXFXFXFXFXFXFXFXFXFXFXFXFXFXFXFXFXFXFXFXFXFXFXFXFXFXFXFXFXFXFXFXFXFXFXFXFXFXFXFXFXFXFXFXFXFXFXFXFXFXFXFXFXFXFXFXCXFXFXFXFXFXFXDXCXCXCXZXNXdX*XL.K.G.T.T.A.v.y.f.I.Y.U.U.Y.Z.Z.t.8.8.8.8.&.&.&.&.&.+.#.+.*.&.@.} / Y c i v H H c i 8 : @ O o o o + o o + # # + + + $ $ @ @ @ @ @ @ 3 @ @ $ @ % 7 7 7 7 7 7 7 7 7 % @ @ O O @ @ @ @ @ O @ @ @ O @ ; i n v v v c H H Y Y Y ^ ^ / / / +.#.#.o.#.+.o./ ! o.o.o.+.o.+.=.=.=.w.D.D.A.A.S.T.Q.W.Q.T.T.T.G.G.K.E.E.'.oX@XoX@XoXoXoX$X$XoXXX'.'.'.].Q.E.L.K.XXXXXXXXXXXXXXQ.XXXX'.'.'.XX@X@XoX@X@X@X@XXXXXoXoXoXoXoXoXoXXXE.L.L.K.K.H.F._._._._.OX*XgXcXNXVXVXVXVXVXVXVXVXVXDXDXDXDXDXDXDXDXVXVXVXVXVXVXVXVXVXVXNXNXmXnXyXiX9X4X1X`.N.X.K l r r q q 9 9 9 9 q q z & & & & z & & & > & & & & & & & & & & & & & & & & & & * * * * * * * * * & & % $ % & & & 3 3 3 & & & 3 3 3 7 4 3 3 2 3 3 3 3 3 3 3 3 3 3 3 3 3 3 3 3 3 3 3 3 2 2 3 3 3 3 2 2 2 3 2 3 3 3 3 2 3 3 3 3 3 3 3 2 2 2 2 3 2 2 3 2 3 2 2 2 2 2 1 2 2 2 2 2 2 2 2 ",
"* * % # # # # # $ # # # * * * & * & & & & & 9 9 3 q q q q y y a l K ~ W -.M.N.B.).`..X<X2XeXeX9X0XwXtXyXhXlXvXvXbXmXMXMXBXBXBXVXVXVXVXVXVXVXVXVXVXVXVXBXBXBXVXVXVXVXVXVXCXCXCXVXVXVXVXVXVXVXCXCXFXFXFXFXFXFXFXFXFXFXFXFXFXFXFXFXFXFXFXFXFXFXFXFXFXFXFXFXFXFXFXFXFXFXFXFXFXFXFXFXFXFXFXFXFXFXFXFXFXFXFXFXFXFXFXFXFXFXFXFXFXFXFXFXFXFXFXFXFXFXFXFXFXFXFXFXFXFXFXFXFXFXFXFXFXFXFXFXFXFXFXFXFXFXFXCXFXFXFXFXFXFXDXCXCXCXVXAXxX8X_.K.G.Q.T.Z.t.v.Z.Z.Y.Y.Z.Z.U.Z.q.@.4.4.@.&.&.=.&.&.+.+.+.*.8.&.+.{ E v 8 i n v i 7 : @ O o o + + + X o o X = + + + + + + + O O @ @ @ @ @ @ O O @ @ @ % 6 6 % @ % % @ @ @ @ @ O * * O O @ @ # O @ @ ; 8 8 8 8 8 i i v v c Y E ^ ^ { +.#.#.+.#.#.+.o.o.o.+.o.#.o.#.w.=.=.w.x.D.A.D.S.G.T.Q.T.G.T.T.K.H.G.K.K.E.'.oXoXoXoXoXoX$XoXXXXXoXoX'.].Q.E.E.E.'.XXXXXXXXXXXXXXXX'.'.'.XXXXoX@X@X@X$X@XoXXXoX@XoXoXoXoXoXoX].E.].L.H.H.F.F.F._._._._.5XgXcXNXVXVXVXVXVXVXVXVXVXDXDXDXDXVXVXVXVXVXVXVXVXVXVXVXVXVXVXNXMXbXnXyXiX0X4X1X`.N...K l r r r q 9 9 3 3 q q z & & & & z & & & > & & & & & & & & & & & & & & & & & & * * * * * * * * * & & % $ % & & & 3 3 3 & & & 3 3 3 7 4 3 2 2 2 3 4 3 3 3 3 3 3 3 3 3 3 3 3 3 3 3 3 3 2 2 3 3 3 3 2 1 2 2 2 2 2 3 3 2 2 3 3 3 3 3 3 2 2 2 2 3 3 3 3 2 2 3 3 2 2 1 $ 2 2 2 2 2 2 2 2 ",
"* * % # # # * * * % % % * * * * * * * * & & 9 9 3 q q q q t t a l K ~ W -.M.N.B.).)..X<X2XeXeX9X0XwXtXyXhXlXvXbXbXbXMXMXBXBXBXVXVXVXVXVXVXCXCXCXVXVXVXBXVXVXVXVXVXVXVXVXVXVXVXVXVXVXVXVXVXVXCXCXFXFXFXFXFXFXFXFXFXFXFXFXFXFXFXFXFXFXFXFXFXFXFXFXFXFXFXFXFXFXFXFXFXFXFXFXFXFXFXFXFXFXFXFXFXFXFXFXFXFXFXFXFXFXFXFXFXFXFXFXFXFXFXFXFXFXFXFXFXFXFXFXFXFXFXFXFXFXFXFXFXFXFXFXFXFXFXFXFXFXFXFXFXFXFXCXFXFXFXFXFXFXDXCXCXCXZXmXcXsXoX].E.Q.T.Z.c.Z.I.Z.I.Z.y.t.Z.Z.q.&.4.1.1.8.8.=.&.$.#.+.+.&.8.4.@.| ^ H n i 8 8 8 : : @ O O O + + + = X o . + + + + + + + @ @ @ @ @ O O % % @ * ; % % @ @ @ @ @ O O @ @ * * * O O O @ O @ * * * * ; @ : : : : : : 7 : 8 i c H H Y / ^ { o.o.o.#.#.o.#.o.o.o.&.+.+.=.=.=.=.w.x.c.A.A.A.T.T.G.G.T.E.K.G.K.K.G.K.].XXoXXXoXoX-XoXXXXX].oXoX].].E.E.Q.].Q.'.XX'.XXXXXXXXXXXX'.XXXXXXoXoXoX@X$XoXoXoXoX&X-XoXoXoXoXXX].L.].L.H.H.F.F.H._.]._._.5XdXcXDXVXVXVXVXVXVXVXVXVXVXVXVXVXDXDXDXDXDXDXVXVXVXVXVXVXVXVXNXmXbXnXhXuXrX4X1X`.N...K l r r r r q 9 9 3 q q > & & & & z & & & > & & & & & & & & & & & & & & & & & & * * * & * * * * * & & % % % & & 3 3 3 3 3 & & 3 3 3 7 4 3 2 2 2 3 4 3 3 3 3 3 3 3 3 3 3 3 3 3 3 3 3 3 2 2 2 3 3 3 2 1 2 2 2 3 2 3 3 2 2 2 2 3 3 3 3 3 3 3 3 2 2 2 2 1 2 2 2 2 1 $ $ 2 2 2 2 2 2 2 2 ",
"* * % % # * * * & * * * * * * * * * * * & & 3 3 3 q q q q t t a l K W ;.-.M.N.B.).`..X<X2XeXeX9X0XwXtXyXhXlXvXbXvXbXMXMXBXBXVXCXVXVXVXCXCXCXCXCXVXVXVXVXVXVXVXVXVXVXVXVXVXVXVXVXVXVXVXVXVXVXCXCXFXFXFXFXFXFXFXFXFXFXFXFXFXFXFXFXFXFXFXFXFXFXFXFXFXFXFXFXFXFXFXDXFXFXFXFXFXFXFXFXFXFXFXFXFXFXFXFXFXFXFXFXFXFXFXFXFXFXFXFXFXFXFXFXFXFXFXFXFXFXFXFXFXFXFXFXFXFXFXFXFXFXFXFXFXFXFXFXFXFXFXFXFXFXFXCXFXFXFXFXFXFXDXCXCXCXZXmXcXgX&XoX].W.T.Z.Z.A.I.Z.I.I.d.y.Z.Z.Z.q.8.8.8.8.w.w.=.&.=.&.#.&.4.4.@.} / H v v 8 8 8 8 : @ O O O o o   o O X o o = @ O o o + @ @ @ @ : @ O @ @ O @ * @ 7 @ @ @ @ @ @ : O O o O O O O O * O O O O O O # @ @ @ @ @ @ @ @ : : 7 8 8 8 i F E / { { o.#.+.o.#.o./ o.&.$.+.=.=.&.&.=.w.x.c.A.A.G.G.S.G.K.E.E.E.E.E.G.K.Q.'.XXXXoX$X$XXX].L.L.oX'.].L.K.L.E.].E.].'.'.'.XXXXXXXXXXXXXXXXXX'.'.XXoX@XoXXXXXoX&X-XoX].oXoXXX].L.].L.H.H.H.H._.].]._._.3XdXcXDXDXVXVXVXVXVXVXVXVXVXVXVXVXVXVXVXVXDXDXDXVXVXVXVXVXVXVXNXmXbXnXhXuXrX4X1X`.N...K l r r r r q 9 9 3 q q > & & & & z & & & > & & & & & & & & & & & & & & & & & & * * & & * * * & & & & & % % & & & 3 3 3 3 3 3 3 3 3 r 4 3 3 2 2 3 4 3 3 3 3 3 3 3 3 3 3 3 3 3 3 3 3 3 2 2 2 3 3 3 2 1 1 2 2 3 3 3 2 2 2 2 2 3 3 3 2 3 2 2 3 2 2 2 2 $ 1 2 2 1 $ $ $ 2 2 2 2 2 2 2 2 ",
"& * % % * * * * * * % % % % % % % * & & & & 3 q & & 9 y t t t f h K W  .-.M.N.B.)..X X<X2XeXeX9X0XwXtXyXhXlXlXvXbXbXbXMXmXBXBXBXVXVXVXVXCXCXCXCXFXCXVXBXBXVXVXVXBXBXBXBXBXVXCXCXCXCXCXCXCXCXCXCXDXFXFXFXFXFXFXFXFXFXFXFXFXFXFXFXFXFXFXFXFXFXFXFXFXFXFXFXFXFXFXFXFXFXFXFXFXFXFXFXFXFXFXFXFXFXFXFXFXFXFXFXFXFXFXFXFXFXFXFXFXFXFXFXFXFXFXFXFXFXFXFXFXFXFXFXFXFXFXFXFXFXFXFXFXFXFXFXFXFXFXFXFXFXFXFXCXCXFXFXGXFXFXFXCXVXVXCXcXdX3X].E.Q.T.A.Z.A.Z.t.I.Z.t.t.c.D.b.c.t.8.@.&.w.8.&.#.&.&.&.&.8.8.4.+./ ^ H v v n 8 8 : : O O O O O o o o O o o o O O O O O @ @ @ @ @ @ @ @ @ @ @ O O @ @ * * @ @ @ O O O O O O O O O O O O O O O O O @ @ @ @ @ % % : @ @ % % @ @ ; i F ^ { / / o.+.o.+.o.o.{ o.o.&.&.=.=.=.w.w.x.D.A.A.G.T.G.G.G.K.E.E.E.K.K.Q.XXXX].XXoX$XoXXXXX].L.'.oX].H.G.].XX].E.].oXoXXX'.XXXXQ.].'.oXoXXX'.].'.@X$XoX].'.oX&X@XoXXXXX&X-XE.K.L.L.L.H.F.H._.].]._.OX3XkXNXDXDXVXVXVXVXVXVXVXVXVXVXVXVXVXVXVXVXDXDXDXDXDXDXVXVXDXVXNXmXbXlXyXiX0X4X1X`.N.X.K l t y r r r 9 3 & q 9 z & & & & & & & & > & & & & & & & & & & & & & & & & & & * * & & * * * * & & & & % % & 3 3 3 3 3 & & 3 3 3 3 3 4 4 4 4 3 3 2 3 3 3 3 3 3 3 3 3 3 3 3 3 3 3 3 3 2 2 2 3 3 3 2 3 3 3 3 3 3 3 3 3 2 2 2 2 2 2 2 2 2 3 3 3 2 1 $ 2 2 2 2 2 2 2 2 2 2 1 1 $ 1 2 3 ",
"* * # # % * * * * * * % % % % % % * & & & & 3 q 3 3 q y t t t f f K W  .-.M.N.B.)..X X<X2XeX9X9X0XwXtXyXhXlXlXvXbXbXbXMXmXBXBXBXVXVXVXVXCXCXCXCXCXCXVXBXBXVXVXVXBXBXBXBXVXVXCXCXCXCXCXCXCXCXCXCXDXDXFXFXFXFXFXFXFXFXFXFXFXFXFXFXFXFXFXFXFXFXFXFXFXFXFXFXFXFXFXFXFXFXFXFXFXFXFXFXFXFXFXFXFXFXFXFXFXFXFXFXFXFXFXFXFXFXFXFXFXFXFXFXFXFXFXFXFXFXFXFXFXFXFXFXFXFXFXFXFXFXGXFXFXFXFXFXFXFXFXFXFXFXFXFXCXCXFXFXFXFXFXFXCXZXVXCXcXdX3XOXK.E.T.S.A.S.Z.Z.Z.Z.Z.Z.A.A.A.A.Z.q.8.8.w.8.$.#.#.&.w.w.8.8.4.@.} ^ H v v v n 8 i 8 : O O O O O O O O O O o O @ O O O O @ @ @ @ @ O @ @ O O O O O @ * @ @ @ @ @ @ @ @ O O O O O * * * * @ O O O # * * * @ @ @ @ @ @ @ @ O O % y c E / / / o.+.o.o.o.o.o.+.+.+.#.+.+.&.=.w.D.D.D.A.G.T.G.G.G.E.Q.K.K.G.G.K.].XXXXoX@X-XXX].].L.L.].'.E.H.K.].XX].E.].'.'.].E.E.E.'.'.XXXXXXXX'.'.XXoX@XXX].'.oXoXoXoXoXoXoXXXL.H.D.D.F.F.F.H._.].]._.OX3XkXDXDXDXDXVXVXVXVXVXVXVXVXVXVXVXVXVXVXVXDXDXDXDXVXVXVXVXDXVXNXmXbXlXyXiXaX4X1X`.N.X.K l r r r r r q 9 & q 9 z & & & & & & & & > & & & & & & & & & & & & & & & & & & * * * * * * * * * & & & % % & 3 3 3 3 3 & & 3 3 3 3 3 3 4 4 3 3 3 2 3 3 3 3 3 3 3 3 3 3 3 3 3 3 3 3 3 2 2 2 3 3 3 2 3 3 3 3 3 3 3 3 3 2 2 2 2 2 2 2 2 2 3 3 3 2 1 $ 2 2 2 2 2 2 2 2 2 1 1 $ $ $ 1 2 ",
"* * # # # % * # * * * * * * % % % & & & & & 3 q q q q y t t a f h K W X.-.N.B.)..X.X X<X2XeX9X9X0XwXtXyXhXlXlXvXbXbXbXMXBXBXBXBXVXVXVXVXCXCXCXCXCXVXBXBXBXBXBXBXVXBXVXVXVXVXCXCXCXCXCXCXCXCXCXCXCXDXDXFXFXFXFXFXFXFXFXFXFXFXFXFXFXFXFXFXFXFXFXFXFXFXFXFXFXFXFXFXFXFXFXFXFXFXFXFXFXFXFXFXFXFXFXFXFXFXFXFXFXFXFXFXFXFXFXFXFXFXFXFXFXFXFXFXFXFXFXFXFXFXFXFXFXFXFXFXFXFXGXFXFXFXFXFXFXFXFXFXFXFXFXFXCXFXFXFXFXFXFXCXCXAXZXZXNXIXsXOXK.E.G.S.A.A.Z.t.t.Z.Z.U.U.U.T.T.A.t.q.q.8.$.#.#.o.=.x.q.0.8.6.6.@.| ^ H H v v n n i 8 : O O O O O O O O o o O O O O O O @ @ @ @ : @ @ O @ @ * * @ * * : * * * * ; : : * @ @ @ @ O O O O O O O O * % * * @ @ @ @ @ @ @ = O O - u F E { o.o.+.+.o.o.o.o.+.$.$.+.o.o.+.&.w.x.c.c.D.D.S.G.G.G.G.K.E.E.L.K.G.K.L.].XXXXoXoXXXE.E.L.L.].].E.K.K.'.oX'.'.'.'.oXoXoXXX].oXoXoXoX'.'.'.'.oXoXoX'.'.oXoX].].oXoXoX].L.L.H.D.D.C.C.F.H.].].oX_.-X3XkXDXDXDXDXVXVXVXVXVXVXVXVXVXVXVXVXVXVXVXVXDXVXVXVXVXVXVXDXVXNXMXbXnXyXiXrX4X1X`.N...K l r r 9 9 q q q 3 q q z & & & & & & & & > & & & * & & & & & & & & & & & & & & * * & * * * * * * & & & % % % 3 3 3 3 3 3 3 3 3 3 3 3 4 4 4 3 3 3 2 3 3 3 3 3 3 3 3 3 3 3 3 3 3 3 3 3 2 2 2 3 3 3 2 2 3 3 3 3 3 2 2 3 3 2 2 2 2 3 3 2 2 3 3 2 2 1 $ 2 2 2 2 2 2 2 2 1 1 $ $ $ $ $ 1 ",
"* * # # % % * * * * * * * * * % $ & & & & & 3 q q q q y t t a f K ~  .-.M.N.).`..X.X<X<X4XeX9X9X0XrXtXyXhXlXlXvXbXbXbXmXmXBXBXBXVXVXVXVXCXCXCXCXCXVXVXBXVXVXVXBXVXVXVXVXVXVXCXCXCXCXCXCXCXCXCXCXCXCXDXDXFXFXFXFXFXFXFXFXFXFXFXFXFXFXFXFXFXFXFXFXFXFXFXFXFXFXFXFXFXFXFXFXFXFXFXFXFXFXFXFXFXFXFXFXFXFXFXFXFXFXFXFXFXFXFXFXFXFXFXFXFXFXFXFXFXFXFXFXFXFXFXFXFXFXFXFXFXFXGXFXFXFXFXFXFXFXFXFXFXFXFXFXFXFXFXFXFXFXDXCXVXAXmXZXNXcXgXoXK.G.G.S.D.c.r.9.t.Z.U.U.U.U.U.U.Z.t.0.8.@.+.o.#.#.8.q.q.0.0.0.0.6.} / ^ H v v v 8 8 n i 8 : : : : @ O O O O O o O O O O @ @ @ O : : * @ @ * * : * * ; ; * * * * ; : * @ * * * : O O O O @ @ : : @ @ * @ @ @ @ @ @ @ @ * * ; t x E / o.#.#.#.+.o.o.o.o.o.&.&.+.{ o.o.&.w.w.x.x.x.D.A.G.G.G.G.G.K.].].E.E.K.G.K.].XXXXXX].E.].].E.].].].K.E.'.oX'.XX'.'.oX&X%X&X&X&X@XoX'.'.'.oXoXoXoXoX'.oX@XoX].].].].].L.L.L.L.L.H.C.C.H._.].].oX_.-XqXcXDXDXDXDXDXVXVXVXVXVXVXVXVXVXVXVXVXVXVXVXVXVXVXVXVXVXVXDXVXNXNXbXnXuXuXrX4X1X`.N...K l r r 9 9 9 q q q q q & & & & & & & & & q & & & * & & & & & & & & & & & & & & * * & & * * * * * & & % % % % 3 3 3 3 3 3 3 3 3 3 3 3 4 4 4 4 3 3 2 3 3 3 3 3 3 3 3 3 3 3 3 3 3 3 3 3 2 2 2 3 3 3 2 2 3 3 3 3 3 3 2 3 2 2 2 3 3 3 3 2 2 3 3 3 2 1 $ 2 2 2 2 2 2 2 2 1 1 1 $ $ 1 1 1 ",
"& * * * % * * * * * * % * * * * $ * & 3 3 3 3 9 q q q y y y a k K W X.-.N.B.)..X.X1X1X<X4X9X9X0X0XrXyXyXhXlXlXvXbXbXbXMXBXBXBXBXVXVXVXVXCXCXCXCXCXCXVXVXVXVXVXBXVXVXVXVXVXVXCXCXCXCXCXCXCXCXCXCXCXVXDXDXFXFXFXFXFXFXFXFXFXFXFXFXFXFXFXFXFXFXFXFXFXFXFXFXFXFXFXFXFXFXFXFXFXFXFXFXFXFXFXFXFXFXFXFXFXFXFXFXFXFXFXFXFXFXFXFXFXFXFXFXFXFXFXFXFXFXFXFXFXFXFXFXFXFXFXFXGXGXGXFXFXFXFXFXFXFXFXFXFXFXFXFXFXFXFXFXFXFXDXCXBXmXZXmXNXNXgX-XG.H.G.S.A.Z.t.r.t.Z.U.R.U.U.A.U.Z.t.9.1.#.O.#.8.&.w.8.8.0.q.t.0.6.<.} ^ H H v v n n v v n 8 8 8 8 : : ; 8 7 : O O O O O @ @ @ @ : : # @ @ * * * * * * * @ O O O @ @ @ O @ @ @ @ : : @ @ : : : : @ @ @ : : @ @ @ @ @ @ ; 7 i x Y / { +.#.+.#.+.#.+.o.o.o.&.&.#.o.+.#.&.=.w.x.c.D.S.G.G.G.G.G.G.G.E.E.E.E.K.H.H.K.].XXXX]._.OXXXXX].'.].].].'.'.].].E.E.].oX$X$X@X&X@XoX'.'.'.oXoXoXoX'.'.oX&X@X'.].].L.L.K.L.L.L.].H.F.F.H._.].].oX].-XqXcXDXDXDXDXDXVXVXVXVXVXDXVXVXVXVXVXVXVXVXVXVXVXVXVXVXVXVXVXVXBXNXMXvXhXuXrX4X1X`.N...K l r r 9 9 9 9 q q q q & & & & & & & & & z & & & & & & & & & & & & & & & & & & * * & & * * * * * & & % $ % & & 3 3 3 3 3 3 3 3 3 3 3 4 4 4 4 3 3 3 3 3 3 3 3 3 3 3 3 3 3 3 3 3 3 3 3 3 2 2 3 3 3 2 2 2 3 3 3 3 2 2 3 3 2 2 2 2 3 3 2 2 3 3 3 2 1 1 2 2 2 2 2 2 2 2 2 2 2 2 2 2 2 2 ",
"& * % * * * * * * * * % * * * * # * & 3 9 3 3 3 q 3 q y t t f V ~ W %.h.N.).)..X1X1X<X4XeX9X0X0XwXtXyXhXhXlXlXvXbXbXbXMXBXBXBXBXVXVXVXVXCXCXCXCXFXCXCXCXVXVXVXVXVXVXVXVXVXVXVXCXCXCXCXCXCXCXCXCXCXCXDXDXFXFXFXFXFXFXFXFXFXFXFXFXFXFXFXFXFXFXFXFXFXFXFXFXFXFXFXFXFXFXFXFXFXFXFXFXFXFXFXFXFXFXFXFXFXFXFXFXFXFXFXFXFXFXFXFXFXFXFXFXFXFXFXFXFXFXFXFXFXFXFXFXFXFXFXFXGXGXGXFXFXFXFXFXFXFXFXFXFXFXFXFXFXFXFXFXFXFXDXCXBXAXBXZXNXNXjX*XH.H.H.G.T.S.A.U.Z.U.U.R.T.U.U.S.Z.t.9.8.&.#.8.q.w.w.&.8.0.b.c.0.6.6.} ( ^ H v v v v v n n 8 8 8 8 8 8 8 i i : O @ @ : : : ; ; ; : : % * : * @ @ * * * * * @ O @ @ @ @ @ * @ @ @ : : : @ @ @ @ : : : : : : : : : : : ; 8 i c Y / } o.o.+.+.+.o.o.o.o.+.o.+.+.#.o.o.o.+.&.w.x.D.G.G.G.T.E.E.E.K.K.H.D.H.L.L.H.H.L.].XXXXXX].OXXX].].].].].].].].].].].].].'.XXXXXX@X@XoX'.'.'.oXoXoXoX'.'.oX@XoX'.]._.H.H.H.H.K.H.H.H.C.F.H.].oXoXoX].-XqXcXDXDXDXDXVXVXVXVXVXVXVXDXVXVXVXDXDXDXDXVXDXVXVXVXVXVXVXVXVXBXBXMXvXhXuXiX9X1X`.N...W l r r 9 9 9 9 q 9 q q & & & & & & & & & z & & & & & & & & & & & & & & & & & & * * & & * * * * * * & % % % & & 3 3 3 3 & 3 3 3 3 3 3 4 4 4 4 3 3 2 3 3 3 3 3 3 3 3 3 3 3 3 3 3 3 3 3 3 2 3 3 3 3 2 2 2 3 3 3 3 2 2 3 3 2 2 2 2 3 3 2 2 3 3 3 2 1 1 2 2 2 2 2 2 2 2 2 2 3 2 2 3 2 2 ",
"* % # # % * * * * * % % % % * % # * & q q q 3 3 q 9 q t t f j P W  .-.N.J.)..X.X1X1X4X4X9X9X0XrXrXtXyXhXhXlXlXvXbXbXbXMXmXBXBXBXVXCXVXVXCXCXCXCXCXCXCXCXCXCXVXBXCXVXVXVXVXVXVXCXCXCXCXCXCXCXCXCXVXCXDXFXFXFXFXFXFXFXFXFXFXFXFXFXFXFXFXFXFXFXFXFXFXFXFXFXFXFXFXFXFXFXFXFXFXFXFXFXFXFXFXFXFXFXFXFXFXFXFXFXFXFXFXFXFXFXFXFXFXFXFXFXFXFXFXFXFXFXFXFXFXFXFXFXFXFXFXFXFXGXFXFXFXFXFXFXFXFXFXFXFXFXFXFXFXFXFXFXFXFXDXCXBXBXVXBXmXNXkX5XL.G.G.G.T.S.S.U.I.I.U.U.T.T.G.A.Z.t.q.q.9.8.8.q.q.8.8.w.c.D.c.0.0.5.<.} ^ J H H H v v n n n n 8 8 8 8 8 i i < : ; ; ; 7 w w i i 7 8 y w 8 7 ; ; ; ; - - - > > 7 ; 7 7 7 7 ; : : : : : : : : : : 8 8 : : 8 8 8 8 8 8 i v H Y ^ } +.+.+.$.#.o.+.+.o.+.o.#.o.o.o.o.+.*.+.&.w.x.D.S.G.G.G.E.E.E.E.K.K.D.D.K.L.K.K.L.].XXXXXX].]._.L.].L.E.].].].E.E.'.oXoXXXXXXXoX@XoXoXoX'.].oXoXoXoXoX].].].'.'.].]._.L.L.H.H.D.D.D.F.F.H.L.].oX&XoXOX*XgXcXDXDXVXDXVXVXVXVXVXVXVXDXDXVXVXVXDXDXDXDXDXDXDXVXVXVXVXVXVXVXBXNXbXhXuXiX9X1X.XB.g.W l t r 9 9 9 9 3 3 q q & & & & & & & & & z & & & & & & & & & & & & & & & & & & * * & & & * % % * % & % % % & & & 3 3 3 & & 3 3 3 3 3 3 4 4 4 3 3 3 3 3 3 3 3 3 3 3 3 3 3 3 3 3 3 3 3 3 2 3 3 3 3 2 2 2 2 3 3 3 2 2 3 3 3 3 2 3 3 3 2 2 3 3 3 2 1 1 2 2 2 2 2 2 2 2 1 2 3 2 2 3 2 1 ",
"* # # # # % # * * * % % % % % % # * - q q z 3 & q q q y a h V I ' -.M.J.)..X.X1X1X<X4X4X9X9X0XrXrXtXyXhXhXlXlXvXbXbXbXmXmXBXBXBXVXVXVXVXCXCXCXCXCXCXVXVXVXVXBXBXCXVXVXVXVXVXVXCXCXCXCXCXCXCXCXCXCXCXCXFXFXFXFXFXFXFXFXFXFXFXFXFXFXFXFXFXFXFXFXFXFXFXFXFXFXFXFXFXFXFXFXFXFXFXFXFXFXFXFXFXFXFXFXFXFXFXFXFXFXFXFXFXFXFXFXFXFXFXFXFXFXFXFXFXFXFXFXFXFXFXFXFXFXFXFXFXFXFXFXFXFXFXFXFXFXFXFXFXFXFXFXFXFXFXFXFXFXFXCXVXBXCXCXBXmXNXkX3XoXE.G.G.S.Z.Z.Z.Z.Z.Z.Z.U.U.I.A.D.t.q.q.q.8.8.8.8.q.q.q.c.D.c.9.0.0.5.<.} ) J J J b v v b b v n n n n n i i i i < 8 i i i i d v i d g g g i w 7 w e u u p p d g u u d d i 8 8 : : : : : 8 8 8 n n n n n n n v v v v v H E ^ } @.&.&.&.=.=.$.#.+./ o.+.#.#.o.+.#.&.&.&.&.=.w.c.D.D.D.S.K.E.E.E.K.].K.H.L.L.L.L.].].XXXXXX].L.L.L.K.K.K.E.].].E.E.].].oXXX'.XX@X&XoXoXoXoXoXoXoXoXoXoXoX].L.].].E.L.].].L.H.C.C.C.D.D.H.L._.].oX&XoXOX-XgXcXDXDXDXDXVXVXVXVXVXVXVXDXDXVXVXVXDXDXDXDXDXDXDXDXVXVXVXVXVXVXBXNXbXhXyXiX9X1X.XB.h.W l a r 9 9 9 3 3 & q q & & & & & & & & & > & & & & & & & & & & & & & & & & & & * * & & & * % % % % & & % % & & & 3 3 3 & & 3 3 3 6 3 3 3 3 3 3 3 2 3 3 3 3 3 3 3 3 3 3 3 3 3 3 3 3 3 3 3 3 3 3 3 2 2 2 3 3 3 3 2 2 3 3 3 3 2 2 3 3 2 2 3 3 2 2 1 $ 2 2 2 2 2 2 2 2 $ 1 2 3 3 2 1 $ ",
"* * # # # # # # # # $ * * * # # $ & 6 q q - - & w q y y s h K R ' -.N.J.)..X X<X2X4X9X9X9XqXqX0XrXtXyXhXhXhXvXvXvXbXmXBXBXBXmXmXZXBXVXVXCXCXCXCXCXCXCXVXVXVXVXVXVXVXVXVXVXVXVXCXCXCXCXCXCXCXVXVXCXCXCXCXFXFXFXFXFXFXFXFXFXFXFXFXFXFXFXFXFXFXFXFXFXFXFXFXFXFXFXFXFXFXFXFXFXFXFXFXFXFXFXFXFXFXFXFXFXFXFXFXFXFXFXFXFXFXFXFXFXFXFXFXFXFXFXFXFXFXFXFXFXFXFXFXFXFXFXFXFXFXFXFXFXFXFXFXFXFXFXFXFXFXFXFXGXFXFXFXFXCXCXBXBXBXVXZXmXNXkX3X].K.G.G.A.U.I.t.Z.Z.Z.I.I.I.m.y.Z.c.t.q.q.q.0.8.8.8.0.q.t.t.t.t.0.r.r.5.,.( ) J J J J J J J v v v v v v n n n n n n n n n n n v v c c c H H c i v H H H F Y Y Y H c c v v v n 8 n n n n n v v v J J J v v H v v v H H ^ / } @.4.8.=.&.&.#.#.#.+.o.o.{ { +.&.&.#.#.#.#.=.w.x.x.q.D.D.H.K.L.K.L.Q.K.H.H.L._.L.L.OX].OXOXL._.XX].G.K.K.K.K.K._.].].oXoX].].].oX@X&X@XoXoXoXoXoXoX'.].oXoX].].XX].L.K._._.H.C.C.C.C.C.C.H.L.].oXOXoX&XoX*XgXNXDXDXVXVXVXVXVXVXDXDXDXCXCXVXCXDXDXDXDXDXDXDXDXVXVXVXVXVXVXBXNXMXvXhXuXiX4X1X`.N.-.W l s 9 3 3 9 & & > q > > & & & & & & & & q & & & & & & & & & & & & & & & & & & & & q & * * # # * & & & % % & & & 3 3 3 & & & 3 3 6 3 3 3 3 3 & & & 3 3 3 3 3 3 2 2 3 3 3 3 3 3 3 3 3 2 2 3 6 3 2 1 3 3 2 2 2 2 2 1 $ $ 2 3 2 3 2 2 2 2 3 3 2 2 1 1 2 2 2 2 2 2 2 2 2 2 1 1 1 1 2 2 ",
"* % # # # # # # # # * * * * % # * & 6 6 q - - & w q y a l B K W  .j.F.).`..X1X<X4X9X9X9XqX0X0X0XtXtXyXhXhXhXvXvXvXbXmXBXBXBXmXAXBXBXVXVXCXCXCXCXVXCXCXVXVXVXVXVXVXVXVXVXVXCXVXVXCXCXCXCXCXCXCXCXCXCXCXCXCXFXFXFXFXFXFXFXFXFXFXFXFXFXFXFXFXFXFXFXFXFXFXFXFXFXFXFXFXFXFXFXFXFXFXFXFXFXFXFXFXFXFXFXFXFXFXFXFXFXFXFXFXFXFXFXFXFXFXFXFXFXFXFXFXFXFXFXFXFXFXFXFXFXFXFXFXFXFXFXFXFXFXFXFXFXFXFXFXFXFXFXGXFXFXFXFXCXCXBXBXBXVXZXmXNXkXqXoX_.K.T.A.I.I.f.Z.Z.Z.I.Y.Y.m.v.q.0.9.9.0.0.0.9.8.9.0.t.t.t.q.t.0.r.r.5.<.} ( ) J J J J J J b v b b v v v v v v v v v v v v v v v c c v H H H H H Y E Y Y E ^ E H c v v v v v v n v v J J J J J J ) J J J J J J J J ) } } <.6.0.w.w.8.&.&.#.#.+.o.o.{ { o.+.&.+.&.&.&.=.w.x.D.D.w.w.C.H.E.E.E.L.].K.K.].].L.H.L.L._._.L.K.].].K.H.K.K.K.K.K.].].].].].].oXoX@X@X@XoXoXoXoXoXoXoXoXoXoX].].oXXX].H.L.L.H.F.H.P.D.C.H.H.L.].oXoXoX-X-X*XgXNXDXDXVXDXDXVXVXDXDXDXDXCXCXCXCXDXDXDXDXDXDXDXDXDXVXVXVXVXVXBXMXMXvXlXuXiX4X1X.XB.-.W B a 0 9 9 9 z - q > > > & & & 3 & & & & q & & & & & & & & & & & & & & & & & & & & q & & * * * * * & & % % % & & 3 3 3 & & & 3 3 6 3 3 3 3 3 & & & 3 3 3 3 3 3 2 2 3 3 3 3 3 3 3 3 3 3 2 3 7 7 2 1 3 3 3 2 2 2 2 2 $ $ 2 3 2 3 2 2 2 2 3 3 2 2 1 1 2 2 2 2 2 2 2 2 2 2 1 1 1 1 2 2 ",
"% * # # # # # # # % * * * * * * % & 6 6 q 6 > > q q y a h K W  .-.N.).|..X X<X<X4X9X9X0X0X0XtXtXtXtXyXhXhXhXvXvXvXbXmXBXBXBXBXBXBXVXVXVXCXCXCXCXCXCXCXVXVXVXVXVXVXVXVXVXVXCXCXCXVXVXCXCXCXCXCXCXCXCXCXCXFXFXFXFXFXFXFXFXFXFXFXFXFXFXFXFXFXFXFXFXFXFXFXFXFXFXFXFXFXFXFXFXFXFXFXFXFXFXFXFXFXFXFXFXFXFXFXFXFXFXFXFXFXFXFXFXFXFXFXFXFXFXFXFXFXFXFXFXFXFXFXFXFXFXFXFXFXFXFXFXFXFXFXFXFXFXFXFXFXFXFXFXGXFXFXFXFXCXCXBXCXBXBXZXMXNXcXgX&X].E.E.A.Z.I.I.Z.f.f.I.Y.Y.I.m.0.8.8.8.8.0.q.q.0.q.t.t.t.t.t.t.r.r.0.0.0.5.,.( ) ) J J J J J J J J J J J b J b v v v v v v v v v v v v v v H H v v v v v v v v v v v v v v v H v J J ) ) ) ) ) ) ) ( ) ) ) ) ) ) } } <.6.0.c.c.x.x.w.w.8.&.*.#.+.o.o.{ o.+.&.#.=.=.=.=.=.w.D.H.C.w.w.D.E.Q.K.G.K.H.H.L.L.H.H.H.L._._.L.H.L.E.L.K.K._.K.K.K.K.].].].].oX@X@XoXoXoXoX'.'.oXoX@X&XoXoX].L.].].]._.L.L.H.H.H.H.H.D.P.H.L.].oXoXoXoX-X-X*XgXNXDXDXDXDXDXVXVXDXDXDXDXCXCXCXCXDXDXDXDXDXDXDXDXDXVXVXVXBXBXBXBXMXbXnXhXiX9X1X.XB.-.[ B s r 9 9 q z q q > > > & & & 3 & & & & > & & & & & & & & & & & & & & & & & & & & z & & * * * * & & & % % % & & 3 3 3 & & & 3 3 3 3 3 3 3 3 3 & & 3 3 3 3 3 3 2 2 3 3 3 3 3 3 3 3 3 3 2 3 7 7 2 1 3 3 3 2 2 2 2 2 1 1 2 3 3 3 2 2 2 2 3 3 3 2 1 $ 2 2 2 2 2 2 2 2 2 2 1 1 1 1 2 2 ",
"# * # # # # # # % * * * * * & & & 3 6 6 w q q q q q y l V K ' %.M.J.|..X X<X<X4X9X9X0XrX0XwXtXyXtXuXyXhXhXhXvXvXvXbXmXBXBXBXBXBXVXVXVXVXCXCXCXCXCXCXCXVXVXVXVXVXVXVXVXVXVXCXCXCXVXVXVXCXCXCXFXFXCXCXCXFXFXFXFXFXFXFXFXFXFXFXFXFXFXFXFXFXFXFXFXFXFXFXFXFXFXFXFXFXFXFXFXFXFXFXFXFXFXFXFXFXFXFXFXFXFXFXFXFXFXFXFXFXFXFXFXFXFXFXFXFXFXFXFXFXFXFXFXFXFXFXFXFXFXFXFXFXFXFXFXFXFXFXFXFXFXFXFXFXFXFXFXFXFXFXFXFXFXCXCXCXCXBXBXBXMXNXmXkX3XoX].E.A.v.I.Y.Z.d.d.Z.Y.Y.I.I.t.q.8.8.0.q.c.D.t.t.t.c.c.t.t.t.c.b.0.0.r.r.2.} ) ) ) J J J J J J J J J J J J J H b J b J J J H H H v v n n v v v v v v v v v v v v H H H J J J J J ) ) ) ) ) >.) } ,.} ) ) ( ( } <.6.r.b.b.c.c.D.c.x.q.w.8.&.*.#.#.+.o.+.#.&.&.=.=.=.=.=.w.D.H.H.D.x.D.K.E.K.H.H.F.F.H.H.H.H.L._.OX].L.H.K.E.].K.}.].].}.K.K._.].].].oX@X@X@XoX@XoX'.'.oXoXoX@XoX].].L._.].L.H._.L.H.F.H.H.D.C.P.H.L.].oXoX-X-X-X-X*XgXNXDXDXDXDXDXVXVXDXDXDXDXCXCXDXCXDXDXDXDXDXDXDXDXDXVXVXVXVXBXBXNXMXbXnXhXiX9X1X.XB.h.W B a 0 9 9 9 z - q > > z & & & 3 & & & & > & & & * & & & & & & & & & & & & & & & & & & & * * * * & & % % % % & & 3 3 3 & & & 3 3 3 3 3 3 3 3 3 3 & 3 3 3 3 3 3 2 2 3 3 3 3 3 3 3 3 3 3 7 7 6 7 3 2 3 3 3 2 2 2 2 2 2 2 2 3 3 3 3 2 2 2 3 3 3 2 1 $ 2 2 2 2 2 2 2 2 2 2 1 1 1 1 2 2 ",
"% % % % # # # # * * * * * * & & & 3 6 q q q w q e e t h K R  .-.M.).|..X X2X2X9X9X9X0XrXrXtXtXtXyXuXhXhXhXhXlXvXbXbXmXBXBXBXBXBXVXVXCXCXCXCXCXCXCXCXCXVXVXVXVXVXVXVXVXVXVXVXCXCXVXVXVXCXCXFXFXFXCXCXFXFXFXFXFXFXFXFXFXFXFXFXFXFXFXFXFXFXFXFXFXFXFXFXFXFXFXFXFXFXFXFXFXFXFXFXFXFXFXFXFXFXFXFXFXFXFXFXFXFXFXFXFXFXFXFXFXFXFXFXFXFXFXFXFXFXFXFXFXFXFXFXFXFXFXFXFXFXFXFXFXFXFXFXFXFXFXFXFXFXFXFXFXFXFXFXFXFXFXCXCXCXCXBXBXVXNXNXNXkX3X-X].E.G.v.A.U.Z.d.d.Z.Y.Y.Y.I.D.D.q.q.q.t.t.d.t.t.t.c.c.t.t.t.c.b.r.0.r.b.5.,.} ( ) ) J J J J ) J J J J J J J J J J J J J J J J J J J H v v J J H H J J J J J J J J ) ) ) ) ) ) ) >.,.,.,.,.3.,.7.7.3.,.,.,.,.<.5.r.b.b.A.D.c.D.D.D.x.w.8.&.&.&.&.#.#.o.+.&.&.&.=.=.w.w.w.x.D.H.D.D.D.H.H.G.K.G.H.H.H.H.L._.oX].oXoX_.H.H.K.E.E.].].].].].].].].].oXoXoX@X@X@X@XoXoX'.].oXoXoXoX].].].].L.H.H._.L.H.H.H.C.C.C.D.H.L.].oX-X&X-X-X-X5XgXNXDXDXDXDXDXVXVXDXDXDXDXVXCXCXCXDXDXDXDXDXDXDXDXDXVXVXVXVXBXBXMXMXbXnXhXiX4X1X1XB.h.W B s 9 9 9 3 & & > > > - & & & 3 & & & & z & & & & & & & & & & & & & & & & & & & & & & & & & & & & & % % % & & & 3 3 3 & & & & 3 3 3 3 3 3 3 3 3 3 3 3 3 3 3 3 2 2 3 3 3 3 3 3 3 3 6 6 3 6 6 6 3 2 2 3 3 3 2 2 2 2 2 2 2 3 2 2 3 3 2 2 3 3 3 2 1 $ 2 2 2 2 2 2 2 2 2 2 1 1 1 1 2 2 ",
"% % * * * * # # # # # * * * & & & 3 6 6 6 q q q t t a V K W %.h.N.).|. X2X2XeX9X9X9X0X0XwXtXtXtXyXyXhXhXhXhXlXvXbXbXmXBXBXBXBXVXVXCXCXCXCXCXCXCXCXVXCXVXVXVXVXVXVXVXVXVXVXVXCXCXVXVXVXVXCXCXFXFXCXCXFXFXFXFXFXFXFXFXFXFXFXFXFXFXFXFXFXFXFXFXFXFXFXFXFXFXFXFXFXFXFXFXFXFXFXFXFXFXFXFXFXFXFXFXFXFXFXFXFXFXFXFXFXFXFXFXFXFXFXFXFXFXFXFXFXFXFXFXFXFXFXFXFXFXFXFXFXFXFXFXFXFXFXFXFXFXFXFXFXFXFXFXFXFXFXFXFXFXFXFXCXCXCXBXBXVXVXNXmXzXgX-X_.K.G.A.A.U.Z.Z.d.Z.I.Y.I.I.Z.D.q.q.q.q.q.q.t.t.t.t.t.t.t.t.Z.b.c.r.r.b.e.2.,.,.( ) ) ) ) ) >.>.>.) ) ) J J J J J J J J J J J J J ) J J J J J J J J J J J J J J J ) ) ( ) ) ) ) ,.7.7.7.7.7.,.7.7.2.,.,.<.6.r.b.b.A.A.A.A.D.D.D.D.c.x.w.8.&.&.&.#.o.{ o.#.#.+.$.=.w.w.w.w.x.C.C.D.D.D.D.G.E.L.K.L.H.H.H.L.].].].].L.H.H.H.G.K.].].].].].].].oXoX].].oXoX@X@X@XoXoX'.oX'.].].oX].].]._.L.H.H.L.H.H.H.D.D.D.H.P.K.L.XX-X&X&X&XoX-X5XgXNXDXDXDXDXDXVXVXDXDXDXCXVXCXCXCXDXDXDXDXDXDXDXDXDXVXVXVXVXBXBXBXNXbXnXhXiX4X4X1XB.h.[ V s 9 9 9 3 & & > > > - & & & 3 & & & & z & & & & & & & & & & & & & & & & & & & & & & & & & & & & & % % % & & & 3 3 3 & & & & 3 3 3 3 3 3 3 3 3 3 3 3 3 3 3 3 2 2 3 3 3 3 3 3 3 3 6 6 6 6 7 6 3 2 2 2 2 2 2 2 2 2 3 3 2 2 2 2 3 3 2 2 3 3 3 2 1 $ 2 2 2 2 2 2 2 2 2 2 1 1 1 1 2 2 ",
"% % * * * # # # # # # # % * & & & & 6 6 & > > q e t l K W  .-.N.).|. X X2X9X9X9X0XrXrXrXrXtXtXtXyXhXhXhXhXhXnXvXbXMXBXBXBXBXBXVXCXCXCXCXCXCXCXVXVXVXVXVXVXVXVXVXVXVXVXVXVXVXVXCXVXVXVXVXCXCXCXFXCXCXFXFXFXFXFXFXFXFXFXFXFXFXFXFXFXFXFXFXFXFXFXFXFXFXFXFXFXFXFXFXFXFXFXFXFXFXFXFXFXFXFXFXFXFXFXFXFXFXFXFXFXFXFXFXFXFXFXFXGXGXGXGXFXFXFXFXFXFXFXFXFXFXFXFXFXFXFXFXFXFXFXFXFXFXFXFXFXFXFXFXFXFXFXFXFXFXFXFXFXFXCXCXCXAXVXCXVXMXmXzXgXoXL.K.E.A.A.I.Y.Z.Z.Z.Y.Y.I.I.Z.Z.t.t.t.t.t.q.t.t.t.t.t.t.c.c.c.Z.c.t.t.b.r.7.5.3.,.,.( ) ) ) >.>.) ) ) ) ) ) ) J J ) >.,.) J ) ) ) ) J J J ) ( ) ) ( ,.>.) ) ) ) J J >.,.,.,.,.>.,.7.y.7.7.7.,.7.7.2.<.5.7.r.b.v.A.G.S.A.D.D.A.A.A.D.c.q.w.8.&.=.&.o.{ } #.+.+.#.&.=.w.x.x.x.x.x.D.D.D.D.H.K.K.K.H.H.C.C.H.K.].L.L.L.K.H.H.H.K.K.].].'.'.].].].].].].].oXoXoX].].].].oXoX].].].L.L.L.H.H.H.L.L.F.C.H.H.H.K.L.L.L.XXXX-X&X-X-XoX-X5XjXNXDXDXDXDXDXVXVXDXVXDXZXVXCXDXDXDXDXDXDXDXDXDXDXDXVXVXVXBXBXBXBXMXbXvXlXiX9X4X1X).h.[ K s 9 9 9 3 & & > > > - & & & & & & & & z & & & & & & & & & & & & & & & & & & & & & & & & & & & & & % % % & & & 3 3 3 & & & 3 3 3 3 3 3 3 6 3 3 3 3 3 3 3 3 3 2 2 3 3 3 3 3 3 3 3 4 3 6 6 7 7 3 2 2 2 2 2 2 3 3 3 4 3 2 2 2 2 3 2 2 2 3 3 3 2 1 $ 2 2 2 2 2 2 2 2 2 2 1 1 1 1 2 2 ",
"% * * * * * # # # # # # # * & & & & 6 3 & z > q r t l K [ ..h.B.). X X<XeX9X9X0XrXrXtXtXtXtXtXyXyXhXhXhXhXlXnXvXbXMXBXBXBXBXBXVXCXCXCXCXCXCXCXVXVXVXVXVXVXVXVXVXVXVXVXVXVXVXCXCXVXVXVXCXCXCXCXCXCXCXFXFXFXFXFXFXFXFXFXFXFXFXFXFXFXFXFXFXFXFXFXFXFXFXFXFXFXFXFXFXFXFXFXFXFXFXFXFXFXFXFXFXFXFXFXFXFXFXFXFXFXFXFXFXFXFXFXFXGXGXGXGXFXFXFXFXFXFXFXFXFXFXFXFXFXFXFXFXFXFXFXFXFXFXFXFXFXFXFXFXFXFXFXFXFXFXFXFXFXFXCXCXCXAXVXCXVXMXmXkXgXOXJ.K.E.G.I.A.Y.Z.Z.Z.U.Y.I.I.Z.Z.c.c.Z.Z.Z.t.t.t.t.t.t.t.c.c.t.Z.c.t.t.b.v.v.7.7.7.,.,.>.>.>.) ) J J ) ) >.>.>.) ) >.,.,.,.>.,.,.,.,.>.J J ,.,.>.) ,.,.>.>.>.,.,.,.,.,.7.7.7.i.7.,.7.y.7.7.7.7.r.r.7.7.b.m.I.v.A.A.S.S.D.D.D.D.D.D.D.D.x.q.w.8.w.=.#.{ o.#.#.#.#.&.=.w.D.C.x.D.D.H.K.K.H.D.H.K.L.L.H.D.D.H.L.E.L.L.L.L.L.G.G.H.K.].].'.'.].].'.'.].].].].].].].].].].oXoXXX].K.H.H.H.C.x.F.L.].H.C.H.L.L.L.L./.XXXX@X-X-X-X-XoX-X5XjXNXDXDXDXDXDXVXVXDXVXDXZXVXCXVXDXDXDXDXDXDXDXDXDXDXVXVXVXBXBXBXBXNXbXnXlXiX9X4X1X`.h.' K s 9 9 9 q z 6 w > > - & & & & & & & & > & & & & & & & & & & & & & & & & & & & & & & & & & & & & & & % % & & & 3 3 3 & & & 3 3 3 3 3 3 3 q 3 3 3 3 3 3 3 3 3 2 2 3 3 3 3 3 3 3 3 4 3 3 6 7 7 3 2 2 2 2 2 2 3 3 3 4 3 2 2 2 2 3 2 2 2 3 3 3 2 1 $ 2 2 2 2 2 2 2 2 2 2 1 1 1 1 2 2 ",
"* * * * % # # # # # # # # # * & & & & q q q e t r l K ~  .-.M.B.|. X2X2XeXqX0X0XrXrXtXyXyXtXtXtXyXhXhXhXhXhXlXvXbXmXBXBXBXBXBXVXVXVXVXCXCXCXCXCXCXCXCXVXVXVXVXVXVXVXVXCXCXCXCXCXCXCXCXCXCXFXCXCXCXCXFXFXFXFXFXFXFXFXFXGXGXFXFXFXFXFXFXFXFXFXFXFXFXFXFXFXFXFXFXFXFXFXFXFXFXFXFXFXFXFXFXFXFXFXFXFXFXFXFXFXFXFXFXFXFXFXGXGXGXGXGXGXFXFXFXFXFXFXFXFXFXFXFXFXFXFXFXFXFXFXFXFXFXFXFXFXFXFXFXFXFXFXFXFXFXFXFXFXFXFXCXCXCXCXVXmXmXmXzXjXqX*X_.H.G.S.A.U.d.Z.Z.Z.Z.Z.I.Z.q.t.Z.Z.Z.Z.t.q.Z.d.t.t.t.t.t.t.t.t.q.q.t.t.r.9.5.e.7.<.,.,.,.,.>.>.>.) ) >.>.>.J J >.,.,.>.J ) ,.,.,.,.J J J >.,.>.>.,.,.,.,.,.,.,.,.,.,.,.7.7.m.7.,.7.r.r.7.7.7.y.b.7.7.b.I.T.T.T.T.G.G.G.H.H.A.D.A.D.D.c.x.x.x.w.&.+.#.#.#.+.&.+.#.=.x.C.D.D.D.D.H.K.G.D.D.G.K.L.G.D.C.C.H.L.E.K.K.L.E.E.L.K.D.K.].].].'.oXoX].].].'.'.oXoX].].oXoX].XXoXXX_.L.H.H.F.C.j.C.H.L.H.H.H.L.L.L.L.E.E.XX@X&X&X-X-X&X-X5XgXNXDXDXGXDXDXVXVXDXDXDXDXCXCXCXCXDXDXDXDXDXDXDXDXDXVXVXVXDXVXBXNXNXmXvXhXiX9X4X1X`.k.' Z l r 9 9 q z z q > > q > 3 3 3 & & & & q & & & & & & & & * * * * & & & & & & & & & & & & & & & & 3 3 3 3 & 3 3 3 3 3 & & & 3 3 3 3 3 3 3 3 3 3 3 6 6 3 3 3 3 3 3 2 2 3 3 3 3 3 3 3 3 3 3 3 3 6 3 3 3 3 3 3 3 3 3 3 2 3 2 2 2 2 3 2 3 2 2 2 2 2 $ 2 2 2 2 2 2 2 2 1 1 1 1 1 1 1 1 ",
"# # # # # # # # # # # # # * * & & & z q q 9 r t t h K W ..h.N.)..X X2XeX9X0X0X0XrXtXyXyXtXtXtXyXyXhXhXhXhXhXvXvXbXmXBXBXBXBXBXVXVXVXVXCXCXCXCXCXCXCXCXVXVXVXVXVXVXVXVXCXCXCXCXCXCXCXCXCXCXFXCXCXCXCXFXFXFXFXFXFXFXFXFXGXGXFXFXFXFXFXFXFXFXFXFXFXFXFXFXFXFXFXFXFXFXFXFXFXFXFXFXFXFXFXFXFXFXFXFXFXFXFXFXFXFXFXFXFXFXFXGXGXGXGXGXGXFXFXFXFXFXFXFXFXFXFXFXFXFXFXFXFXFXFXFXFXFXFXFXFXFXFXFXFXFXFXFXFXFXFXFXFXFXFXCXCXCXCXVXmXmXmXvXlXwX*X_.L.K.T.A.Z.Z.Z.Z.Z.Z.U.I.Z.Z.Z.t.q.9.9.q.t.t.t.t.t.t.t.t.t.t.t.t.t.t.t.t.r.e.r.r.7.2.3.,.,.>.>.) J J ) >.>.) J >.>.>.>.J ) >.,.,.,.>.>.>.,.,.>.,.,.,.,.,.,.,.,.,.,.,.,.7.7.7.7.,.7.7.7.7.7.7.b.b.b.b.A.T.T.T.T.G.G.G.G.G.G.G.S.D.A.D.D.c.x.c.w.=.#.#.#.&.&.=.&.&.w.x.D.D.D.D.D.H.K.G.D.D.H.H.H.H.D.C.x.C.D.H.H.G.K.K.L.K.H.H.G.E.E.].'.].'.].].].].].'.].].oXoXoX].XXoXXX].L.L.L.L.L.H.H.L.L.H.H.H.H.H.P.L.E./.XX@X-X&X-X-X-X-X5XgXNXDXDXDXDXDXVXVXDXDXDXDXCXCXCXCXDXDXDXDXDXDXDXDXDXVXVXVXDXVXNXNXNXMXvXhXiX9X4X1X`.k.] Z s r 9 9 q 9 6 q > > q > 3 3 3 & & & & q & & & & & & & & * * * * & & & & & & & & & & & & & & & & 3 3 3 & & 3 3 3 3 3 & & & 3 3 3 3 3 3 3 3 3 3 3 6 6 3 3 3 3 3 3 2 2 3 3 3 3 3 3 3 3 3 3 3 3 6 3 3 3 3 3 3 3 3 3 3 2 3 2 2 2 2 3 2 3 2 2 2 2 2 $ 2 2 2 2 2 2 2 2 1 1 1 1 1 1 1 1 ",
"# # # # # # # # # # * # # * & q 3 3 9 e e q r t l K K [ -.M.B.`. X<XeX9X9XwXrXrXtXuXyXyXtXtXyXyXjXhXhXhXhXhXvXvXbXmXBXBXBXBXBXVXVXVXVXCXCXCXCXCXCXCXCXVXVXVXVXVXVXVXVXCXCXCXCXCXCXVXVXCXCXFXCXCXCXCXFXFXFXFXFXFXFXFXFXGXGXGXGXFXFXFXFXFXFXFXFXFXFXFXFXFXFXFXFXFXFXFXFXFXFXFXFXFXFXFXFXFXFXFXFXFXFXFXFXFXFXFXFXFXGXGXGXGXGXGXGXGXFXFXFXFXFXFXFXFXFXFXFXFXFXFXFXFXFXFXFXFXFXFXFXFXFXFXFXFXFXFXFXFXFXFXFXFXFXFXCXVXCXCXCXmXmXbXvXlXdX3X_.L.L.G.S.Z.Z.Z.U.Z.S.U.U.A.Z.t.9.1.1.8.9.t.q.t.t.y.t.t.y.Z.t.t.t.t.t.d.v.y.r.y.b.y.r.7.3.,.,.>.>.) ) >.>.>.>.>.) >.>.) ) >.>.,.,.,.,.>.>.,.,.,.,.,.,.,.,.,.,.,.,.,.,.,.,.,.7.,.,.7.7.5.7.b.r.b.m.I.T.T.T.T.G.G.G.G.G.G.G.G.G.G.A.D.D.D.D.D.D.x.w.&.&.&.=.=.&.&.=.w.x.x.D.D.H.D.H.G.K.H.H.H.D.P.H.H.D.x.w.w.D.H.K.H.H.K.L.H.H.G.K.K.E.].].E.E.L.L.].].].].].oXXXoX].].oXoX].L.L.L.L.L.H.H.H.H.H.H.H.P.D.P.L././.XX@X-X-X-X-XoX-X3XjXPXDXDXDXDXDXVXVXDXDXDXDXCXCXDXDXDXDXDXDXDXDXDXDXDXVXVXVXDXVXNXNXmXmXvXhXiX9X4X1X`.k.] Z s r 9 9 q z 6 q > > > > 3 3 3 & 3 & & q & & & & * * & & & & & & & & & & & & & & & & & & & & & & 3 3 3 & & & 3 3 3 3 & & & 3 3 3 3 3 3 3 3 3 3 3 3 3 3 3 3 3 3 3 2 2 2 2 2 2 3 3 3 3 3 3 3 3 3 3 3 3 3 3 3 3 3 3 3 2 3 2 2 2 2 3 2 3 2 2 2 2 2 $ 2 2 2 2 2 2 2 2 1 1 1 1 1 1 1 1 ",
"# # # # # # # # # # * * * * & q & & q e r q r r l K W  .h.N.B..X<X2X9X9X0XrXtXiXuXhXhXhXtXtXyXyXjXhXhXhXhXlXvXvXbXmXBXBXBXBXBXVXVXVXVXCXCXCXCXCXCXCXCXVXVXVXVXVXVXVXVXCXCXCXCXCXCXVXVXCXCXFXCXCXCXCXFXFXFXFXFXFXFXFXFXGXGXGXGXFXGXFXFXFXFXFXFXFXFXFXFXFXFXFXFXFXFXFXFXFXFXFXFXFXFXFXFXFXFXFXFXFXFXFXFXFXFXFXFXFXGXGXGXGXGXGXGXGXGXFXFXFXFXFXFXFXFXFXFXFXFXFXFXFXFXFXFXFXFXFXFXFXFXFXFXFXFXFXFXFXFXFXFXFXFXFXCXVXCXCXCXBXmXbXvXlXjX8X|.L.K.T.S.Z.Z.Z.U.Z.U.U.U.A.9.9.9.9.9.9.t.t.t.t.t.t.t.y.y.y.t.t.t.t.t.d.Z.Z.v.v.v.v.m.m.7.<.3.,.,.,.,.,.,.,.,.>.) ) ) ) ) ,.,.,.,.,.,.>.>.>.,.,.,.,.,.,.,.,.,.,.,.,.,.,.,.,.,.,.7.7.0.0.b.b.v.I.I.T.R.W.Q.G.T.T.T.T.T.T.K.T.T.G.A.D.D.D.D.D.D.x.w.8.8.w.w.w.&.&.=.w.w.w.x.D.H.H.H.G.K.K.G.H.H.H.K.H.D.D.C.C.H.K.E.H.H.K.L.L.K.K.K.K.E.].].L.L.K.K.].].].].].oXXX].].].].]._.H.H.F.H.H.H.C.C.H.H.K.L.H.P.K.E.XXXXXX@X-X-X-X-XoXoX3XfXPXDXDXDXDXDXVXVXDXDXDXDXVXCXDXDXDXDXDXDXDXDXDXDXDXVXVXVXDXVXVXNXmXbXvXhXiX9X4X1X`.k...K s r 9 9 q z 6 q > - > z 3 3 9 z & & & q & & & & * * * & & & & & & & & & & & & & & & & & & & & & 3 & & & & & 3 3 3 3 & & & 3 3 3 3 3 3 3 3 3 3 3 3 6 3 3 3 3 3 3 2 2 2 2 2 2 3 3 3 3 3 3 3 3 3 3 3 3 3 3 3 3 3 3 3 2 3 2 2 2 2 3 2 3 2 2 2 2 2 $ 2 2 2 2 2 2 2 2 1 1 1 1 1 1 1 1 ",
"# # # * % % # # # * * * * * & q 3 & 9 r r 9 r t l K W X.M.N.)..X<XeX9X9X0XtXtXtXhXhXhXhXyXtXyXyXjXhXhXhXlXlXvXbXbXmXBXBXBXBXBXVXVXVXVXCXCXCXCXCXCXCXVXVXVXVXVXVXVXVXVXCXCXCXCXCXCXCXCXCXCXFXCXCXCXDXFXFXFXFXFXFXFXFXGXGXGXGXGXFXGXFXFXFXFXFXFXFXFXFXFXFXFXFXFXFXFXFXFXFXFXFXFXFXFXFXFXFXFXFXFXFXFXFXFXFXFXFXGXGXGXGXGXGXGXGXGXGXGXFXFXFXFXFXFXFXFXFXFXFXFXFXFXFXFXFXFXFXFXFXFXFXFXFXFXFXFXFXFXFXFXFXFXFXFXFXCXVXCXCXCXBXMXbXbXlXzXqX XL.H.G.S.A.Z.Z.S.S.U.U.A.v.9.9.q.q.t.t.r.t.y.y.t.y.y.y.y.t.r.r.r.r.y.t.Z.Z.v.v.r.r.v.m.m.r.7.7.7.3.,.,.,.,.,.>.) ) ) ) ) ,.,.,.( ) J ) ) ,.,.,.,.,.,.,.,.( ,.,.,.,.,.,.7.,.,.7.7.r.b.b.v.v.T.T.T.T.T.E.T.G.E.E.E.T.T.T.T.T.T.G.A.D.D.A.D.A.D.x.w.8.8.w.w.w.=.=.w.w.w.w.x.D.H.H.H.G.K.K.K.G.K.K.K.H.H.H.H.G.K.E.L.H.D.K.L.E.E.E.K.K.Q.'.].E.E.E.].].].].].].].XX]._._.]._.L.L.H.C.F.H.H.C.C.C.H.H.L.L.K.L./.XXOXOX@X@X@X-X-XoXoX3XkXPXDXDXVXDXDXVXVXDXDXDXDXVXCXVXDXDXDXDXDXDXDXDXDXDXVXVXVXVXVXVXBXmXmXvXhXiXpX4X1X`.N...K s r 9 9 q z - > - - > z 3 3 9 9 & & & q & & & & * * & & & & & & & & & & & & & & & & & & & * * * & & & & & 3 3 3 3 3 & & & 3 3 3 3 3 3 3 3 3 3 3 3 3 3 3 3 3 3 3 2 2 2 2 2 4 3 3 3 3 3 3 3 3 3 3 3 3 3 3 3 3 3 3 3 2 3 2 2 2 2 3 2 3 2 2 2 2 2 $ 2 2 2 2 2 2 2 2 1 1 1 1 1 1 1 1 ",
"# # * * * * * * # # * * * & & 9 9 3 9 q r r r l K ~ [ ..M.B.`. X<XeX9X0XrXtXuXtXhXhXhXyXyXtXyXjXjXhXhXlXlXlXvXbXbXmXBXBXBXBXBXVXVXVXVXCXCXCXCXCXCXCXVXVXVXVXVXVXVXVXVXCXCXCXCXCXCXCXCXCXCXFXCXCXCXDXFXFXFXFXFXFXFXFXGXGXGXGXGXFXGXFXFXFXFXFXFXFXFXFXFXFXFXFXFXFXFXFXFXFXFXFXFXFXFXFXFXFXFXFXFXFXFXFXFXFXFXFXGXGXGXGXGXGXGXGXGXGXGXFXFXFXFXFXFXFXFXFXFXFXFXFXFXFXFXFXFXFXFXFXFXFXFXFXFXFXFXFXFXFXFXFXFXFXFXFXCXVXCXCXCXBXMXMXbXlXzXdX5X_.H.G.T.U.Z.Z.S.S.U.U.A.t.d.t.t.q.r.r.r.r.r.y.t.y.y.t.y.y.r.r.r.r.e.t.t.Z.v.v.r.r.b.v.m.v.y.7.7.7.7.,.,.,.,.,.,.( ( ) ) ,.,.( ) ) ) ( ,.,.,.,.,.,.,.,.,.,.,.,.,.,.,.7.7.7.7.7.b.b.b.v.v.A.T.T.T.T.G.T.T.G.Q.Q.E.E.T.T.T.T.S.S.A.A.A.A.A.D.D.x.w.w.w.w.w.w.w.=.=.w.x.x.D.D.H.G.G.H.G.K.K.K.K.H.H.D.H.H.G.K.K.K.G.H.D.H.L.E.E.E.E.E.Q.'.'.Q.].].].].].'.'.].].].]._._._.L.H.L.H.C.C.C.C.C.C.C.C.H.L.L.L.L.E.OXOXOXOX@X-X-X-XoXoX3XkXPXDXDXVXDXDXVXVXDXDXDXDXVXCXDXDXDXDXDXDXDXDXDXDXDXVXVXVXVXVXBXBXmXbXvXhXuXpX4X1X`.N...K s r 9 9 q z & > - - & & 3 3 9 9 & & & > & & & & & * & & * * & & & & & & & & & & & & & & * * * * & & & & & 3 3 3 3 3 & & & & 3 3 3 3 3 3 3 3 3 3 3 3 3 3 3 3 3 3 4 2 2 2 2 2 3 3 3 3 3 3 3 3 3 3 3 3 3 3 3 3 3 3 3 2 3 2 2 2 2 3 2 3 2 2 2 2 2 $ 2 2 2 2 2 2 2 2 1 1 1 1 1 1 1 1 ",
"# # # * * * * * # # * * * * & & q 9 9 q r r l h K W X.-.N.)..X<X<XeX0X0XtXuXhXuXhXhXhXyXtXtXyXjXjXhXhXlXlXlXvXbXbXmXBXBXBXBXBXVXVXVXVXCXCXCXCXCXCXCXCXVXVXVXVXVXVXVXVXCXCXCXCXCXCXCXCXCXCXFXCXCXCXDXFXFXFXFXFXFXFXFXGXGXGXGXGXFXGXFXFXFXFXFXFXFXFXFXFXFXFXFXFXFXFXFXFXFXFXFXFXFXFXFXFXFXFXFXFXFXFXFXFXFXFXFXGXGXGXGXGXGXGXGXGXGXGXFXFXFXFXFXFXFXFXFXFXFXFXFXFXFXFXFXFXFXFXFXFXFXFXFXFXFXFXFXFXFXFXFXFXFXFXFXCXVXCXCXCXBXBXMXbXlXzXjX8XOXL.K.T.U.S.U.U.S.U.U.A.q.d.d.t.r.q.9.9.9.9.9.r.t.y.y.y.y.t.t.t.t.e.r.t.Z.v.v.v.r.b.b.v.v.b.r.7.7.7.7.,.,.,.,.,.,.,.,.,.,.,.,.,.} ,.,.,.,.,.,.,.} } ,.,.,.,.,.,.,.7.b.b.7.7.b.b.b.b.v.A.b.A.T.T.T.G.G.E.E.E.E.E.K.G.G.G.G.A.A.A.S.G.A.D.D.D.x.q.w.w.w.w.w.w.&.&.=.w.x.D.D.D.G.K.H.H.K.K.K.K.H.D.D.H.G.G.G.G.D.D.H.K.K.L.E.K.Q.Q.E.E.].'.].].].].].].'.'.].].].].].].].L.H.H.C.C.C.C.C.C.C.H.H.P.H.L.L.E./.OXOXOXOX@X-X&X-X-X-X5XjXPXDXDXDXDXDXVXVXVXCXDXDXVXCXVXVXDXDXDXDXDXDXDXDXDXVXVXVXVXVXVXZXZXmXvXhXuXpX4X1X`.N...K s r 9 9 q 9 - > - - & & 3 3 9 9 & & & q & & & & & & & & * * * & & & & & & & & & & & & & * * * * & % % & & & 3 3 & & & & & & 3 3 3 3 3 3 3 3 3 3 6 6 3 3 3 3 3 3 4 4 2 2 4 3 4 4 3 3 3 3 3 3 3 3 3 3 3 3 3 3 3 3 3 2 3 2 2 2 2 3 2 3 2 2 2 2 2 $ 2 2 2 2 2 2 2 2 1 1 1 1 1 1 1 1 ",
"# # # * * * * * # # * * * * & & q q 9 r r a l K ~  ...M.B.`..X<X<X9X0XwXtXuXhXhXyXhXyXyXtXtXyXjXhXhXlXlXlXlXvXbXbXmXBXBXBXBXBXVXVXVXVXCXCXCXCXCXCXCXCXVXVXVXVXVXVXVXVXCXCXCXCXCXCXCXCXCXCXFXCXCXCXDXFXFXFXFXFXFXFXFXGXGXGXGXGXFXFXFXFXFXFXFXFXFXFXFXFXFXFXFXFXFXFXFXFXFXFXFXFXFXFXFXFXFXFXFXFXFXFXFXFXFXFXFXGXGXGXGXGXGXGXGXGXGXGXFXFXFXFXFXFXFXFXFXFXFXFXFXFXFXFXFXFXFXFXFXFXFXFXFXFXFXFXFXFXFXFXFXFXFXFXFXCXVXVXCXCXBXMXBXbXlXhXjXqX*X_.E.T.U.U.T.U.U.T.U.Z.q.9.e.r.t.t.q.e.9.1.u.9.r.t.t.t.y.y.t.y.t.e.r.t.Z.v.v.A.v.r.b.b.v.b.y.r.7.r.7.7.7.,.,.,.,.,.,.,.<.7.,.,.,.,.,.,.} } ,.,.} ( ,.,.,.,.,.,.,.6.7.b.7.b.b.v.b.v.A.A.b.b.T.E.E.G.T.E.Q.Q.E.K.G.G.S.S.S.A.A.S.G.G.G.D.D.A.c.x.0.w.w.w.w.=.+.o.#.=.w.x.C.D.G.K.H.D.G.K.K.K.K.H.H.G.G.G.G.H.x.C.K.Q.K.K.].K.E.].E.E.Q.].'.].].].].].'.].].].].oX].XX].L.H.F.C.C.C.H.J.J.H.L.H.H.H.L.L.Q.XXXXXXOXOX@X-X&X&X-X-X5XjXPXDXDXDXDXVXVXVXCXCXDXDXVXVXVXDXDXDXDXDXDXDXDXDXVXVXVXVXVXVXZXZXZXmXvXhXuXpX4X1X`.N...K l r 9 9 q 9 - > - - & & 3 3 3 & & & & > & & & * & & & & * * & & & & & & & & & & & & & & * * * $ % % % * & & 3 3 3 & & & & & 3 6 3 3 3 3 3 3 3 3 3 6 3 3 3 3 3 3 4 4 4 4 4 3 3 4 3 3 3 3 3 3 3 3 3 3 3 3 3 3 3 3 3 2 3 2 2 2 2 3 2 3 2 2 2 2 2 $ 2 2 2 2 2 2 2 2 1 1 1 1 1 1 1 1 ",
"# # % * * * * * & & & * * * * & y q y t a l B K K X.h.N.)..X X2XeX9X0XwXtXyXhXyXyXyXyXyXtXyXyXyXyXhXhXlXhXlXnXvXmXMXBXBXBXBXBXVXVXCXCXCXCXDXDXCXCXCXVXBXBXBXBXCXVXVXVXVXVXVXVXVXCXCXVXVXCXCXCXFXFXFXFXFXFXFXFXFXFXFXFXFXFXFXFXFXFXFXFXFXFXFXFXFXFXFXFXFXFXFXFXFXFXFXFXFXFXFXFXFXFXFXFXFXFXFXFXFXFXFXFXFXFXFXFXFXFXFXFXGXGXGXGXGXGXGXGXGXFXFXFXFXFXFXFXFXFXFXFXFXFXFXFXFXFXFXFXFXFXFXFXFXFXFXFXFXFXFXFXFXFXFXCXCXCXVXBXBXBXMXbXvXzXjXwX5X|.L.G.S.S.U.U.Z.Z.Z.Z.Z.t.t.t.q.q.9.q.q.9.9.9.9.e.r.r.r.t.y.y.y.y.t.t.t.b.b.t.t.b.b.b.b.v.y.y.7.7.5.5.5.5.<.<.,.,.,.,.<.<.<.<.<.<.<.<.<.} } } ,.} } ,.<.,.,.<.<.<.5.r.b.6.r.v.A.A.b.b.D.A.G.T.E.E.T.T.T.Q.E.G.T.G.S.S.A.S.S.S.S.S.A.D.D.D.D.x.q.q.w.8.&.&.$.#.$.$.&.w.C.G.H.H.H.H.H.L.L.K.K.E.K.K.G.H.H.H.D.D.E.'.E.K.L.Q.E.E.K.K.E.].oXoXoX].].].].].OX_._._._._._.H.C.C.C.C.C.C.C.H.H.L.H.P.H.L.L./.XXOXOX@X@X-X-X@XOX-XoX3XkXNXDXVXVXVXVXVXDXDXDXDXZXDXDXDXDXDXDXDXDXDXDXDXDXVXVXVXVXVXVXMXMXmXbXnXuXuXpX4X1X`.N...K l r 9 9 r q - > - - & & & & 3 & & & & > & & & & & & & & & & & & & & & & & & & & & & * * * * * & & & % % & 3 3 3 3 3 3 & 3 3 3 6 3 3 3 3 3 3 3 3 3 3 3 3 3 3 3 3 3 3 3 3 3 3 3 3 3 3 3 3 3 3 3 3 3 3 3 3 3 3 3 3 3 3 2 2 1 1 1 $ 3 3 3 2 2 2 2 2 2 2 2 2 2 2 2 2 $ 1 1 2 2 1 1 $ ",
"# # # % # * # # % * * * * * & z q q r s s l Z K ` ..N.N.)..X X2X9X0XtXtXtXyXyXyXyXyXyXyXyXyXyXyXyXhXlXlXlXlXvXbXmXmXBXBXBXBXBXVXVXCXCXCXCXFXDXCXCXCXCXVXVXBXCXCXVXVXVXVXVXVXVXVXCXCXCXCXCXCXCXFXFXFXFXGXFXFXFXFXFXFXFXFXFXFXFXFXFXFXFXFXFXFXFXFXFXFXFXFXFXFXFXFXFXFXFXFXFXFXFXFXFXFXFXFXFXFXFXFXFXFXFXFXFXFXFXFXFXFXFXFXGXGXGXGXGXGXGXGXFXFXFXFXFXFXFXFXFXFXFXFXFXFXFXFXFXFXFXFXFXFXFXFXFXFXFXFXFXFXFXFXFXFXCXCXCXVXBXBXBXBXbXbXvXkXjX3X XL.H.S.S.S.U.Y.Z.Z.f.Z.t.t.d.t.q.9.9.8.q.q.q.q.t.t.y.y.t.y.y.y.y.t.t.t.c.c.c.c.c.c.c.b.v.v.v.r.r.e.7.7.5.2.<.<.<.<.<.6.6.6.6.0.b.6.6.<.6.<.<.<.<.} } <.<.<.<.2.2.5.e.r.6.0.c.A.A.c.A.A.A.G.T.E.E.E.E.E.E.T.G.G.S.S.S.S.G.G.T.T.G.S.D.D.D.D.x.q.q.q.w.w.=.=.=.&.$.#.=.w.D.P.H.H.H.H.L.E.L.E.E.E.E.K.G.H.D.C.D.K.Q.E.K.E.].].].E.E.E.].].].].].].].].].]._._._.L.L.F.C.x.j.j.j.j.C.F.H.H.L.H.H.H.L.E.XXXXOXOX@X@X-X-X-X-XoXoX*XdXcXNXNXVXVXVXVXDXDXDXFXDXDXDXDXDXDXDXDXDXDXDXVXDXVXVXVXCXCXVXZXZXmXbXnXhXuXpX6X1X`.N...K l r 9 9 r q - > - - & & & & 3 & & & & > & & & & & & & & & & & & & & & & & & & & & & * * * * * & & & % % & 3 3 3 3 3 & & 3 3 3 6 3 3 3 3 3 3 3 3 3 3 3 3 3 3 3 3 3 3 3 3 3 3 3 3 3 3 3 3 3 3 3 3 3 3 3 3 3 3 3 3 3 3 2 2 1 1 1 1 3 3 3 3 2 2 2 2 2 2 2 2 2 2 2 2 $ 1 1 2 2 1 1 $ ",
"# # # # # # # # # # * * * * & q 3 3 r a l S K [ [ h.N.B.`..X X2X9X0XyXyXyXlXlXyXhXyXyXyXyXyXyXyXhXhXlXlXlXlXvXbXmXmXBXBXBXBXBXVXVXCXCXCXCXFXDXDXDXCXCXVXVXCXCXCXVXVXVXVXVXVXVXVXCXCXCXCXCXCXCXFXFXFXFXFXFXFXFXFXFXFXFXFXFXFXFXFXFXFXFXFXFXFXFXFXFXFXFXFXFXFXFXFXFXFXFXFXFXFXFXFXFXFXFXFXFXFXFXFXFXFXFXFXFXFXFXFXFXFXFXFXGXGXGXGXGXGXGXGXFXFXFXFXFXFXFXFXFXFXFXFXFXFXFXFXFXFXFXFXFXFXFXFXFXFXFXFXFXFXFXFXFXFXCXCXCXVXBXBXBXBXbXbXlXlXjX8X XL.H.S.A.A.I.Y.Z.Z.Z.Z.t.t.t.q.9.9.8.8.t.t.t.t.y.y.y.y.r.y.y.y.y.t.t.t.v.c.c.t.c.t.b.b.v.v.b.b.b.r.r.r.0.6.6.6.6.<.<.6.6.6.x.b.b.b.6.4.0.6.6.6.6.@.<.<.6.5.5.0.5.5.5.0.6.0.c.c.c.D.D.G.G.G.T.E.G.G.T.T.T.G.S.A.A.A.S.S.S.T.T.T.T.S.Z.D.D.D.d.q.q.q.w.w.&.=.w.w.&.$.=.x.C.D.H.L.H.L.L.].L.E.E.E.E.K.G.H.D.D.D.G.E.L.K.E.E.].].].].E.].].].].].].].].].]._._._.H.F.C.x.x.x.j.=.j.C.H.H.H.H.H.L.L.L.XXXXXXXXOX@X-X&X&X&X-XoXOX=XdXNXDXDXDXVXVXVXVXDXDXDXDXDXDXDXDXDXDXDXDXDXDXDXDXVXVXVXCXCXVXCXZXmXvXnXnXnXpX6X1X`.N...K l r 9 9 r 9 3 > - - & & & & 9 9 & & & z & & & & & & & & & & & & & & & & & & & & & & * * * * * & & & % % % 3 3 3 3 3 & & 3 3 3 3 3 3 3 3 3 3 3 3 3 3 3 3 3 3 3 3 3 2 3 3 3 3 3 3 3 3 3 3 3 3 3 3 2 2 2 2 2 2 2 2 4 3 2 2 2 2 2 2 3 3 3 3 3 3 2 2 2 2 2 2 2 2 2 2 $ 1 1 2 2 1 1 $ ",
"# # # # # # # # # # * * * * & q q q y l B K W  ...h.N.B.`. X<X2X9X0XyXhXlXlXlXyXlXlXhXyXyXyXyXyXhXhXlXlXlXlXvXbXbXmXBXBXBXBXBXBXVXCXCXCXCXFXDXDXDXDXCXVXVXVXCXCXCXCXCXCXCXCXCXCXCXCXCXCXFXFXFXFXFXFXFXFXFXFXFXFXFXFXFXFXFXFXFXFXFXFXFXFXFXFXFXFXFXFXFXFXFXFXFXFXFXFXFXFXFXFXFXFXFXFXFXFXFXFXFXFXFXFXFXFXFXFXFXFXFXFXFXFXGXGXGXGXGXGXGXGXFXFXFXFXFXFXFXFXFXFXFXFXFXFXFXFXFXFXFXFXFXFXFXFXFXFXFXFXFXFXFXFXFXFXCXCXCXVXVXBXBXBXbXbXlXlXhXqX*XL.H.H.A.A.I.U.U.Z.Z.Z.d.t.9.1.1.8.9.9.d.d.d.t.y.t.r.y.e.r.y.t.y.y.t.c.c.b.t.t.t.t.t.r.r.r.r.r.r.e.r.0.5.4.6.6.6.<.6.6.6.6.x.b.b.x.6.4.0.6.6.6.4.@.@.6.<.5.0.0.0.5.5.6.0.x.c.c.c.A.S.G.D.G.G.G.G.G.G.G.T.T.S.D.D.D.A.A.S.S.T.T.T.S.S.Z.Z.D.q.q.q.w.w.&.#.$.=.w.w.w.x.D.D.P.L.L.L.L.L.].E.E.K.K.G.G.H.H.H.D.D.G.K.K.K.L.L.E.].].E.E.].].].].].XX].].]._.L.L.L.H.F.C.C.F.F.C.C.C.C.C.H.P.H.L.L.L.OXOXXX@XXXOX@X-X&X&X&X&XoXoX*XgXPXGXDXDXVXVXVXVXVXDXDXDXDXDXDXDXDXDXDXDXDXDXVXDXVXVXVXVXCXDXDXVXmXvXnXbXnXpX6X1X`.N...K l s 9 9 r 9 3 > - - & & & & 9 9 & & & z & & & & & & & & & & & & & & & & & & & & & & * * * * * & & % % % % 3 3 3 3 3 & & 3 3 3 3 3 3 3 3 3 3 3 3 3 3 3 3 3 3 3 3 3 2 2 2 3 3 3 3 3 3 3 3 3 3 3 3 3 3 3 3 3 3 3 3 4 3 2 2 2 2 3 3 3 3 3 3 3 3 3 2 2 2 2 2 2 2 2 2 $ 1 1 2 2 1 1 $ ",
"* * * * * # # # * * * * * * & z q q a h V K W X...N.B.B..X X<X2XeX0XyXhXlXnXnXlXlXlXyXyXyXyXyXyXyXlXlXlXlXlXvXbXbXmXBXBXBXBXBXBXVXCXCXCXDXFXDXDXDXDXDXCXCXCXCXCXCXCXVXVXCXCXCXCXCXCXCXFXFXCXCXCXDXFXFXGXFXFXFXFXFXFXFXFXFXFXFXFXFXFXFXFXFXFXFXFXFXFXFXFXFXFXFXFXFXFXFXFXFXFXFXFXFXFXFXFXFXFXFXFXFXFXFXFXFXFXFXFXFXFXFXFXGXGXGXGXGXGXGXGXFXFXFXFXFXFXFXFXFXFXFXFXFXFXFXFXFXFXFXFXFXFXFXFXFXFXFXFXFXFXFXFXFXFXCXCXCXVXVXBXBXBXmXbXlXlXyXwX*X_.H.H.G.S.I.Y.U.U.Z.d.d.t.9.8.8.8.8.8.q.t.d.t.t.9.e.e.e.r.y.t.t.t.t.c.t.t.t.t.t.r.0.0.r.r.r.r.e.9.5.6.0.6.6.6.5.4.6.6.&.&.&.6.6.0.6.6.6.6.&.6.4.&.4.8.<.6.0.0.0.0.0.0.c.D.D.c.c.D.D.G.G.G.G.G.G.G.G.G.Q.T.T.A.D.c.D.D.D.A.S.S.T.S.S.Z.S.Z.C.q.8.8.&.$.#.#.$.w.C.D.D.D.D.H.L.L.L.L.L.].].E.K.H.H.G.G.G.K.G.H.G.K.G.K.K.K.K.K.K.L.L.].]._.].].].].]._.L.L._.L.H.F.C.F.F.C.H.F.C.C.C.C.H.H.L.L.OXXXXXXX@XXXOX@X-X&X&X&X&X-XoX&X8XIXDXNXmXDXDXDXVXVXVXDXDXDXDXDXDXDXDXVXVXVXDXDXDXVXVXVXVXVXDXDXVXmXvXvXbXuXpX4X1X`.N...K l a r 9 q 9 - > - - & & & & 9 9 & & & q & & & & & & & & & & & & & & & & & & & & & * * * % * * & & % $ % & & & 3 3 3 & & & 3 3 3 3 3 3 3 3 3 3 3 3 6 3 3 3 3 3 3 3 3 3 3 3 3 3 3 3 3 3 3 3 3 3 3 3 3 3 3 3 3 3 3 3 3 2 2 2 2 2 2 3 3 3 3 3 3 3 3 2 2 2 2 2 2 2 2 $ 1 1 2 2 1 1 1 ",
"* * * * * * % % * & & & & & & q q q a h K K [ X.h.N.B.)..X X2XeX9X0XyXyXlXnXnXlXlXlXhXyXyXyXyXyXyXhXlXlXlXlXvXbXbXbXBXBXBXBXBXBXVXCXCXDXDXDXDXDXDXDXDXCXCXCXCXCXCXCXCXCXCXCXCXCXVXCXCXFXFXFXCXCXDXFXFXFXFXFXFXFXFXFXFXFXFXFXFXFXFXFXFXFXFXFXFXFXFXFXFXFXFXFXFXFXFXFXFXFXFXFXFXFXFXFXFXFXFXFXFXFXFXFXFXFXFXFXFXFXFXFXFXFXGXGXGXGXGXGXGXGXFXFXFXFXFXFXFXFXFXFXFXFXFXFXFXFXFXFXFXFXFXFXFXFXFXFXFXFXFXFXFXFXFXFXCXCXCXVXVXBXBXBXmXbXnXyXtX0X2X_.H.H.G.S.I.U.U.Y.Z.t.t.t.q.q.q.9.1.#.q.t.d.t.t.9.e.e.e.r.y.y.t.t.t.t.b.t.t.t.r.0.0.0.b.b.c.c.0.0.6.6.0.6.6.6.6.4.<.6.&.&.*.*.&.=.6.w.&.&.&.6.&.&.6.w.4.6.0.x.x.x.x.x.D.D.D.D.D.D.D.D.G.G.G.G.G.G.T.T.T.T.T.S.A.b.D.D.Z.Z.A.S.S.S.S.S.S.Z.q.8.8.$.$.#.&.#.$.w.C.D.D.D.H.H.H.H.K.L.L.].XXE.K.G.G.K.K.K.K.G.G.G.G.G.K.K.G.K.K.K.K.E.].oXL.L.L.L._.L.H.H._.L.H.F.C.C.x.C.x.C.C.C.j.j.C.H.L.L.].XXXXXXXX@X@X@X@X&X&X&X&X-XXXoXoX=XgXcXNXNXDXDXDXDXDXDXDXDXDXDXDXDXDXDXVXVXVXDXDXDXVXVXVXVXVXDXCXVXMXbXvXnXuXpX4X1X`.N...K l s r 9 q 9 - > - - & & & & 9 9 & & & q & & & & & & & & & & & & & & & & & & & & & * * * % % * & & % $ % & & & 3 3 3 & & & 3 3 3 3 3 3 3 3 3 3 3 6 6 3 3 3 3 3 3 3 3 3 3 3 3 3 3 3 3 3 3 3 3 3 3 3 3 3 3 3 3 3 3 2 2 2 2 2 2 2 2 3 3 3 2 3 3 3 3 2 2 2 2 2 2 2 2 $ 1 1 2 2 1 1 $ ",
"% * * * * * * * * & & & & & q q y y a V K W  ...h.N.B.)..X<X2XeX0XwXyXhXhXlXlXhXlXlXhXyXyXyXyXyXyXhXlXlXlXlXvXbXbXmXBXBXVXBXBXBXVXCXDXCXDXFXDXDXDXDXCXCXVXVXCXCXCXCXCXCXCXCXCXCXVXVXCXFXFXCXCXCXDXFXFXFXFXFXFXFXFXFXFXFXFXFXFXFXFXFXFXFXFXFXFXFXFXFXFXFXFXFXFXFXFXFXFXFXFXFXFXFXFXFXFXFXFXFXFXFXFXFXFXFXFXFXFXFXFXFXFXFXGXGXGXGXGXGXGXGXFXFXFXFXFXFXFXFXFXFXFXFXFXFXFXFXFXFXFXFXFXFXFXFXFXFXFXFXFXFXFXFXFXFXCXCXCXVXVXBXBXBXbXbXnXuXwX0X3X|.J.K.G.G.A.I.U.I.y.e.t.9.8.8.9.9.8.#.9.q.Z.Z.t.9.e.r.9.r.y.y.t.t.t.t.v.v.t.t.t.r.0.0.0.0.c.c.0.0.8.6.6.4.4.4.4.@.} @.&.*.+.+.*.*.*.*.&.@.&.&.&.&.*.8.&.8.w.w.w.w.w.q.D.c.c.D.D.D.D.D.D.D.S.A.A.G.G.T.S.T.Q.T.A.Z.Z.A.S.S.S.S.Z.D.Z.Z.Z.D.q.w.8.&.$.$.&.&.&.w.C.C.D.D.H.D.D.H.H.L.L.E.E.L.K.K.L.E.L.K.D.H.G.G.G.G.K.K.K.K.L.L.E.].].].L.L.L.L.L.H.F.F.H.J.H.F.C.C.C.j.j.C.C.x.j.x.H.H.L.E.XXXX].].XX@X-X-X&X&X&X&X@X-X].].]._.-X3XkXNXmXVXDXGXDXDXDXDXDXVXDXDXDXDXVXVXVXDXVXCXVXVXVXVXDXVXCXVXZXbXvXnXuXpX4X1X.XB...L B s r 9 q 9 6 > - - & & & 3 9 9 3 & & q & & & & & & & & & & & & & & & & & & & & & & * * % % * & & % % % & & 3 3 3 3 3 & & 3 3 3 3 3 3 3 3 3 3 3 3 6 3 3 3 3 3 3 3 3 3 3 3 3 3 3 3 3 3 3 3 3 3 3 2 2 2 3 2 2 3 3 2 3 2 2 2 2 3 2 3 3 2 2 2 2 3 3 2 2 2 2 2 2 2 2 $ 1 1 2 2 1 1 $ ",
"# # * * * * * * % * & & & q q t t t h K R [ ..h.h.N.B.)..X<X2X9XwXyXhXhXhXhXhXhXlXlXhXyXyXyXyXyXyXhXhXlXlXlXnXvXbXmXBXBXVXBXBXBXVXCXDXCXDXFXDXDXDXDXVXCXCXVXVXCXCXCXCXCXCXCXCXCXVXVXCXCXCXCXVXVXDXFXFXFXFXFXFXFXFXFXFXFXFXFXFXFXFXFXFXFXFXFXFXFXFXFXFXFXFXFXFXFXFXFXFXFXFXFXFXFXFXFXFXFXFXFXFXFXFXFXFXFXFXFXFXFXFXFXFXFXGXGXGXGXGXGXGXGXFXFXFXFXFXFXFXFXFXFXFXFXFXFXFXFXFXFXFXFXFXFXFXFXFXFXFXFXFXFXFXFXFXFXCXCXCXVXVXBXBXBXbXbXbXuX0X0XeX X_.L.G.G.A.A.I.Z.y.9.9.<.} } #.8.9.q.9.t.Z.Z.t.r.r.y.e.r.y.y.t.r.t.t.v.v.c.c.t.t.t.0.8.0.0.q.0.0.8.8.&.@.@.@.@.} | | &.*.+.{ +.+.+.{ *.*.+.*.+.+.+.&.&.*.=.=.=.=.=.w.w.w.x.x.D.D.D.D.c.D.D.D.D.A.A.G.Z.S.Q.Q.U.A.A.S.T.S.S.S.Z.Z.Z.Z.D.q.w.w.8.8.8.8.$.$.=.w.w.q.D.H.D.D.x.C.H.L.E.E.K.G.G.K.E.E.K.H.D.D.H.H.G.K.K.K.K.L.].].].].].]._._.L.L.L.H.F.F.H.F.F.F.H.H.C.C.C.C.C.j.x.C.H.H.L.E.XXXXE.E.XX@X&X&X&X&X&X@X@X@X].XX_.F.j.F.*XwXkXmXVXDXDXVXDXDXDXDXDXDXDXDXVXVXVXVXVXCXVXVXVXVXDXVXZXZXZXmXvXhXiXpX6X4X.XB.z.L B s r 9 q 9 6 q - - & & 3 3 9 9 & & & q & & & & & & & & & & & & & & & & & & & & & & * * % % * & & & % % & & & 3 3 3 3 3 3 3 3 3 3 3 3 3 3 3 3 3 3 6 3 3 3 3 3 3 3 3 3 3 3 3 3 3 3 3 3 3 3 3 3 3 2 2 2 2 2 2 2 1 2 2 2 1 1 2 3 3 3 3 2 2 2 2 2 2 2 2 2 2 2 2 2 2 $ 1 1 2 2 1 1 $ ",
"* * * # # # # # * * & & q q q q y f j K W  ...h.N.N.B.`..X<X2X9X0XtXyXyXhXlXlXlXhXhXhXyXyXtXtXtXyXyXjXlXlXlXvXbXbXmXBXBXVXNXNXVXVXCXDXDXDXDXDXDXDXDXDXCXCXCXCXCXCXCXCXCXCXCXCXCXCXCXCXCXFXFXCXCXFXFXFXFXFXFXFXFXFXFXFXFXFXFXFXFXFXFXFXFXFXFXFXFXFXFXFXFXFXFXFXFXFXFXFXFXFXFXFXFXFXFXFXFXFXFXFXFXFXFXFXFXFXFXFXFXFXFXFXFXGXGXGXGXGXGXGXGXGXGXGXGXFXFXFXFXFXFXFXFXFXFXFXFXFXFXFXFXFXFXFXFXFXFXFXFXFXFXFXFXFXFXCXCXCXVXBXBXBXBXmXbXnXuXiXwX2X5XOXF.H.G.A.A.Z.Z.v.t.e.1.#.@.1.8.q.d.8.t.Z.Z.t.9.e.r.9.e.r.y.t.t.t.t.t.b.c.c.c.c.c.c.x.x.q.q.0.w.6.&.4.&.+.+.} +.} } *.+.{ { { { { { o.o.+.*.#.#.+.#.&.#.&.=.w.&.&.=.x.C.D.D.D.D.D.D.D.D.A.D.D.D.A.S.S.T.T.S.S.S.S.Z.Z.S.S.S.S.Z.Z.Z.q.q.q.q.8.8.8.8.$.&.&.&.=.w.D.G.D.D.C.D.H.L.L.H.H.H.D.H.G.K.H.D.D.D.H.G.K.K.K.K.K.E.].].]._.].]._.L.L.L.L.H.F.F.H.J.H.F.H.H.H.C.H.C.C.C.H.H.H.H.E.].].].XXXXXXXX$X$X$X$X$X@XoXoX'.oXL.-.' ' M. X5XkXVXDXDXNXNXDXDXVXVXDXVXDXDXDXVXVXCXCXVXVXVXVXVXDXVXZXAXmXvXhXuXpX6X4X`.B...L l a 9 9 q 9 - > > > - & & & 9 9 q > z & & & & & & & & & & & & & & & & & & & & & & & * * * * * & & & % % & 3 3 3 3 3 3 3 3 3 6 3 3 3 3 3 3 3 3 3 6 3 3 3 3 3 3 3 3 3 3 3 3 3 3 3 2 3 3 3 4 3 3 3 3 3 3 3 3 3 2 2 2 2 3 3 3 2 2 2 3 3 2 2 2 2 2 2 2 2 2 1 $ 1 1 2 2 2 2 2 2 2 2 2 ",
"* % # # # # % * # * & q q q q t y f V I [ X.-.N.N.B.`..X X<XeX9X0XtXyXyXhXlXlXlXlXhXhXyXyXyXyXyXyXyXjXlXlXlXzXbXbXmXNXBXVXVXVXVXVXCXDXDXDXDXDXDXDXDXDXDXCXCXCXCXCXCXCXCXCXCXCXCXVXCXCXCXFXFXCXCXCXFXFXFXFXFXFXFXFXFXFXFXFXFXFXFXFXFXFXFXFXFXFXFXFXFXFXFXFXFXFXFXFXFXFXFXFXFXFXFXFXFXFXFXFXFXFXFXFXFXFXFXFXFXFXFXFXFXFXFXGXGXGXGXGXGXGXGXGXGXGXGXFXFXFXFXFXFXFXFXFXFXFXFXFXFXFXFXFXFXFXFXFXFXFXFXFXFXFXFXFXFXCXCXCXVXBXBXBXBXmXbXnXlXuXtXqX4X-X_.H.H.G.A.A.A.v.t.t.9.9.9.9.9.9.t.9.t.Z.Z.t.t.r.y.e.e.r.y.t.t.t.t.t.t.t.c.c.c.b.c.x.0.0.w.w.8.6.&.&.&.*.+.+.+.} { +.{ { { { { { { / { o.+.+.{ { +.+.#.&.=.=.=.=.=.w.x.x.C.x.D.D.D.D.D.D.D.D.D.D.A.A.S.S.S.S.S.S.S.Z.S.S.S.Z.Z.D.D.q.q.q.q.q.q.8.8.&.&.&.=.w.w.D.D.D.D.C.D.K.E.L.K.D.D.D.D.G.K.G.H.D.H.H.K.K.K.K.K.H.K.L.E.].].].]._._.L.L._.L.H.J.H.J.H.H.J.H.H.F.H.C.C.C.H.D.H.K.E.E.Q.].XXXXoX@X$X&X&X&X$X@X@XoXoXoXH.o.P C [ %.`.3XkXNXDXDXDXDXVXVXVXDXVXDXDXDXVXVXCXCXVXVXVXVXVXDXVXZXAXmXvXhXuXpX6X4X.XB...L l a 9 9 q 9 - q > > > & & & 9 9 9 z > & & & & & & & & & & & & & & & & & & & & & & & * * * * * & & & % % % 3 3 3 3 3 3 3 3 3 6 6 3 3 3 3 3 3 3 3 6 6 3 3 3 3 3 3 3 3 3 3 3 3 3 3 2 3 3 3 3 3 3 3 3 3 3 3 3 3 2 2 2 3 3 3 3 2 2 2 3 3 2 2 2 2 2 2 2 2 2 1 $ 1 1 2 2 2 2 2 2 2 2 2 ",
"# # # # # * * * # * & q q t t t t k K R  ...h.N.N.B.`..X X2XeXqXwXyXyXyXjXhXzXzXlXhXhXhXjXyXyXyXyXyXjXlXlXlXzXbXbXmXNXVXNXNXVXVXVXCXCXDXDXDXDXDXDXDXDXDXCXCXCXCXCXCXCXCXCXCXCXCXVXCXCXCXFXFXCXCXCXCXCXCXFXFXFXFXFXFXFXFXFXFXFXFXFXFXFXFXFXFXFXFXFXFXFXFXFXFXFXFXFXFXFXFXFXFXFXFXFXFXFXFXFXFXFXFXFXFXFXFXFXFXFXFXFXFXFXFXGXGXGXGXGXGXGXGXGXGXGXGXFXFXFXFXFXFXFXFXFXFXFXFXFXFXFXFXFXFXFXFXFXFXFXFXFXFXFXFXFXFXCXCXCXVXCXBXBXBXbXbXnXlXuXyXqX9X5X_.F.H.D.A.A.Z.b.r.t.t.t.t.q.8.8.9.q.q.t.t.t.t.y.y.e.e.r.r.r.t.t.t.r.r.t.t.t.t.c.c.0.w.w.w.w.8.=.&.&.&.*.+.+.} | { { { { / / { / / / / { o.{ / { o.#.+.#.=.=.=.=.w.w.w.w.x.x.x.D.D.D.A.D.D.Z.D.D.D.Z.S.S.S.S.S.U.S.Z.Z.Z.Z.Z.D.C.d.q.q.8.q.q.q.8.8.=.w.w.w.w.w.x.x.D.D.C.D.K.L.K.H.C.C.D.H.G.K.G.H.H.G.G.K.K.K.K.K.H.H.K.L.].]._.L.L.L.L.L.L.L._.L.F.H.L.H.H.H.H.H.C.C.C.H.P.H.H.L.L.E.E.].XX@X$X&X&X&X&X&X&X$X@XoX].].H.o.V s Z R l.).9XkXNXDXDXGXVXVXVXVXVXDXCXCXVXVXVXCXVXVXVXVXVXDXVXZXmXbXvXhXuXpX6X4X.XB.g.L l a 9 9 q 9 3 > > > - & & & 3 9 3 z z & & & & & & & & & & & & & & & & & & & & & & & * * * * * & & & % % % 3 3 3 3 3 3 3 3 3 3 3 3 3 3 3 3 3 3 3 6 6 3 3 3 3 3 3 3 3 3 3 3 3 3 3 3 3 3 3 3 3 3 3 2 2 2 2 3 2 2 2 2 2 3 3 3 3 2 2 2 2 2 2 3 3 3 3 3 2 2 1 $ 1 1 2 2 2 2 2 2 2 2 2 ",
"# # # # % * & & * & & q q t t f a j U W  .-.h.N.N.B.`..X X<XeX9XtXyXyXyXjXhXzXzXhXhXhXjXyXyXyXyXyXyXlXlXlXlXzXvXbXmXNXVXVXVXVXVXVXCXDXDXDXDXDXDXDXDXDXDXDXCXCXCXCXCXCXCXCXCXCXCXCXCXCXCXFXFXCXCXCXCXCXCXFXFXFXFXFXFXFXFXFXFXFXFXFXFXFXFXFXFXFXFXFXFXFXFXFXFXFXFXFXFXFXFXFXFXFXFXFXFXFXFXFXFXFXFXFXFXFXFXFXFXFXFXFXFXFXFXGXGXGXGXGXGXGXGXFXFXFXFXFXFXFXFXFXFXFXFXFXFXFXFXFXFXFXFXFXFXFXFXFXFXFXFXFXFXFXFXFXFXCXCXCXVXCXBXBXBXbXnXnXuXuXiX0X9X5X|.F.H.D.G.A.b.t.0.9.9.q.q.8.@.1.8.q.q.q.q.t.y.y.y.r.e.e.e.r.r.t.t.0.r.t.t.t.t.c.c.0.w.w.w.w.w.8.&.&.&.@.*.+.} | | { { / / / / / ! ^ / o.o.o.{ o.#.#.#.&.=.=.w.w.w.=.w.w.w.x.x.D.D.D.D.D.D.D.Z.D.D.D.A.S.A.Z.S.S.S.Z.Z.Z.Z.D.D.q.q.9.8.&.&.8.8.w.8.w.w.w.w.q.x.x.x.C.x.C.D.H.H.H.D.x.D.D.H.K.K.K.H.K.K.K.K.K.K.G.K.E.L.L._.].].L.H.L.H.H.H.H.H.H.H.J.H.H.F.C.C.F.H.C.C.C.C.P.H.H.L.L.E.Q.XXXX@X$X&X$X$X&X&X$X@XoXoX].].H.o.V a B A [ j. XqXcXDXDXGXVXVXVXVXVXDXCXCXVXVXCXCXCXVXVXVXVXDXVXZXmXbXvXhXuXpX6X4X.XB.g.W B s r 9 q 9 6 > > > > & & & 3 9 3 & & & & & & & & & & & & & & & & & & & & & & & & & * * % * * & & & % % % 3 3 3 3 3 3 3 3 3 3 3 3 3 3 3 3 3 3 3 6 6 3 3 3 3 3 3 3 3 3 3 3 3 3 3 3 3 3 2 2 2 2 3 2 2 2 2 3 3 2 2 2 2 3 3 3 3 2 2 3 2 2 2 3 3 3 3 3 2 2 1 $ 1 1 2 2 2 2 2 2 2 2 2 ",
"# # # # * * & & * & & q q q t t f K I W ..-.M.N.N.B.`..X X<XeX9XwXyXhXyXjXhXlXlXhXhXjXyXyXyXyXyXjXhXlXlXlXlXzXbXmXmXNXVXVXVXVXVXVXCXDXDXDXDXDXDXDXDXDXDXDXCXCXCXCXCXCXCXCXCXCXCXCXCXCXFXCXFXCXCXCXCXCXCXCXCXCXCXFXFXFXFXFXFXFXFXFXFXFXFXFXFXFXFXFXFXFXFXFXFXFXFXFXFXFXFXFXFXFXFXFXFXFXFXFXFXFXFXFXFXFXFXFXFXFXFXFXFXFXFXGXGXGXGXGXGXGXGXGXGXGXGXFXFXFXFXFXFXFXFXFXFXFXFXFXFXFXFXFXFXFXFXFXFXFXFXFXFXFXFXFXFXCXCXCXVXCXBXBXMXbXnXlXuXiXiX0XqX4X XL.F.H.H.D.c.q.q.9.9.8.1.@.O.#.9.q.9.9.9.t.t.y.y.r.r.e.e.r.r.t.t.r.r.t.t.t.t.c.c.0.0.0.0.x.0.w.6.&.&.&.@.*.+.} { / ^ E E E ! ! E / / { o.} { +.#.&.=.=.=.w.w.w.w.w.w.w.x.x.C.D.D.D.D.D.D.D.D.D.c.D.S.S.S.Z.A.A.Z.Z.D.d.t.t.t.q.9.9.$.#.+.#.#.8.8.w.w.w.w.C.D.D.D.x.x.x.C.D.H.D.D.D.D.H.G.K.K.G.H.K.K.K.K.G.G.G.G.E.L.L._.]._.K.H.L.L.F.F.F.F.H.H.J.J.F.j.=.=.C.C.C.C.C.H.D.D.H.L.Q.Q.'.XXoXoX@X@X@X@X$X@X@XoXXXXX'.'.H.{ h 7 s S A ..B.2XjXNXDXDXDXVXVXVXVXVXVXVXVXCXCXCXCXVXVXVXVXVXVXZXmXmXvXhXuXpX9X1X.XB.h.W Z l r 9 q 9 - > > - - & & 3 9 9 3 & & & & & & & & & & & & & & & & & & & & & & & & * * * % % * & & % % % & & & 3 3 3 3 3 3 3 6 3 3 3 3 3 3 3 3 3 3 3 3 3 3 3 3 3 3 3 3 3 3 3 3 3 3 3 2 2 2 2 2 2 3 3 3 2 2 2 2 2 2 2 3 3 3 3 3 2 3 3 2 2 2 2 3 3 3 2 2 1 $ 1 1 2 2 2 2 2 2 2 2 2 ",
"# # # * * & & & & & q q q q t u k P W ' -.h.M.N.B.)..X.X X<XeX9XwXtXhXhXhXhXhXhXhXjXyXyXyXyXyXyXjXlXlXlXlXlXzXbXmXmXNXVXVXVXDXDXCXCXVXDXDXDXDXDXDXDXDXDXDXCXCXCXCXCXCXCXCXCXCXCXCXCXCXFXFXFXCXCXFXFXCXCXCXCXCXCXFXFXFXFXFXFXFXFXFXFXFXFXFXFXFXFXFXFXFXFXFXFXFXFXFXFXFXFXFXFXFXFXFXFXFXFXFXFXFXFXFXFXFXFXFXFXFXFXFXFXFXFXGXGXGXGXGXGXGXGXFXFXFXFXFXFXFXFXFXFXFXFXFXFXFXFXFXFXFXFXFXFXFXFXFXFXFXFXFXFXFXFXFXFXCXCXCXVXCXBXBXMXbXnXnXuXuXiX0X0X4X*X_.F.F.D.D.q.q.q.q.9.1.1.#.@.8.q.9.9.9.9.e.y.y.r.y.r.e.e.e.r.r.t.r.t.t.t.t.t.t.0.x.0.0.0.x.0.0.6.&.&.&.@.*.+.+.} / ^ E Y Y E E E ^ ^ / { { { } +.=.w.8.=.=.w.w.=.w.w.x.x.x.C.D.D.x.q.q.q.q.x.t.q.Z.S.S.Z.Z.A.A.Z.Z.d.q.q.q.q.9.8.9.8.#.O.O.#.8.q.w.8.w.w.D.D.D.D.D.D.C.C.D.H.H.H.H.H.H.G.G.G.G.G.K.K.K.K.G.G.G.G.K.K.K.L.L._.L.L._.L.L.H.H.H.H.H.J.H.C.=.-.=.j.C.C.C.H.H.H.H.K.E.'.XXXXoXoXoXoXXX@X@X@X@XoXoXXXXXoX'.H.{ h 7 r s Z [ h.).9XkXNXDXDXVXVXVXVXVXVXVXCXCXCXCXCXVXVXVXVXDXVXZXmXmXvXhXuXrX9X1X.XB.h.W Z l r 9 q 9 & > > > - & & 3 9 9 3 & & & & & & & & & & & & & & & & & & & & & & & & * * * % % * & & % % % & & & 3 3 3 3 3 3 3 3 3 3 3 3 3 3 3 3 3 3 3 3 3 3 3 3 3 3 3 3 3 3 3 3 3 4 3 2 3 2 2 2 2 3 3 2 2 2 2 2 2 2 2 3 3 3 3 3 3 3 3 3 3 2 2 3 3 3 2 2 1 $ 1 1 2 2 2 2 2 2 2 2 2 ",
"* * * % * * & & & & q q q t f f V I W  .-.h.N.B.B.)..X.X<X<XeX9X0XtXhXhXhXhXhXyXhXhXjXyXyXyXyXyXlXlXlXlXlXlXxXvXmXmXNXVXVXVXDXDXCXCXDXDXDXGXGXGXDXDXDXDXDXCXCXCXCXCXCXCXCXCXCXCXCXCXCXCXCXCXCXCXFXFXFXFXFXFXCXCXFXFXFXFXFXFXFXFXFXFXFXFXFXFXFXFXFXFXFXFXFXFXFXFXFXFXFXFXFXFXFXFXFXFXFXFXFXFXFXFXFXFXFXFXFXFXFXFXFXFXFXFXGXGXGXGXGXGXGXGXFXFXFXFXFXFXFXFXFXFXFXFXFXFXFXFXFXFXFXFXFXFXFXFXFXFXFXFXFXFXFXFXFXFXCXCXCXVXCXBXBXmXnXnXnXuXuXiXrX0X9X<X_.F.F.F.C.w.w.t.d.9.8.1.1.8.8.q.9.9.9.q.t.t.r.r.y.r.e.9.9.r.r.t.r.t.t.t.t.0.0.0.0.0.0.0.0.0.6.6.6.&.&.@.@.@.@.@.| / ^ E Y E E E / ! ^ / } } } +.&.8.8.&.&.8.8.&.w.w.x.x.x.x.D.D.x.q.w.w.q.D.Z.Z.D.A.S.Z.S.S.S.S.Z.d.q.q.q.q.9.8.8.8.8.#.+.#.8.q.8.w.8.w.C.D.D.D.D.D.C.D.C.D.H.G.H.G.H.H.H.H.G.G.K.K.K.G.G.G.G.G.H.H.H.L.L.K.L.L._.L.L.L.H.H.H.J.H.J.C.j.=.M.C.C.C.C.H.H.K.H.L.E.'.XXXX@X@X@XoXXX@X@X@X@X@XoXXXXX'.].H.{ B r r s C ` ..N. XdXmXDXVXVXVXVXVXVXVXVXCXCXCXCXCXCXVXVXVXDXVXBXmXmXvXhXuXrX4X1X.XB.h.W V l r r q 9 & > > - - & & 3 9 9 & & & & & & & & & & & & & & & & & & & & & & & & & & * * * % * & & % % % & & & 3 3 3 3 3 3 3 6 6 3 3 3 3 3 3 3 3 3 3 3 3 3 3 3 3 3 3 3 3 3 3 3 3 7 3 2 2 1 2 2 2 3 3 3 3 2 2 3 2 3 3 3 3 3 3 3 3 3 3 3 3 2 2 2 3 3 2 2 1 $ 1 1 2 2 2 2 2 2 2 2 2 ",
"% % % % * * & & & & q q e t f j P W '  .-.M.N.B.B.)..X.X<X<XeX9XqXtXhXhXhXhXyXtXhXhXhXjXyXyXjXjXlXlXlXlXlXlXzXbXmXmXNXVXVXVXDXDXVXCXDXDXDXFXGXGXDXDXDXDXDXCXCXCXCXCXCXCXCXCXCXCXCXCXCXCXFXCXCXCXFXFXFXFXFXFXFXFXFXFXFXFXFXFXFXFXFXFXFXFXFXFXFXFXFXFXFXFXFXFXFXFXFXFXFXFXFXFXFXFXFXFXFXFXFXFXFXFXFXFXFXFXFXFXFXFXFXFXFXFXGXGXGXGXGXFXGXFXFXFXFXFXFXFXFXFXFXFXFXFXFXFXFXFXFXFXFXFXFXFXFXFXFXFXFXFXFXFXFXFXFXFXCXCXCXVXCXBXBXbXnXnXnXuXuXiXrX0X9X<X|.J.F.C.C.w.w.D.Z.q.8.8.8.8.8.9.q.q.q.t.t.t.r.r.y.r.e.9.9.e.r.t.r.r.r.r.0.0.9.8.0.8.8.8.0.0.6.6.6.&.@.@.@.@.&.&.+.} / E E ^ ^ / / ^ ^ / } +.+.+.&.4.4.#.&.8.8.&.w.w.q.x.q.x.x.x.D.x.q.q.x.Z.S.S.c.Z.S.S.S.U.U.U.S.D.q.q.q.q.9.8.$.&.w.$.#.#.$.w.w.w.&.w.q.C.D.x.D.D.x.x.C.D.D.H.H.H.H.D.D.D.G.K.K.K.H.H.H.H.H.G.H.K.K.H.H.H.H.L.L.L.L.L.H.H.H.J.J.F.C.C.C.C.C.C.H.H.H.L.L.H.L.].Q.XXXXoX@X@X@X@X@X@X$X@X$X@XoXXXQ.E.D.{ h 3 2 4 C ` ] h.`.qXkXDXVXVXVXVXVXVXVXVXCXCXCXCXCXCXVXVXVXDXVXZXmXmXvXhXuXrX4X1X`.B.h.[ V l r r q 9 & - > - - & & 3 9 9 & & & & & & & & & & & & & & & & & & & & & & & & & & * * * % * & & & % % & & & 3 3 3 3 3 3 3 6 6 3 3 3 3 3 3 3 3 3 3 3 3 3 3 3 3 3 3 3 3 3 3 3 3 7 3 2 2 1 1 3 2 3 3 3 3 3 3 3 3 3 3 3 3 3 3 3 3 3 3 3 3 2 2 3 3 3 2 2 1 $ 1 1 2 2 2 2 2 2 2 2 2 ",
"* # # * * * * - - 6 w w y f j V K W  .%.j.M.N.B.).)..X.X<X<XeX9X9XwXyXhXlXlXlXyXhXhXhXhXyXyXyXhXyXhXhXlXlXzXvXbXmXmXNXNXNXVXVXVXVXVXCXDXDXDXFXDXDXFXCXCXDXDXDXCXCXCXCXCXCXCXCXCXCXCXCXCXCXFXFXFXCXCXFXFXCXCXFXFXFXFXFXFXFXFXFXFXFXFXFXFXFXFXFXFXFXFXFXFXFXFXFXFXFXFXFXFXFXFXFXFXFXFXFXFXFXFXFXFXFXFXFXFXFXFXFXFXFXFXFXFXFXFXFXFXFXFXFXFXFXFXFXFXFXFXFXFXFXFXFXFXFXFXFXFXFXFXFXFXFXFXFXFXFXFXFXFXFXFXFXFXFXFXFXCXCXVXBXBXBXBXbXnXnXuXuXpXpXaX9X4X X).F.F.x.w.w.D.&.8.8.8.8.8.8.8.8.9.q.t.t.t.r.0.r.e.e.r.r.r.9.5.r.0.9.9.9.9.0.q.8.0.0.x.x.0.6.&.&.&.&.&.@.+.+.*.@.| / E / / / / E ^ / { { { } &.@.@.&.6.0.w.0.x.w.w.q.x.q.q.x.x.c.t.q.q.c.D.D.D.D.S.S.A.A.U.U.S.Z.Z.D.d.q.w.w.$.#.w.q.$.o.o.$.*.w.=.=.=.=.w.x.D.D.D.x.w.w.C.C.D.P.D.C.D.D.P.P.P.H.H.P.P.H.H.H.H.H.K.K.K.H.H.L.L._.L.L.H.H.F.F.F.C.C.C.j.j.C.C.C.C.C.P.L.L.E.E.E.XXXXXXXX-X&X$X-X@X@X&X&X$X@XXXXXQ.Q.D.{ k 3 4 s S R ] g.B. XwXNXVXVXNXDXFXZXmXDXCXCXCXCXVXVXVXCXVXVXCXZXmXbXvXhXuXrX9X4X.XB.h.[ Z s r r 9 z q - - - - & 3 & 9 & 3 & z & & & & & & & & & & & & & & & & & & & & & & & & * * * * & & & % % & 3 3 3 3 3 3 & 3 3 3 6 3 3 3 3 3 3 3 3 6 3 3 3 3 3 3 3 3 3 3 3 3 3 3 3 7 4 2 2 $ 1 2 2 2 2 2 2 2 2 3 3 3 2 2 2 2 2 2 2 2 2 2 2 2 2 2 2 3 3 2 1 $ 1 2 2 1 2 2 2 1 $ 2 2 ",
"* = # * * * & - - 6 q y t f j K I W  .-.M.N.N.J.).`..X X<X<XeX9X9XwXyXyXyXlXhXyXhXhXhXyXyXyXyXyXhXhXhXlXhXkXvXbXmXMXNXBXNXVXVXVXVXVXCXDXDXDXFXFXFXFXCXCXDXDXDXCXCXCXCXCXCXCXCXCXCXCXCXCXCXCXFXFXCXCXFXFXCXCXFXFXFXFXFXFXFXFXFXFXFXFXFXFXFXFXFXFXFXFXFXFXFXFXFXFXFXFXFXFXFXFXFXFXFXFXFXFXFXFXFXFXFXFXFXFXFXFXFXFXFXFXFXFXFXFXFXFXFXFXFXFXFXFXFXFXFXFXFXFXFXFXFXFXFXFXFXFXFXFXFXFXFXFXFXFXFXFXFXFXFXFXFXFXFXFXFXCXCXVXBXBXBXBXbXnXnXuXuXiXpXaX9X4X2X.X).F.j.=.=.=.8.8.&.#.@.&.&.#.8.8.8.0.c.c.c.0.r.e.e.e.r.r.e.9.r.r.0.9.9.0.0.0.8.0.0.0.0.0.6.&.&.&.&.@.*.*.@.&.&.} { { { / ^ ^ ^ ^ { } +.} @.6.&.&.6.8.0.0.0.0.w.w.q.q.q.q.q.x.D.c.c.c.Z.Z.Z.Z.Z.S.S.Z.Z.S.S.A.Z.D.D.D.C.d.8.$.$.$.*.o.o.#.*.*.=.=.*.*.&.&.=.w.w.w.w.w.w.x.C.P.C.C.C.C.C.D.H.L.H.H.H.H.H.H.H.H.H.H.K.K.H.H.L.L.L.L.H.H.H.H.H.H.C.C.C.j.j.C.C.C.H.H.H.L.L.L.L.L.XXXXXXXX-X&X-X@X@X$X&X&X$X@XXXXXQ.Q.D.{ h 2 3 s Z R ] ..k.).2XjXVXVXVXDXFXCXmXZXCXCXCXCXCXVXCXCXVXCXVXZXmXmXvXlXuXrX9X2X.XB.h.W Z a r r 9 z q & - - - & 3 & 9 & 3 & & & & & & & & & & & & & & & & & & & & & & & & & & * * * * & & & % % & 3 3 3 3 3 & & 3 3 3 6 3 3 3 3 3 3 3 3 6 6 3 3 3 3 3 3 3 3 3 3 3 3 3 3 7 4 2 2 1 2 2 2 2 2 2 2 3 3 3 3 2 2 2 2 2 2 2 2 2 2 2 2 2 2 2 3 3 3 2 2 1 1 1 2 1 2 2 2 1 $ 2 2 ",
"# = # * & * & - 6 w y y a k j K ~ !  .-.M.N.B.).)..X.X X<X<XeX9X9XwXtXtXyXyXhXyXyXjXhXyXtXtXyXyXhXhXhXlXhXzXvXbXmXNXNXBXNXVXVXDXVXVXCXDXDXFXFXFXFXFXCXCXDXDXDXCXCXCXCXCXCXCXCXCXCXCXCXCXCXCXCXFXCXCXFXFXFXCXFXFXFXFXFXFXFXFXFXFXFXFXFXFXFXFXFXFXFXFXFXFXFXFXFXFXFXFXFXFXFXFXFXFXFXFXFXFXFXFXFXFXFXFXFXFXFXFXFXFXFXFXFXFXFXFXFXFXFXFXFXFXFXFXFXFXFXFXFXFXFXFXFXFXFXFXFXFXFXFXFXFXFXFXFXFXFXFXFXFXFXFXFXFXFXFXFXCXCXVXBXBXBXMXbXnXnXuXuXiXpXaX9X4X4X<X).j.=.=.*.+.#.#.+.O.+.@.1.1.8.1.1.9.c.A.b.t.0.e.9.9.e.r.r.e.r.r.0.0.0.0.0.0.0.6.6.6.6.6.6.&.&.&.@.+.+.+.&.=.&.+.{ } } { ^ E ^ / } @.@.@.&.6.6.6.8.8.0.0.8.8.8.0.0.q.0.0.q.q.t.t.t.c.Z.D.Z.Z.A.S.S.Z.Z.Z.A.D.D.D.C.D.D.C.w.&.&.#.o./ o.$.*.$.#.*.*.*.&.&.=.w.=.w.w.w.=.x.C.H.C.C.C.C.w.C.P.L.P.P.H.H.H.H.P.H.H.H.H.H.H.H.L.L.L.H.F.C.F.F.F.F.C.C.C.C.M.C.C.C.H.H.L.L.L.L.L.L.].].XXXX-X&X@XXX@X$X@X@X@X+XXXXXQ.E.D.{ d 2 2 s Z W ] ..g.h.`.wXNXVXVXVXDXDXZXZXCXCXCXCXCXCXCXCXVXVXZXZXmXmXvXlXuXrX9X2X.XB.h.W V s r r 9 z 9 & - - > & 3 & 3 & 3 & & & & & & & & & & & & & & & & & & & & & & & & & & * * * * & & & % % % 3 3 3 3 3 & & 3 3 3 3 3 3 3 3 3 3 3 3 6 6 3 3 3 3 3 3 3 3 3 3 3 3 3 3 4 4 2 2 2 2 2 2 3 2 3 3 3 3 3 3 3 3 2 2 2 2 3 3 2 2 2 2 2 2 3 3 3 2 3 2 1 1 1 1 1 2 2 2 1 $ 2 2 ",
"# = # * * * & q w w y t f j K U W !  .-.M.N.B.).`..X.X X<X<XeX9X0XwXtXtXyXhXlXhXhXhXhXyXtXtXyXyXhXhXhXnXlXzXvXbXmXNXNXBXNXVXVXDXVXVXCXDXDXFXFXFXFXFXCXCXDXDXDXCXCXCXCXCXCXCXCXCXCXCXCXCXCXCXCXCXCXCXFXFXCXCXFXFXFXFXFXFXFXFXFXFXFXFXFXFXFXFXFXFXFXFXFXFXFXFXFXFXFXFXFXFXFXFXFXFXFXFXFXFXFXFXFXFXFXFXFXFXFXFXFXFXFXFXFXFXFXFXFXFXFXFXFXFXFXFXFXFXFXFXFXFXFXFXFXFXFXFXFXFXFXFXFXFXFXFXFXFXFXFXFXFXFXFXFXFXFXFXFXCXCXVXVXBXBXMXbXnXnXuXuXiXpXaX9X4X4X<X`.j.=.=.*.+.#.#.+.O.} O.1.8.8.4.8.9.c.b.c.t.t.e.9.9.e.r.r.r.t.r.r.0.0.9.0.0.0.0.6.6.6.6.6.6.@.@.+.+.} } +.*.*.+.} +.+.{ / ^ / / } @.@.@.@.@.4.6.6.8.0.0.8.8.0.0.q.q.q.0.q.q.q.q.q.q.q.c.Z.D.Z.S.A.Z.Z.A.A.Z.S.D.C.D.D.d.w.#.$.#._ / o.$.$.$.o.o.*.=.=.=.w.x.=.w.w.w.w.x.C.H.C.C.C.C.w.w.C.D.C.H.P.H.H.H.P.P.H.H.K.H.H.H.H.H.L.H.F.C.x.j.j.=.=.C.C.C.C.C.C.P.H.H.L.L.L.E.L.L.].XXXX-X-X-X@XXX@X$X@X@X@X+XXXXXXXQ.D.{ d 2 4 s Z R ' ..g.h.).4XtXmXVXNXVXCXVXVXVXCXCXCXVXVXVXCXVXVXVXZXmXmXvXlXuXrX9X1X.XB.h.[ K l r r 9 z & & - - > & 3 & 3 & 3 & & & & & & & & & & & & & & & & & & & & & & & & & & * * * * & & % % % % 3 3 3 3 3 & & 3 3 3 3 3 3 3 3 3 3 3 3 6 6 3 3 3 3 3 3 3 3 3 3 3 3 3 3 4 3 2 2 2 2 2 2 3 3 3 3 3 3 3 3 3 3 2 2 2 3 3 3 2 2 2 2 2 2 3 3 3 2 3 2 2 1 1 1 1 2 2 2 1 $ 2 2 ",
"* # * & & * & > w w y a f j K U W '  .-.M.N.B.).`..X.X X X<X2XeX9XwXtXtXyXhXlXlXhXhXhXyXyXtXyXyXhXhXhXnXlXvXvXbXmXMXBXBXNXVXVXVXVXVXCXDXDXDXDXDXFXFXCXCXCXCXDXCXCXCXCXCXCXCXCXCXCXCXCXCXCXCXCXCXCXCXFXFXFXFXFXFXFXFXFXFXFXFXFXFXFXFXFXFXFXFXFXFXFXFXFXFXFXFXFXFXFXFXFXFXFXFXFXFXFXFXFXFXFXFXFXFXFXFXFXFXFXFXFXFXFXFXFXFXFXFXFXFXFXFXFXFXFXFXFXFXFXFXFXFXFXFXFXFXFXFXFXFXFXFXFXFXFXFXFXFXFXFXFXFXFXFXFXFXFXFXFXCXCXVXVXBXBXBXbXnXnXuXuXpXpXaX9X4X2X2X XF.l.=.=.*.#.=.&.+./ / +.1.8.9.t.t.0.0.0.t.t.r.9.9.r.r.e.9.r.r.r.r.0.9.0.0.b.x.6.6.6.6.6.6.@.&.&.@.+.+.} } +.} } } } | { { { { +.@.@.@.@.@.&.&.4.8.8.0.0.0.0.b.q.q.q.q.c.c.q.q.t.q.q.t.c.D.D.A.A.Z.A.S.S.S.S.D.C.d.q.w.$.#.o.o.o.o.o.o.o.o.o.o.#.*.&.=.=.w.=.w.x.C.C.C.C.D.C.C.C.C.C.C.C.x.C.C.H.H.H.H.P.P.H.H.K.H.H.F.F.H.H.H.F.C.C.j.*.%.=.M.C.C.C.C.H.H.P.H.H.L.L.L.E.OX].XXXX-X-X@X@XXX&X&X@X@X@XXXXXXX].Q.D.{ d 2 4 s C R ' ..h.h.N..X2XbXDXVXNXVXVXDXVXCXVXVXVXVXVXVXDXDXCXZXmXbXlXyXuXrX9X1X.XB.h.[ K l y r q z q & - - > & 3 & 3 & 3 & & & & & & & & & & & & & & & & & & & & & & & & & & * * * * & & % $ % & & & 3 3 3 & & & 3 3 3 3 3 3 3 3 3 3 3 3 3 3 3 3 3 3 3 3 3 3 3 3 3 3 3 3 3 3 2 2 2 2 3 3 3 3 3 3 3 3 3 3 3 2 2 2 2 3 3 2 2 2 2 3 2 3 3 2 2 3 3 2 2 1 $ $ % 3 3 $ $ % 3 ",
"* # * & & * & q q q y a f j K ~ W  . .-.M.N.B.).`..X.X X X<X2XeX9XwXtXtXyXhXhXhXhXhXhXyXyXyXyXyXhXhXhXvXzXvXbXbXmXMXBXBXNXNXVXVXVXCXCXDXDXDXDXDXFXFXCXCXCXCXDXCXCXCXCXCXCXCXCXCXCXCXCXCXCXCXCXCXCXCXFXFXFXFXFXFXFXFXFXFXFXFXFXFXFXFXFXFXFXFXFXFXFXFXFXFXFXFXFXFXFXFXFXFXFXFXFXFXFXFXFXFXFXFXFXFXFXFXFXFXFXFXFXFXFXFXFXFXFXFXFXFXFXFXFXFXFXFXFXFXFXFXFXFXFXFXFXFXFXFXFXFXFXFXFXFXFXFXFXFXFXFXFXFXFXFXFXFXFXFXFXCXCXVXVXBXBXBXbXnXnXuXuXpXpXaX4X4X1X4X2X).j.%.%.+.+.$.&.+./ / O.1.4.q.c.c.0.4.4.8.9.9.9.9.r.r.9.9.e.r.0.0.0.9.9.8.b.x.6.6.6.6.0.6.4.6.6.6.&.*.+.} +.} } } } } } +.+.+.@.4.4.&.@.@.&.4.6.8.0.0.0.0.0.0.q.x.q.c.c.b.c.Z.D.Z.t.t.D.Z.D.Z.Z.Z.Z.S.S.S.S.D.C.q.8.&.$.#.o.o.o.o.o./ o.o.*.*.*.&.=.=.=.=.=.w.x.C.C.C.C.C.=.=.w.C.D.H.C.C.C.C.D.P.H.H.P.P.H.H.K.H.H.F.C.C.C.C.C.C.C.x.j.=.j.C.C.C.C.H.H.H.H.P.H.L.L.E.XXOXXXXXXX-X@X@X@X@X&X&X@XOXXXXXXXXXQ.E.C.' d 3 7 s K R ] g.k.h.h.N.<XjXVXVXVXVXVXDXVXCXVXVXVXVXVXVXDXDXCXZXmXbXlXyXiXaX4X<X.XB.h.[ Z s y r q q q & - - > & 3 & 3 & 3 & & & & & & & & & & & & & & & & & & & & & & & & & & * * * * & & % $ % & & & 3 3 3 & & & 3 3 3 3 3 3 3 3 3 3 3 3 3 3 3 3 3 3 3 3 3 3 3 3 3 3 3 3 3 3 3 3 3 3 3 3 3 3 3 3 3 3 3 3 3 2 2 2 2 3 3 2 2 2 2 3 3 3 3 3 3 2 2 2 2 $ $ $ % 3 3 $ $ % 3 ",
"& * * & & * & q q y y a k V P ~ W  . .-.M.N.B.).).`..X.X X<X2XeXeX0XwXtXyXhXhXyXhXhXhXyXtXtXyXyXhXhXnXvXzXvXbXbXmXMXBXBXNXVXVXVXVXCXCXCXDXDXFXFXFXFXFXCXCXDXDXCXCXCXCXCXCXCXCXCXVXCXCXCXCXCXCXCXCXCXFXFXFXCXFXFXFXFXFXFXFXFXFXFXFXFXFXFXFXFXFXFXFXFXFXFXFXFXFXFXFXFXFXFXFXFXFXFXFXFXFXFXFXFXFXFXFXFXFXFXFXFXFXFXFXFXFXFXFXFXFXFXFXFXFXFXFXFXFXFXFXFXFXFXFXFXFXFXFXFXFXFXFXFXFXFXFXFXFXFXFXFXFXFXFXFXFXFXFXFXFXCXCXVXVXBXBXBXbXnXlXuXuXpXpXaX4X4X4X1X<X.XN.%.%.o.{ +.+.o./ O.&.8.4.9.t.t.0.4.@.@.<.<.1.9.0.0.9.5.9.9.9.0.0.9.9.8.x.0.8.6.8.8.8.6.4.4.4.4.@.@.+.+.} } +.+.+.} +.@.@.@.@.4.6.6.6.8.8.8.8.0.0.0.0.0.8.0.0.q.q.t.c.D.D.Z.A.D.q.q.c.D.D.Z.A.Z.Z.S.S.D.D.D.D.q.=.$.&.&.#.o.o.o.o.o.o.*.=.=.*.*.=.=.*.#.*.=.=.C.D.D.w.=.=.=.C.C.C.D.D.D.D.D.D.H.H.P.P.P.H.H.H.H.H.F.C.C.C.C.C.C.C.C.C.C.C.C.C.C.C.H.H.P.H.H.H.L.L.].OXXXXXOXOXOXXXXX@X&X&X-X@XOXXXXXXXXXL.L.C.! a 2 4 s K [ ..g.h.h.h.h.).2XkXmXVXVXVXVXCXVXCXVXVXVXVXCXVXDXCXZXmXbXlXyXiXaX4X1X`.B.h.[ V s r y q q w > - - - & 3 & 3 & 3 & & & & & & & & & & & & & & & & & & & & & & & & & & * * * * & & % % % & & 3 3 3 3 3 & & 3 3 3 3 3 3 3 3 3 3 3 3 3 3 3 3 3 3 3 3 3 3 3 3 3 3 3 2 3 3 3 3 3 3 3 2 2 2 2 3 2 3 3 3 3 3 2 2 3 3 3 2 2 2 2 3 3 2 3 2 2 2 2 3 2 1 $ $ % 3 3 $ $ % & ",
"& # * & & * & q q y y a h V K I W  . .-.M.N.B.).).`..X.X X<XeXeXeX9XwXtXtXyXyXtXyXyXyXyXtXtXtXyXhXhXnXvXzXvXbXbXmXNXBXBXNXVXVXVXVXCXCXCXDXDXFXFXFXFXFXCXCXDXDXCXCXCXCXCXCXCXCXCXVXVXCXCXCXCXCXCXCXCXFXFXFXCXFXFXFXFXFXFXFXFXFXFXFXFXFXFXFXFXFXFXFXFXFXFXFXFXFXFXFXFXFXFXFXFXFXFXFXFXFXFXFXFXFXFXFXFXFXFXFXFXFXFXFXFXFXFXFXFXFXFXFXFXFXFXFXFXFXFXFXFXFXFXFXFXFXFXFXFXFXFXFXFXFXFXFXFXFXFXFXFXFXFXFXFXFXFXFXFXFXCXCXVXVXBXBXBXbXnXnXuXuXpXpXaX4X4X9X4X4X2X`.k.g.-.%.+.+.o.#.$.8.1.1.8.0.q.0.4.@.} } O.<.1.9.0.9.5.5.5.9.9.9.9.9.8.0.0.6.6.8.6.4.&.&.&.@.@.+.+.+.+.+.+.+.&.@.+.+.@.@.+.@.&.6.6.9.0.0.0.q.q.q.0.0.0.6.8.0.0.q.t.c.D.Z.Z.Z.Z.q.0.q.c.Z.A.A.D.D.Z.Z.D.C.D.C.q.$.$.=.w.$.o.o.o.o.o.$.=.*.$.o.o.#.*.#.o.+.#.=.x.D.D.=.-.=.C.C.C.C.C.C.P.H.P.P.D.D.C.C.C.C.H.H.H.H.H.H.H.F.C.C.j.j.j.C.C.H.H.F.C.C.H.P.C.H.H.L.L.E.XXXXXX-X-X@XOXXXXX&X=X&X-X@XXXXXXXXXXXK.P.w.! a $ 4 s K [ ..g.h.k.k.k.k.`.9XkXVXVXVXVXVXCXDXDXCXCXCXDXVXVXVXZXmXbXnXhXuXaX4X1X`.B.h.[ V a r y q q q q - - > & 3 & 3 & 3 & & & & & & & & & & & & & & & & & & & & & & & & & & * * * * & & & % % & & & 3 3 3 3 3 3 3 3 3 3 3 3 3 3 3 3 3 3 3 3 3 3 3 3 3 3 3 3 3 3 3 3 3 2 3 3 3 4 3 3 3 2 2 2 2 2 2 3 3 3 3 3 3 2 3 3 3 2 2 2 2 2 2 2 2 2 2 2 2 3 2 1 $ $ % 3 3 $ $ % 3 ",
"& % * z - & & 6 q t a f j P W W '  .X.-.M.N.).).).`..X.X X<X<XeX9X9XwXyXhXhXhXhXyXhXhXyXyXyXyXyXnXvXvXnXlXvXbXbXmXMXNXBXNXNXVXVXVXVXCXDXDXDXFXFXFXFXCXCXCXCXDXCXCXCXCXCXCXCXCXCXVXVXVXCXCXCXCXCXCXCXCXFXFXFXFXCXFXFXFXFXFXFXFXFXFXFXFXFXFXFXFXFXFXFXFXFXFXFXFXFXFXFXFXFXFXFXFXFXFXFXFXFXFXFXFXGXFXFXFXFXFXFXFXFXFXFXFXFXFXFXFXFXFXFXFXFXFXFXFXFXFXFXFXFXFXFXFXFXFXFXFXFXFXFXFXFXFXFXFXFXFXFXFXFXFXFXFXFXFXFXFXCXCXVXVXBXBXBXbXnXnXnXuXpXpXaXaX4X4X1X4X4X.XN.k.j.*.%.o.+.o.$.0.9.t.9.9.q.q.4.+.+.@.8.9.1.1.9.9.9.5.5.5.5.4.5.0.0.0.6.6.6.4.@.@.@.4.@.+.} } } +.+.+.+.@.@.@.@.@.&.4.&.1.4.5.0.0.0.0.0.0.x.c.c.0.0.0.0.0.q.t.t.Z.Z.D.D.A.Z.D.q.q.t.D.Z.D.D.Z.Z.D.C.q.D.D.q.&.&.8.w.*.o.#.=.=.#.*.x.*.o.o.o.*.=.=.*.#.#.-.=.x.w.=.#.=.C.D.C.=.w.C.C.w.C.C.D.P.D.C.C.C.H.H.H.H.H.H.H.C.j.j.j.j.j.M.C.C.C.C.C.F.H.P.H.H.H.L.E.E.].XXXXOXOXOXOXXX@X@X-XXX@X@X@X@X@X/.Q.E.K.w.Q y 3 r B R [ ..g.h.h.h.g.N.N..XjXVXVXVXFXDXDXCXDXVXVXVXFXVXVXVXBXmXbXvXhXuXrX4X1X`.B.h.[ V l r r q z & & - - > & 9 3 9 & & & & > & & & & & & & & & & & & & & & & & & & & & & * * * * * & & & % % & 3 3 3 & & & & 3 3 3 q 3 3 3 3 3 3 3 3 6 6 3 3 3 3 3 3 3 3 3 3 3 3 3 3 3 3 3 3 3 3 3 3 $ 1 2 2 2 2 1 $ 3 3 3 3 2 2 2 2 3 3 2 2 2 2 2 2 3 2 2 1 $ 1 1 2 $ $ & & % % % & ",
"& % & & 6 & 3 q t t l h V K ~ W  . ...-.M.N.J.).).`..X.X.X<X<XeXeX9XwXyXyXyXyXyXyXhXhXyXyXyXyXyXhXnXvXnXzXvXbXbXmXMXNXBXNXNXVXVXVXVXCXDXDXDXFXFXFXFXCXCXCXCXDXCXCXCXCXCXCXCXCXCXVXVXVXCXCXCXCXCXCXCXCXFXFXFXFXCXFXFXFXFXFXFXFXFXFXFXFXFXFXFXFXFXFXFXFXFXFXFXFXFXFXFXFXFXFXFXFXFXFXFXFXFXFXFXFXGXFXFXFXFXFXFXFXFXFXFXFXFXFXFXFXFXFXFXFXFXFXFXFXFXFXFXFXFXFXFXFXFXFXFXFXFXFXFXFXFXFXFXFXFXFXFXFXFXFXFXFXFXFXFXFXCXCXVXVXBXBXBXbXnXnXuXiXpXpXaXaXaXaX4X4X4X1X).N.h.-.%.o.o.{ +.#.O.1.8.9.9.8.#.@.@.#.#.O.} O.1.9.1.4.4.4.1.1.1.4.6.6.6.6.4.4.&.@.@.@.@.} } } } } } { } +.@.@.@.&.4.0.0.9.0.0.0.0.0.0.0.0.x.c.b.c.0.0.q.t.c.c.c.c.D.c.Z.Z.D.c.q.q.q.D.D.S.D.D.d.q.q.C.C.D.q.=.w.w.C.=.#.o.*.=.*.*.=.=.=.&.*.=.C.C.C.C.=.#.-.*.&.$.*.=.C.C.C.C.C.H.H.C.C.C.C.C.C.C.C.H.H.H.F.H.C.C.C.C.C.j.=.=.=.=.j.j.x.C.C.C.H.H.H.H.K.L.E.E.].XXXX@X@X@X@X@X-X-X-XXX@X$XOXXXXX/.E.L.D.*.U r 3 s B ` ' ..g.h.h.h.g.h.h.B.2XkXNXVXVXVXVXVXVXDXVXVXCXVXVXVXBXmXbXvXhXuXrX4X4X`.B.h.[ V l r r q z & & - > > & 9 & 9 z & & & > & & & & & & & & & & & & & & & & & & & & & & & * * * * & & & % % & 3 3 3 & & & 3 3 3 3 6 3 3 3 3 3 3 3 3 6 6 3 3 3 3 3 3 3 3 3 3 3 3 3 3 3 3 3 3 3 3 3 3 1 1 2 2 2 2 1 1 3 3 3 3 2 2 2 3 3 3 2 3 2 2 2 2 3 2 2 1 $ 1 1 % $ $ & & % $ % & ",
"& % & 3 6 3 6 q y a f j K I W W  . .-.-.M.N.B.J.).)..X.X.X X<X2XeX9XwXtXyXyXyXyXyXhXhXyXyXyXyXyXhXhXnXvXkXvXbXbXmXMXNXBXNXVXVXDXVXVXCXDXDXFXFXFXFXFXCXCXCXCXDXCXCXCXCXCXCXCXCXCXVXVXVXCXCXCXCXCXCXCXFXFXFXFXFXCXFXFXFXFXFXFXFXFXFXFXFXFXFXFXFXFXFXFXFXFXFXFXFXFXFXFXFXFXFXFXFXFXFXFXFXFXFXFXFXFXFXFXFXFXFXFXFXFXFXFXFXFXFXFXFXFXFXFXFXFXFXFXFXFXFXFXFXFXFXFXFXFXFXFXFXFXFXFXFXFXFXFXFXFXFXFXFXFXFXFXFXFXFXFXFXCXCXVXVXBXBXBXbXnXlXuXuXpXpXaXaXaXaXaX9X4X1X.XB.h.-.%.o.o.{ o.+.( } 1.9.1.@.+.&.8.8.#.} ( O.9.9.9.4.4.4.1.1.<.1.4.4.4.<.<.<.<.@.@.@.} } } } } } } / } +.@.&.4.4.6.0.0.r.t.t.0.0.0.0.0.0.t.c.b.b.c.c.D.Z.Z.Z.c.c.c.t.c.D.Z.c.t.t.c.D.Z.D.D.D.d.q.d.D.C.C.w.=.w.x.C.=.#.o.*.*.*.*.*.=.*.*.*.=.=.C.C.C.=.o.o.o.o.o.=.=.=.w.w.C.D.P.P.C.C.C.C.C.C.D.D.P.C.C.C.C.C.j.=.C.C.M.j.j.j.j.M.j.j.C.C.C.F.H.H.H.L.L.E.E.].XXXX@X-X@X-X-X-X-X@X@X$X$XXX/./.Q.E.L.C.{ j 6 3 s C ` ] g.g.h.k.h.g.h.h.k.`.0XNXDXVXVXVXVXDXDXDXVXVXVXVXVXBXmXbXvXhXuXrX6X4X.XB.h.[ Z l r 9 q 9 & & - > > & 9 3 3 & & & & > & & & & & & & & & & & & & & & & & & & & & & & * * * * & & & % % % 3 3 3 & & & 3 3 3 3 6 3 3 3 3 3 3 3 3 3 3 3 3 3 3 3 3 3 3 3 3 3 3 3 3 3 3 3 3 3 3 3 3 1 2 2 2 2 2 2 1 3 3 3 3 2 2 3 3 3 3 3 3 3 3 3 3 3 2 2 1 $ 1 1 % $ $ & % $ $ & & ",
"& % % & 3 & 6 q y a f j K I W W  . .-.-.M.N.B.J.).)..X.X.X X<X2X9X9XwXtXyXyXhXhXyXhXhXyXyXyXyXyXhXhXlXvXzXvXbXbXmXMXNXBXNXVXVXDXVXVXCXDXDXFXFXFXFXFXCXCXCXCXDXCXCXCXCXCXCXCXCXCXVXVXVXCXCXCXCXCXCXCXCXFXFXFXFXCXFXFXFXFXFXFXFXFXFXFXFXFXFXFXFXFXFXFXFXFXFXFXFXFXFXFXFXFXFXFXFXFXFXFXFXFXFXFXFXFXFXFXFXFXFXFXFXFXFXFXFXFXFXFXFXFXFXFXFXFXFXFXFXFXFXFXFXFXFXFXFXFXFXFXFXFXFXFXFXFXFXFXFXFXFXFXFXFXFXFXFXFXFXFXFXCXCXCXVXBXBXBXbXnXnXlXuXiXpXaXaX4XaXaXaX4X4X1X.Xk.l.o.o.{ { o.&.&.( 1.8.O.} +.&.&.9.8.#.#.1.9.9.9.5.5.5.4.1.<.1.1.@.<.<.<.4.4.4.&.@.} +.+.+.+.} } } +.@.4.6.8.8.0.0.0.r.t.r.0.9.9.0.0.q.c.b.b.b.b.D.Z.S.S.A.Z.Z.c.c.D.Z.Z.Z.Z.D.D.C.C.D.D.D.D.D.D.d.d.w.=.w.w.w.=.&.o.o.o.*.*.*.*.#.o.$.#.$.=.=.=.=.o.o.*.-.o.o.=.=.=.w.C.C.D.H.C.C.C.C.C.C.C.C.C.C.C.C.C.x.=.=.*.j.j.M.M.C.F.F.C.j.j.C.C.H.F.H.H.K.L.L.E.E.].XXXXoX@X@X@X-X@X@XOX@X$X$XXX/./.Q.Q.K.=.Q f 3 r h K ` ] g.g.h.k.k.h.k.k.k.B.1XjXBXVXVXVXVXVXVXDXCXVXVXVXVXBXmXbXvXuXuXrX6X1X.XB.h.[ Z l r r q 9 & z - - > z 9 3 3 & & & & > & & & & & & & & & & & & & & & & & & & & & & & * * * & & & % % % % 3 3 3 3 3 3 3 3 3 3 3 3 3 3 3 3 3 3 3 3 6 3 3 3 3 3 3 3 3 3 3 3 3 3 3 3 3 3 3 3 3 3 3 1 2 2 3 3 2 2 1 2 3 3 3 2 2 3 3 3 3 3 3 3 3 3 3 3 2 2 1 $ 1 1 % $ $ $ % $ $ % 3 ",
"* # $ * & & 6 r y t l V K I W W  . .-.-.M.N.B.).).`..X.X X<X<XeX9X9XwXtXyXjXhXlXyXhXhXyXyXyXyXyXhXhXhXvXzXvXbXbXmXNXBXBXNXVXVXDXVXVXCXDXDXDXFXFXFXFXCXCXCXCXDXCXCXCXCXCXCXCXCXCXVXVXVXCXCXCXCXCXCXCXFXFXFXFXFXCXFXFXFXFXFXFXFXFXFXFXFXFXFXFXFXFXFXFXFXFXFXFXFXFXFXFXFXFXFXFXFXFXFXFXFXFXFXFXFXFXFXFXFXFXFXFXFXFXFXFXFXFXFXFXFXFXFXFXFXFXFXFXFXFXFXFXFXFXFXFXFXFXFXFXFXFXFXFXFXFXFXFXFXFXFXFXFXFXFXFXFXFXFXFXFXCXCXCXVXBXBXBXbXnXnXnXuXiXpXaXaX4XaXaX6X4X4X9X1XB.l.o.{ o.+.#.&.1.#.1.@.O.} +.&.+.#.#.#.@.@.@.<.1.4.5.5.4.1.<.@.@.<.4.4.6.6.6.4.4.@.@.@.@.@.@.+.+.+.@.4.6.6.6.6.6.6.9.0.r.r.r.r.t.c.c.c.b.b.b.c.c.Z.A.U.U.U.A.Z.Z.D.Z.D.D.Z.A.S.D.Z.d.q.C.H.K.D.D.w.w.=.=.w.w.=.*.o.o.o.o.o.o.o.*.*.o.o.o.*.=.=.=.$.o.o.*.=.#.&.=.=.w.C.C.P.P.C.w.C.C.C.C.C.C.C.C.C.C.F.C.=.-.%.%.%.=.j.j.C.F.F.C.C.C.C.C.H.F.H.H.K.L.L.E.].].XXXXXXOXOXOXOXXXXXXXXX@X@XXX/./.Q.Q.H.#.U y 6 y B R R ' %.g.k.k.k.h.h.h.h.k.B.2XkXBXDXDXDXVXVXDXDXVXVXVXVXBXmXbXvXhXuXpX9X1X`.B.z.[ Z l r r q 9 - > - > > & 9 & 3 & 3 & & > & & & & & & & & & & & & & & & & & & & & & & & & * * & & & % % % & & & 3 3 3 3 3 3 3 3 3 3 3 3 3 3 3 3 3 3 3 3 3 3 3 3 3 3 3 3 3 3 3 3 3 3 3 3 3 3 3 3 3 2 2 2 2 2 2 2 2 2 2 2 2 3 3 3 3 3 3 3 3 3 3 3 3 3 2 2 1 1 1 1 % $ * % $ $ $ & 3 ",
"* $ # * & & 6 y y a l V K R W W W  .-.-.M.N.B.).).`..X.X X X<XeX9X9XwXtXyXyXhXlXyXjXhXyXyXyXyXyXyXhXhXvXvXvXvXbXmXMXBXBXNXVXVXVXVXCXCXDXDXDXFXFXFXFXCXCXCXCXDXCXCXCXCXCXCXCXCXCXVXVXVXCXCXCXCXCXCXCXFXFXFXFXFXCXFXFXFXFXFXFXFXFXFXFXFXFXFXFXFXFXFXFXFXFXFXFXFXFXFXFXFXFXFXFXFXFXFXFXFXFXFXFXFXFXFXFXFXFXFXFXFXFXFXFXFXFXFXFXFXFXFXFXFXFXFXFXFXFXFXFXFXFXFXFXFXFXFXFXFXFXFXFXFXFXFXFXFXFXFXFXFXFXFXFXFXFXFXFXFXCXCXCXVXBXBXBXbXnXnXnXuXuXpXaXaX4XaX6X6X4X4XaX4X`.h.%.o.*.#.#.+.O.8.1.O.( } +.+.o.+.O.#.#.@.O.O.@.<.1.1.1.@.O.@.@.<.<.4.6.6.6.4.<.@.@.@.@.4.4.@.@.@.@.4.4.4.4.4.4.5.0.r.t.r.t.c.Z.b.Z.Z.Z.v.Z.Z.Z.Z.A.I.U.U.I.U.I.A.Z.D.Z.Z.S.S.S.S.D.q.C.D.S.D.w.d.C.C.d.C.d.=.*.#.#.o.o./ / { o.#.o.o.o.o.=.=.C.s.=.=.*.*.*.=.w.=.=.C.C.C.C.=.*.=.w.C.C.C.C.C.w.=.C.C.j.o.' ' o.*.=.M.M.C.F.F.C.C.C.C.H.H.H.H.H.L.L.E.XXXXXXXXXXXXXXXXXXXXXXXXXXXX+XOXXX/./.Q.K.d._ k y q y Z R ` ] %.g.k.k.k.k.g.g.h.h.k.`.qXbXVXDXDXVXNXVXDXVXVXVXVXBXmXbXvXhXuXpX4X1X`.B.g.` Z l r 9 q q - > > > > & 9 3 3 & & & & q & & & & & & & & & & & & & & & & & & & & & & & & & & & & & % % % & & & 3 3 3 3 3 3 3 3 3 3 3 3 3 3 3 3 3 3 3 3 3 3 3 3 3 3 3 3 3 3 3 3 3 3 3 3 3 3 3 3 3 2 2 3 2 2 3 2 2 2 2 2 2 3 3 3 3 3 3 3 3 3 3 2 3 3 2 2 1 1 1 1 % % % % $ $ $ & 3 ",
"& % % & 3 6 q y a l j K K I W W  . .-.M.M.N.B.).).)..X.X X X<X2X9X9X0XwXtXyXyXhXyXhXhXyXyXtXyXyXyXhXhXvXvXvXvXbXmXMXNXBXNXVXVXVXVXVXCXCXDXDXFXFXFXCXCXCXCXCXCXCXCXCXCXCXCXCXCXCXVXVXVXCXCXCXCXCXCXCXFXFXFXFXFXCXFXFXFXFXFXFXFXFXFXFXFXFXFXFXFXFXFXFXFXFXFXFXFXFXFXFXFXFXFXFXFXFXFXFXFXFXFXFXFXFXFXFXFXFXFXFXFXFXFXFXFXFXFXFXFXFXFXFXFXFXFXFXFXFXFXFXFXFXFXFXFXFXFXFXFXFXFXFXFXFXFXFXFXFXFXFXFXFXFXFXFXFXFXFXFXCXCXCXVXBXBXBXbXnXnXnXuXuXiXpXaXaXaX6XaX6X4X9X4X1XN.-.%.%.o.o.+.+.8.#.O.O.O.{ } { O._ O.1.4.@.@.<.<.<.1.1.<.O.@.@.@.<.4.6.6.4.@.@.4.&.&.&.4.4.4.4.@.@.&.@.@.@.4.6.0.0.t.r.0.r.v.I.c.Z.A.A.Z.Z.Z.I.Z.A.I.I.A.A.A.U.S.Z.D.D.A.A.S.S.D.Z.C.d.d.C.C.C.C.C.C.d.w.w.=.=.*.*.+.{ / { { { o.o.#.o.o.o.-.=.s.s.=.#.#.*.=.=.=.=.w.=.=.=.=.#.=.=.w.C.C.C.C.C.=.=.=.o.' ! ! o.=.C.C.j.C.F.F.C.C.C.C.C.H.H.K.L.L.E.].XXXXXXXXXX@XXXXX/.Q./.XXXXXXXXXX/./.Q.G.D.$.~ f q r a C W ' ] g.g.k.k.k.k.h.h.h.h.k.N.<XwXvXVXDXVXNXVXVXVXVXDXVXBXMXbXvXhXiXpX4X1X`.N.z.L B s r 9 q q 6 > - - > z 9 3 9 9 & & & q & & & & & & & & & & & & & & & & & & & & & & & & & & & & & % % % & & & 3 3 3 3 3 3 3 3 3 3 3 3 3 3 3 3 3 6 6 3 3 3 3 3 3 3 3 3 3 3 3 3 3 3 3 3 3 3 3 3 3 2 2 3 2 2 3 2 2 3 3 2 2 3 3 2 2 3 3 3 3 2 2 2 2 3 2 2 1 1 1 1 % % * $ $ $ $ & 3 ",
"9 & & & 9 q y y f k V K K I ~ W ;. .-.M.M.N.B.).).).`..X.X X<X<XeX9X0X0XwXtXyXyXyXhXhXyXyXtXyXyXyXhXhXvXvXvXvXbXmXNXBXBXNXVXVXVXVXVXCXCXDXDXDXFXFXCXCXCXCXCXCXDXCXCXCXCXCXCXCXCXVXVXCXCXCXCXFXCXCXCXFXFXFXFXFXCXFXFXFXFXFXFXFXFXFXFXFXFXFXFXFXFXFXFXFXFXFXFXFXFXFXFXFXFXFXFXFXFXFXFXFXFXFXFXFXFXFXFXFXFXFXFXFXFXFXFXFXFXFXFXFXFXFXFXFXFXFXFXFXFXFXFXFXFXFXFXFXFXFXFXFXFXFXFXFXFXFXFXFXFXFXFXFXFXFXFXFXFXFXFXFXCXCXCXVXBXBXBXbXbXlXlXuXuXuXpXpXaXaXaX6X9X4X4X4X1X).l.%.o.o.o.&.8.8.O.O.O.O./ / { +./ ( #.8.1.@.@.1.1.4.4.1.@.@.@.@.@.4.4.4.@.@.@.4.4.&.&.4.4.4.4.&.4.4.@.@.4.8.0.0.0.r.0.9.0.c.A.t.c.A.Z.Z.Z.I.T.I.I.I.Z.Z.Z.A.I.S.Z.D.Z.A.A.A.Z.x.D.D.q.w.w.C.H.D.D.C.=.=.=.=.=.=.*.o.{ { o.o.{ o.=.C.w.*.o.o.o.-.=.=.*.o.=.=.*.C.C.C.C.=.w.w.w.=.=.w.C.C.C.C.C.C.=.%.o.' o.%.=.=.j.j.=.=.C.H.C.C.C.C.C.H.H.L.L.L.].XXXXXXXXXXoX@XOXXX/.E./.XXXXOXXX/././.Q.D.8._ P e r y s C [ ] %.h.k.k.k.k.h.k.g.g.k.k.k.).2XjXmXDXVXNXVXVXVXVXDXVXBXmXbXvXhXiXaX4X1X`.N...L B s r 9 q q 6 > - - > & 9 3 9 9 & & & > & & & * & & & & & & & & & & & & & & & & z & & & & & & 3 & & % % & & & 3 3 3 3 3 3 3 3 3 3 3 3 3 3 3 3 3 3 6 3 3 3 3 3 3 3 3 3 3 3 3 3 3 3 3 3 3 3 3 3 3 2 2 3 2 2 3 2 2 3 3 3 3 2 2 2 2 3 3 2 2 2 2 2 2 3 2 2 1 $ 1 1 % & * $ $ $ $ & 3 ",
"* * & & q q y t a f V K P ~ W W  . .-.s.N.N.J.).).`.`..X.X X<XeX9X0X0XrXtXtXyXyXyXyXyXyXtXtXyXyXyXhXhXhXzXvXbXbXmXMXNXBXNXNXVXVXVXCXCXDXDXDXFXFXDXDXFXFXFXFXFXFXDXCXDXCXDXCXDXCXCXVXCXCXDXFXFXFXFXFXFXFXFXFXFXFXFXFXFXFXFXFXFXFXFXFXFXFXFXFXFXFXFXFXFXFXFXFXFXFXFXFXFXFXFXFXFXFXFXFXFXFXFXFXFXFXFXFXFXFXFXFXFXFXFXFXFXFXFXFXFXFXFXFXFXFXFXFXFXFXFXFXFXFXFXFXFXFXFXFXFXFXFXFXFXFXFXFXFXFXFXFXFXFXFXFXFXFXFXFXCXCXCXCXVXBXBXmXbXbXnXnXuXuXpXpXaXaXaX6XaXaX9X9X4X4X.XJ.-.! ! #.8.8.$.#.o.{ ( ( ( ( / / / #.&.#.+.@.@.@.@.1.@.&.6.&.@.@.@.@.} +.@.4.6.@.@.@.@.4.6.8.4.+.} @.4.4.9.q.0.0.q.q.9.8.9.q.t.t.Z.S.S.Z.A.U.U.T.U.A.A.U.A.b.D.A.A.D.A.Q.T.D.q.D.D.w.=.w.H.K.D.D.C.=.=.C.C.=.w.#.o.#.o.o.o.$.*.*.=.=.$.*.o.! =.=.$.*.o.o.o.o.#.=.C.C.C.w.=.=.w.=.w.w.C.C.C.w.j.-.o.' ! ! o.-.=.=.=.=.j.C.C.C.=.w.C.P.H.L.L.E.E.Q.XXXXXXXXXXXXOXOXXX/././.XXXXQ.XXXXE.K.K.C.$.! c y 6 y h K ` ] g.g.h.k.k.k.h.g.z.k.k.g.g.N.`.2XkXDXVXNXCXDXVXDXDXCXZXmXmXvXhXiXpX4X1X`.N...L B l r r q z z q - > q q q 3 & % 3 & q q z & & & & & & & & & & & & & & & & & & & & & & & & & & & & & & & & & & & & & & & & & & 3 3 3 3 3 3 3 4 4 4 4 3 3 3 3 3 3 3 3 3 3 3 3 3 3 3 3 3 3 3 3 3 3 2 3 3 3 3 3 2 2 2 2 3 3 3 3 2 2 3 2 2 2 2 2 2 2 3 2 2 1 $ 1 1 % % $ $ & % $ % 3 ",
"# # * & z q y y a h K K U I W W  . .-.s.M.N.B.).).`.`..X.X.X<X2X9X9X0XtXtXtXyXyXyXyXyXyXtXtXyXyXhXhXnXnXzXvXbXbXmXMXNXBXNXNXVXVXVXCXCXDXDXDXFXDXFXFXFXFXDXDXDXDXDXDXDXDXDXDXDXDXCXCXDXDXDXDXFXFXCXFXFXFXFXFXFXFXFXFXFXFXFXFXFXFXFXFXFXFXFXFXFXFXFXFXFXFXFXFXFXFXFXFXFXFXFXFXFXFXFXFXFXFXFXFXFXFXFXFXFXFXFXFXFXFXFXFXFXFXFXFXFXFXFXFXFXFXFXFXFXFXFXFXFXFXFXFXFXFXFXFXFXFXFXFXFXFXFXFXFXFXFXFXFXFXFXFXFXFXFXFXCXCXCXCXVXBXBXmXbXbXnXnXuXuXpXpXaXaXaXaXaXaX9X9X9X4X1X).j.{ / / ( +.+._ / o.o.O.( ( ^ / +.$.8.&.4.9.8.#.@.6.4.4.@.{ } +.@.@.@.@.@.&.4.@.@.+.+.@.#.@.@.} } @.6.0.0.c.0.0.0.q.q.0.0.t.Z.t.t.Z.c.t.t.D.A.U.U.A.A.Z.b.t.A.T.T.A.A.G.T.G.D.D.D.w.w.C.H.K.P.C.w.=.=.w.=.*.#.o.o.=.*.#.#.o.*.*.$.-.$.=.$.o.o.o.o.o.! o.*.=.*.$.=.C.C.C.C.=.w.w.w.x.C.w.w.=.%.o.' ! ' o.o.-.j.C.C.j.C.F.C.M.x.C.H.H.L.L.L.L.E.Q.].XXXXXXoXXX@XOXXX/././.XXXXQ.XX/.E.K.S.8.o.U d 7 q s Z R [ ..g.h.k.k.k.k.z.k.k.k.k.g.g.k.k.`.4XvXNXNXVXDXCXDXDXCXBXmXbXvXhXiXpX4X1X`.N...L B l r r q z & q - - q q q 3 & % 3 > > q z & & & & & & & & & & & & & & & & & & & & & & & & & & & & & & & & & & & & & & & & & 3 3 3 3 3 3 4 4 4 3 4 4 3 3 3 3 3 3 3 3 3 3 3 3 3 3 3 3 3 3 3 3 3 3 2 3 3 3 3 2 2 2 2 2 3 3 3 3 2 2 2 2 2 2 2 2 2 2 3 2 2 1 $ 1 1 % % $ $ % % $ % 3 ",
"# # * & z q t t h j K P I ~ Q !  . .-.M.M.N.B.B.).).`..X.X.X<X<X9X9X0XtXtXtXyXyXyXyXyXyXtXtXyXyXhXhXnXvXzXvXvXbXmXMXNXBXNXVXVXDXVXCXCXDXDXDXDXDXDXDXFXFXFXFXFXFXDXDXFXFXFXFXDXDXFXDXFXDXDXDXDXFXCXCXFXFXFXFXFXFXFXFXFXFXFXFXFXFXGXFXFXFXFXFXFXFXFXFXFXFXFXFXFXFXFXFXFXFXFXFXFXFXFXFXFXFXFXFXFXFXFXFXFXFXFXFXFXFXFXFXFXFXFXFXFXFXFXFXFXFXFXFXFXFXFXFXFXFXFXFXFXFXFXFXFXFXFXFXFXFXFXFXFXFXFXFXFXFXFXFXFXFXFXFXCXCXCXCXVXVXBXMXbXbXnXnXuXuXpXpXaXaXaX4XaXaX9XaX9X9X2X`.F.*./ T T / / / / o.+.O.( / ^ / o.#.#.+.@.8.@.+.@.6.8.8.@./ { } @.&.&.@.@.@.&.@.@.+.} } +.@.@.@.@.4.0.0.0.t.0.0.9.q.t.t.t.c.c.t.t.t.q.9.0.t.Z.S.T.A.A.D.b.c.A.G.T.A.x.c.S.G.G.H.D.C.C.D.H.K.L.D.w.w.C.w.=.$.o.o.$.=.*.*.*.*.*.o.o.$.-.=.=.$.o.o.o.! Q ! o.=.=.=.=.=.C.C.C.=.C.w.w.C.w.w.=.*.%.o.o.%.=.=.=.=.j.C.C.C.C.C.C.j.C.D.H.H.L.L.L.L.E.Q.].XXXXXXoXoXOXXXXXXX/./.XXXXXXXXQ.K.S.C.o.T g w ; y Z R ` [ ..g.k.k.k.k.k.z.k.k.h.k.k.h.z.z.N..XwXbXVXDXDXDXVXDXVXBXmXbXvXhXiXpX4X1X`.N...L B l r r q z z q - - > > q & & % 3 & > > z & & & & & & & & & & & & & & & & & & & & & & & & & & & 3 & 3 3 3 3 3 3 3 3 & & & & & & 3 3 4 3 4 4 3 3 4 4 3 3 3 3 3 3 3 3 3 3 3 3 3 3 3 3 3 3 3 3 3 3 2 3 3 3 3 2 2 2 2 2 2 2 3 3 3 2 3 3 2 2 2 2 3 3 3 2 2 1 $ 1 1 % % $ $ & % $ % 3 ",
"* & z q q y t f j K P I ~ W W !  . .-.h.M.N.N.B.).)..X.X X X<X<X9X9X0XrXtXtXyXyXyXyXyXyXtXtXyXyXhXnXvXvXvXvXvXbXmXMXNXBXNXVXVXDXVXCXCXDXDXDXDXDXFXFXFXFXFXFXFXFXDXDXFXFXFXFXDXDXFXFXFXFXFXFXFXFXCXCXFXFXFXFXFXFXFXFXFXFXFXFXFXFXGXGXGXFXFXFXFXFXFXFXFXFXFXFXFXFXFXFXFXFXFXFXFXFXFXFXFXFXFXFXFXFXFXFXFXFXFXFXFXFXFXFXFXFXFXFXFXFXFXFXFXFXFXFXFXFXFXFXFXFXFXFXFXFXFXFXFXFXFXFXFXFXFXFXFXFXFXFXFXFXFXFXFXFXFXFXCXCXCXCXVXVXBXBXmXbXnXnXuXuXpXpXaXaX6X4X4XaX9XaXaX9X2X|.F.x.#.T T / / / o.o.o./ ^ ^ / / O.+.O.( } +.{ / +.4.4.&.+./ / { } @.@.@.@.@.4.4.4.@.@.+.@.@.4.4.4.8.0.0.8.8.0.8.8.0.t.t.t.t.q.q.t.t.t.q.q.c.t.Z.U.A.D.b.b.c.D.G.G.c.q.c.G.K.K.G.D.D.H.K.K.K.L.C.=.w.C.=.*.#.=.#.$.*.#.-.=.-.*.*.o.*.*.o.*.-.-.-.o.o.! ! o.o.=.=.=.=.C.C.=.=.=.=.w.w.w.=.=.*.=.*.*.=.C.C.C.j.j.C.C.C.C.C.C.C.H.P.H.L.L.L.L.E.Q.].XXXX'.XXXXXXXXOXXXXX/./.XXXXQ.Q.E.S.D.$.! x d 7 6 a C R ` [ ] g.h.h.k.k.k.z.k.z.h.k.k.k.h.g.k.B.<XtXmXVXVXVXVXVXVXBXMXbXvXhXiXpX4X1X`.N...L B l r r q z & q - - > > 3 & & & & & > z & & & & & & & & & & & & & & & & & & & & & & & & & & & & 3 3 3 3 3 3 3 3 3 3 & & & & & & 3 3 4 4 4 4 3 4 4 4 3 3 3 3 3 3 3 3 3 3 3 3 3 3 3 3 3 3 3 3 3 3 2 3 3 3 3 2 2 2 2 2 2 3 3 3 3 3 3 3 2 2 2 3 3 3 2 2 2 1 1 1 1 % % $ $ & % $ % 3 ",
"z z q q e t l l V K P I ~ ~ W '  . .-.-.M.N.N.B.).`..X.X.X<X<X<XeX9X0XtXtXyXyXyXyXyXyXyXtXtXyXyXhXnXvXvXvXvXvXbXmXNXBXBXNXVXVXDXVXCXCXDXDXFXDXDXFXFXFXFXFXFXFXFXFXFXFXFXFXFXFXFXFXFXFXFXFXFXFXFXCXCXFXFXFXFXFXFXFXFXFXFXFXFXFXFXFXFXFXFXFXFXFXFXFXFXFXFXFXFXFXFXFXFXFXFXFXFXFXFXFXFXFXFXFXFXFXFXFXFXFXFXFXFXFXFXFXFXFXFXFXFXFXFXFXFXFXFXFXFXFXFXFXFXFXFXFXFXFXFXFXFXFXFXFXFXFXFXFXFXFXFXFXFXFXFXFXFXFXFXFXFXCXCXCXCXVXVXBXBXbXbXnXnXuXuXpXpXaXaX4X4X4X4X9XaXaX9X2X|.J.H.=./ T / / / o.o./ Y ^ / ( o.O.O.O.O.o.{ } +.&.4.@.} } / / { | } +.@.@.@.&.4.4.&.#.#.&.6.4.6.6.6.6.6.6.6.0.5.5.0.t.0.9.9.9.q.t.c.t.q.q.q.8.c.D.b.c.c.b.D.G.D.D.x.D.D.K.L.H.D.D.P.L.L.L.L.H.=.*.=.=.*.*.$.=.-.*.*.#.*.=.*.$.*.$.-.o.o.o.-.-.*.o.o.o.o.o.o.=.=.=.=.=.=.=.=.=.=.=.=.=.=.=.=.=.=.=.=.=.=.=.C.j.C.C.C.C.j.C.C.C.H.H.H.L.L.E.Q.XXXXXXXX'.'.XXXXXXXXXXXX/./././.Q.E.G.D.q.#.Y g u w 7 a C R ` ' ] g.h.h.k.k.k.k.k.k.k.k.k.k.k.k.k.k.N.<XtXbXMXNXVXVXVXBXMXmXnXuXiX9X4X1X`.N...K B l r r q z - q - - > & 3 3 3 & & & & & & & & & & & & & & & & & & & & & & & & & & & & & & & & & 3 3 3 3 3 3 3 3 3 3 & & & 3 & 3 3 4 4 4 3 3 3 3 4 4 3 3 3 3 3 3 3 3 3 3 3 3 3 3 3 3 3 3 3 3 3 3 2 3 3 3 3 2 2 2 3 3 3 3 2 2 2 3 3 3 2 2 2 2 3 3 3 2 2 1 1 1 1 2 % $ $ & * $ % 3 ",
"& z q q e t a f K P I I ~ W W  . . .-.-.M.N.B.).).`..X.X.X<X<X<X4X9X0XtXtXyXyXyXyXyXyXyXtXtXyXyXhXhXvXvXzXvXvXbXmXNXBXBXNXVXVXVXVXCXCXDXDXFXDXDXFXFXFXFXFXFXFXFXFXFXFXFXFXFXFXFXFXFXFXFXFXFXFXFXCXCXFXFXFXFXFXFXFXFXFXFXFXFXFXFXFXFXFXFXFXFXFXFXFXFXFXFXFXFXFXFXFXFXFXFXFXFXFXFXFXFXFXFXFXFXFXFXFXFXFXFXFXFXFXFXFXFXFXFXFXFXFXFXFXFXFXFXFXFXFXFXFXFXFXFXFXFXFXFXFXFXFXFXFXFXFXFXFXFXFXFXFXFXFXFXFXFXFXFXFXFXCXCXCXCXCXVXBXBXmXbXnXnXuXuXpXpXaXaXaX4X4X4X9XaX9X9X4X XJ.F.w./ Y Y Y / { { / Y ^ ( / / / / / O.{ / } +.4.8.@.+.@.+.| { { } +.@.#.#.@.@.#.#.@.@.4.4.@.6.6.6.6.6.0.6.9.4.6.0.0.9.5.8.0.q.t.q.0.9.8.4.q.D.A.D.b.D.A.A.D.w.=.=.w.C.D.P.D.C.C.P.L.P.H.H.D.C.=.=.=.=.*.*.o.o.#.*.#.=.=.#.o.o.-.=.-.o.o.=.*.o.o.o.*.*.o.o.o.o.*.-.-.-.=.=.#.-.$.*.=.=.=.=.=.=.=.=.=.=.j.C.C.C.C.C.C.C.C.H.C.D.P.H.L.L.E.XXXXXXXXXX'.].'.XXXXXXXX/././.Q.Q.Q.G.D.d.$./ P d y 7 7 h G R [ ..g.g.k.k.k.k.k.k.k.k.k.k.k.g.z.k.h.h.k.`.4XjXNXVXBXVXVXVXNXMXnXuXiXaX4X1X`.N...K B l r r q z - q - - & & & & 3 & & & & & & & & * & & & & & & & & & & & & & & & & & & & & & & & & 3 3 3 3 3 3 3 3 & & & & 3 3 & 3 3 4 4 4 3 3 3 3 4 4 3 3 3 3 3 3 3 3 3 3 3 3 3 3 3 3 3 3 3 3 3 3 2 3 3 3 3 2 2 2 3 3 3 3 3 2 2 3 3 3 2 2 2 2 3 3 3 2 2 1 1 1 1 % % $ $ & * $ % 3 ",
"& z q e t a k j P U I ~ ~ W W  . . .-.-.M.N.B.).).`.`..X.X.X<X<X4X9X0XtXtXyXyXyXyXyXyXyXtXtXyXyXhXhXhXnXzXvXbXbXmXNXNXBXNXVXVXVXVXCXCXDXDXFXDXDXFXFXFXFXFXFXFXFXFXFXFXFXFXFXFXFXDXDXDXFXFXFXFXFXCXCXFXFXFXFXFXFXFXFXFXFXFXFXFXFXFXFXFXFXFXFXFXFXFXFXFXFXFXFXFXFXFXFXFXFXFXFXFXFXFXFXFXFXFXFXFXFXFXFXFXFXFXFXFXFXFXFXFXFXFXFXFXFXFXFXFXFXFXFXFXFXFXFXFXFXFXFXFXFXFXFXFXFXFXFXFXFXFXFXFXFXFXFXFXFXFXFXFXFXFXFXCXCXCXCXCXVXBXBXmXbXnXnXuXuXpXpXaXaXaXaX4X4X9XaXaX9X9X XL.H.D.#.^ Y Y Y ! / / / / ( / / / / ^ / / / { } &.8.4.4.4.@.} } | } @.&.&.@.+.+.+.+.@.#.#.@.@.6.6.4.<.6.6.4.4.4.5.0.0.9.9.9.0.q.q.8.4.8.0.8.D.D.A.D.D.A.S.H.x.=.+.*.=.w.x.C.x.j.C.H.H.C.C.C.P.C.C.=.-.*.=.$.o.o.o.o.o.*.-.o.o.o.o.$.-.o.o.*.o.o.o.o.o.o.o. .o.o.o.*.=.=.=.-.*.*.*.#.*.=.=.=.j.=.=.=.=.j.C.C.C.C.C.P.C.C.C.H.D.P.H.H.L.L.E.XX].XX'.].].'.XXXXXXXXXX/./.Q.Q.Q.U.Z.d.$./ U g u 7 7 a V R R ] g.g.h.k.k.k.k.k.k.k.k.k.k.k.z.z.z.h.h.k.N..X9XkXNXBXVXVXVXMXMXnXuXiX9X4X1X`.N...K B l r r r 9 - q - - & & & & 9 9 & & & & & & & * & & & & & & & & & & & & & & & & * * * * * * * * & & & & & & 3 & & & & & 3 3 & 3 3 4 4 4 4 4 4 3 4 4 3 3 3 3 3 3 3 3 3 3 3 3 3 3 3 3 3 3 3 3 3 3 2 3 3 3 3 2 2 2 3 3 3 2 2 2 3 3 3 3 3 2 2 3 3 3 3 2 2 1 $ 1 1 % % $ $ & * $ % 3 ",
"& z q t a k K U P U I ~ ~ W W !  . .-.-.M.N.B.).).).`.`..X.X<X<X4XeX0XtXtXyXyXyXyXyXyXyXtXtXyXyXyXhXhXhXlXvXbXbXmXNXNXBXNXVXVXVXVXCXCXDXFXFXDXDXDXDXFXFXFXFXFXFXFXFXFXFXFXFXFXFXCXDXDXDXFXFXFXFXCXCXFXFXFXFXFXFXFXFXFXFXFXFXFXFXFXFXFXFXFXFXFXFXFXFXFXFXFXFXFXFXFXFXFXFXFXFXFXFXFXFXFXFXFXFXFXFXFXFXFXFXFXFXFXFXFXFXFXFXFXFXFXFXFXFXFXFXFXFXFXFXFXFXFXFXFXFXFXFXFXFXFXFXFXFXFXFXFXFXFXFXFXFXFXFXFXFXFXFXFXFXCXCXCXCXCXVXBXBXmXbXnXnXuXuXpXpXaXaXaXaXaX4X9XaXaX9XqX*X_.H.H.q.( T Y Y E / ( ( / / / #.+./ ^ / / / +.} &.8.8.4.@.| +.} } +.&.&.&.@.@.+.+.+.@.@.@.+.4.0.0.<.@.@.<.@.@.4.5.0.0.9.0.q.0.q.0.1.&.9.c.D.D.D.x.w.0.x.c.x.C.w.=.=.=.=.x.C.=.=.j.C.C.M.=.j.C.C.=.*.o.o.*.o.*.o.o.! Q o.o.o.*.! ! o.o.o.o.o.o.o.o.o.o.o.o.o.$.o.o.*.=.=.=.o.-.*.o.*.#.$.=.=.C.=.=.=.j.j.j.=.C.C.C.H.H.C.C.C.P.H.H.L.L.L.E.XXE.Q.Q.].].XX@X@XXXXXXX/.Q.Q.K.U.S.d.8.o.E g e w 7 y h U R R ' g.g.h.k.h.z.h.h.g.k.z.k.k.k.k.k.k.z.g.k.k.N..X9XjXNXVXVXVXMXMXnXuXiX9X4X1X`.N...K B l r r r 9 6 q - - & & & & 3 z & & & & & & * * & & & & & & & & & & & & & & & & * * * * * * * * & & & & & & & & & & & & 3 3 & 3 3 4 4 4 4 4 4 3 4 4 3 3 3 3 3 3 3 3 3 3 3 3 3 3 3 3 3 3 3 3 3 3 2 3 3 3 3 3 2 3 3 3 3 2 2 2 3 3 3 3 3 3 2 3 3 3 3 2 2 1 $ 1 1 % % $ $ & % $ % 3 ",
"& 9 q t u k :.K P U U I R W W  . . .-.h.M.N.J.).).).`.`..X.X<X<X4X9X0XtXyXyXyXtXyXyXyXyXyXyXyXyXhXhXhXhXlXzXvXbXMXNXBXBXNXVXVXVXVXCXDXCXDXFXFXDXDXDXFXFXDXDXFXFXDXDXFXFXFXFXFXFXFXFXFXFXFXFXDXFXCXFXFXFXFXFXFXFXFXFXFXFXGXGXGXFXFXFXFXFXFXFXFXFXFXFXFXFXFXFXFXFXFXFXFXFXFXFXFXFXFXFXFXFXFXFXFXFXFXFXFXFXFXFXFXFXFXFXFXFXFXFXFXFXFXFXFXFXFXFXFXFXFXFXFXFXFXFXFXFXFXFXFXFXFXFXFXFXFXFXFXFXFXFXFXFXFXFXFXFXFXFXCXCXCXCXCXCXVXBXmXvXnXnXuXuXpXpXpXaXaXaXaXaX9X9XaXaX4X5X_.F.H.S.8.^ Y Y E Y Y ^ ( / T { o./ / { +.+.{ +.&.&.8.8.&.} } +.@.@.&.0.6.@.+.@.#.@.+.+.&.8.b.8.4.6.6.4.&.4.4.6.8.8.8.0.q.c.9.8.8.9.x.D.x.w.c.x.x.D.w.=.w.D.C.=.*.*.*.=.=.=.=.=.=.C.P.C.=.-.C.C.C.$.o.o.o.*.o./ o.o.Q Q ! o.o. .! Q o.$.*.o.! o.o.o.o.o.o.*.o.o.*.$.=.-.*.o.o.*.#.o.o.#.=.=.=.=.=.=.=.=.=.j.C.C.C.C.C.C.C.C.P.H.H.L.L.L.E.XXQ.Q.].Q.].'.'.XXXX/././.Q.E.S.S.d.q.#.^ U g t 7 7 y k R ` [ ] g.g.g.k.k.h.g.g.h.k.k.k.k.k.k.z.z.z.g.h.h.k.N..XjXvXBXBXMXMXMXbXiXuXpX4X1X`.N...K l s r r q z & > - - & & & 3 9 9 & & & & & & & & & & & & & & & & & & & & & & & & & & & & & * * * & & & & % % & & & & 3 3 3 & & & 3 3 4 4 4 4 4 4 4 4 3 3 3 3 3 3 3 3 3 3 3 3 3 3 3 3 3 2 3 3 4 4 2 2 2 3 2 2 2 2 3 3 3 3 3 2 2 3 3 2 2 2 3 3 3 3 3 3 2 2 2 1 2 % $ $ $ $ $ $ $ 3 ",
"z 9 y t f k K P I I ~ ~ W W !  . . .-.h.M.N.B.).).`.`.`..X.X<X2X4X9X0XtXtXyXyXyXyXyXyXyXyXyXyXyXhXhXhXnXzXzXvXbXmXNXMXBXNXVXVXVXVXCXDXCXDXFXFXDXDXFXFXFXFXDXFXFXDXDXFXFXFXFXDXDXFXFXFXFXDXFXDXFXCXCXFXFXFXFXFXFXFXFXFXFXGXFXFXFXFXFXFXFXFXFXFXFXFXFXFXFXFXFXFXFXFXFXFXFXFXFXFXFXFXFXFXFXFXFXFXFXFXFXFXFXFXFXFXFXFXFXFXFXFXFXFXFXFXFXFXFXFXFXFXFXFXFXFXFXFXFXFXFXFXFXFXFXFXFXFXFXFXFXFXFXFXFXFXFXFXFXFXFXFXFXCXCXCXCXCXCXVXBXmXvXnXnXuXuXpXpXpXaXaXaXaXaX9XaX9X9X4X5X_.H.H.S.q.O.E E Y Y Y ^ ^ ^ E / / / / +.#.+.{ +.&.&.4.&.+.{ { } +.+.@.&.@.} @.&.&.&.&.&.8.0.x.0.6.6.4.&.@.@.&.&.4.0.q.c.c.0.0.8.8.8.q.x.D.D.q.w.w.x.D.x.C.G.H.C.=.=.=.*.=.=.=.=.=.=.C.=.%.o.=.w.x.=.$.=.d.C.=.o.o.! Q Q ! ! ;.;.! Q ! o.o.! ! o.o.o.o.o.o.*.o.o.o.o.$.-.$.o.*.$.*.*.-.=.=.=.j.=.=.=.=.j.C.C.C.C.C.H.H.H.H.H.H.L.L.L.L.E.XXOXXXXXXXXXXXXXXXXXXXXX/./.Q.K.Z.D.9.#./ Y c u y 7 7 d F R [ [ ] g.z.h.k.k.h.g.g.h.k.k.k.k.k.k.z.g.z.h.h.g.h.h.N.<XjXbXBXNXMXMXbXhXuXpX4X1X`.N...K l s r r q z & > - - & & & 3 9 9 & & & & & & & & & & & & & & & & & & & & & & & & & & & & * * * * & & & & % % & & & & 3 3 3 & & & 3 3 4 3 4 4 4 4 4 4 3 3 3 3 3 3 3 3 3 3 3 3 3 3 3 3 3 2 2 3 3 4 2 2 3 3 2 2 2 2 3 3 2 3 3 3 3 3 3 2 2 2 3 3 3 3 3 3 2 2 2 1 2 % $ $ $ % $ $ % 3 ",
"9 r t l f :.K P I ~ ~ W W W  . . . .-.h.M.N.N.B.).`.`.`..X1X<X2X4X9X0XrXtXtXyXyXyXyXyXyXyXyXyXyXhXhXhXnXzXvXvXbXmXNXMXBXNXNXVXVXVXCXDXCXDXFXFXDXDXDXFXFXFXFXFXFXDXDXFXFXDXDXDXDXFXFXDXDXDXDXDXFXFXFXFXFXFXFXFXFXFXFXFXFXFXFXGXFXFXFXFXFXFXFXFXFXFXFXFXFXFXFXFXFXFXFXFXFXFXFXFXFXFXFXFXFXFXFXFXFXFXFXFXFXFXFXFXFXFXFXFXFXFXFXFXFXFXFXFXFXFXFXFXFXFXFXFXFXFXFXFXFXFXFXFXFXFXFXFXFXFXFXFXFXFXFXFXFXFXFXFXFXFXFXCXCXCXCXCXCXVXBXmXvXnXnXuXuXiXpXaXaXaXaX4XaX4X9X9X9X4X5X_.H.G.S.Z.9./ Y U U Y E ^ ^ / / ! ! { +.+.{ { o.+.&.*.} | { { *.&.&.&.&.&.*.@.&.&.&.8.8.w.0.0.6.4.6.4.&.&.4.4.&.&.0.b.A.0.4.8.8.8.8.w.q.x.D.w.=.=.x.D.D.D.H.F.C.C.j.=.*.-.=.j.j.=.-.=.=.%.o.*.=.=.=.-.-.=.=.C.o.! ! Q Q Q Q ! ;.! ! ! ! ! ! Q ! o.o.$.*.o.o.o.o. .o.o.-.$.*.-.$.*.*.=.w.=.=.w.w.=.w.w.C.C.C.C.C.D.P.P.H.H.L.L.L.L.L.L.L.XXXXXXXXXXXXXXXXXXXXXX/././.Q.S.d.8.#.( Y c u t y y a j R Q [ [ ] g.g.h.k.k.k.z.g.h.k.k.k.k.k.z.g.g.g.g.g.g.h.g.h.B.2XjXbXNXMXMXnXhXuXpX4X1X`.N...K l l r r q z & > - - & & 3 3 9 9 & & & & & & & & & & & & & & & & & & & & & & & & & & & & * * * * & & & % % % & & * & & 3 3 3 3 3 3 3 3 3 3 3 4 4 4 4 3 3 3 3 3 3 3 3 3 3 3 3 3 3 3 3 3 2 2 3 3 3 2 2 2 2 3 3 3 3 3 3 2 2 2 3 3 3 3 3 2 2 3 3 3 3 3 3 2 2 2 2 2 % $ $ $ % $ $ * 3 ",
"q y t f k :.P U I I ~ ~ W W !  . . .-.h.M.N.N.N.).).`.`..X1X<X<X4X9X0XwXtXtXyXyXyXyXyXyXyXyXyXyXhXhXhXvXzXvXvXbXmXNXMXBXNXNXVXVXVXCXDXCXDXFXFXDXDXDXFXFXFXFXFXFXDXDXFXFXDXDXDXDXFXDXDXDXDXDXDXFXFXFXFXFXFXFXFXFXFXFXFXFXFXFXFXFXFXFXFXFXFXFXFXFXFXFXFXFXFXFXFXFXFXFXFXFXFXFXFXFXFXFXFXFXFXFXFXFXFXFXFXFXFXFXFXFXFXFXFXFXFXFXFXFXFXFXFXFXFXFXFXFXFXFXFXFXFXFXFXFXFXFXFXFXFXFXFXFXFXFXFXFXFXFXFXFXFXFXFXFXFXFXCXCXCXCXVXVXVXBXMXbXnXnXuXuXiXpXaXaXaXaX4X4X4X9X9X9X4X5XOXK.G.S.A.Z.@.^ H U Y Y E ^ / / / / { o./ E / { +.+.+.| { { *.&.=.&.&.@.&.&.+.+.+.+.&.8.8.w.&.&.&.4.4.&.4.8.0.8.4.0.c.x.4.+.#.8.q.q.w.w.w.w.w.=.=.x.C.x.x.C.=.=.=.j.j.=.-.-.=.j.=.-.=.=.*.*.o.*.-.*.o.o.o.o.$.o.! Q Q Q ! Q ! ;.o.;.! ! ! ;.! ! o.o.*.-.*.o.o.o.;. .o.$.*.o.o.o.*.*.-.=.=.=.=.=.w.w.C.C.C.D.C.D.P.P.H.H.H.L.L.L.L.L.L.L.E.OXXXXXXXXXXX'.'.].E.E./.Q.S.D.8.#.( ^ v p i t y y d F E ` [ ] ..g.h.h.k.k.k.g.z.g.k.k.k.k.k.z.z.g.g.h.g.g.h.g.g.k.`.2XjXbXMXbXnXuXiXrX4X1X`.N...K B l r r q z & > - - & & & & 3 3 & & & & & & & & & & & & & & & & & & & & & & & & * & & * * * * * & % & % $ % % & $ * & 3 3 3 3 3 3 3 3 3 3 3 3 3 4 4 3 3 3 3 3 3 3 3 3 3 3 3 3 3 4 3 3 2 3 2 2 3 2 2 2 2 3 3 3 3 3 2 2 2 2 2 2 2 3 3 2 2 2 3 3 3 3 3 2 2 2 2 2 % $ $ $ % * $ * 3 ",
"q t l f k :.K P I I ~ W W W !  . . .-.h.M.N.N.N.B.).).`..X.X<X<XeX9X0XwXtXtXtXyXyXyXyXyXyXyXyXyXhXhXnXvXvXvXbXbXmXNXNXBXNXNXVXVXVXCXDXCXCXFXFXCXDXDXFXFXFXFXFXFXFXDXDXDXDXFXFXFXDXDXDXDXFXDXDXFXFXFXFXFXFXFXFXFXFXFXFXFXFXFXGXFXFXFXFXFXFXFXFXFXFXFXFXFXFXFXFXFXFXFXFXFXFXFXFXFXFXFXFXFXFXFXFXFXFXFXFXFXFXFXFXFXFXFXFXFXFXFXFXFXFXFXFXFXFXFXFXFXFXFXFXFXFXFXFXFXFXFXFXFXFXFXFXFXFXFXFXFXFXFXFXFXFXFXFXFXFXFXCXCXCXCXVXVXVXBXMXbXnXnXuXuXpXpXpXaXaXaX4X4X9X9X9X9X9X5X-X_.G.S.A.A.c.@.E Y H Y Y ^ / / { o.{ / ^ E ^ / } +.+.} { +.*.*.+.+.{ { +.&.@.+.} +.*.&.8.0.&.&.&.&.&.@.@.4.0.8.8.8.8.4.&.@.&.w.x.x.w.w.w.w.w.w.x.x.x.=.w.x.=.*.*.=.C.C.j.=.=.=.=.=.=.=.o.o.o.o.$.o.o.o.o.o.! ! ! ! Q Q ! Q Q ! ! o.! ! ! o.o.o.o.o.o.$.-.-.o.o.;.o.o.o.o.o.o.*.$.*.-.=.=.=.=.=.w.w.C.C.C.C.D.P.P.H.H.P.P.H.L.L.L.L.L.L.E.XXXXXXXXXXXX'.].Q.L.E.E.K.S.d.u.O.) M c p d i y y d F E ` [ ] g.g.h.k.k.h.k.h.g.g.z.h.h.k.k.k.h.h.h.h.g.g.h.h.g.h.k.`.9XkXMXbXnXuXiXrX4X1X`.k...K V l r r r z & z - - & & & & 3 & & & & & & & & & & & & & & & & & & & & & & & & & & * * * * * * * & & % $ $ % & & $ % & 3 3 3 3 3 3 3 3 3 3 3 3 3 4 4 3 3 3 3 3 3 3 3 3 3 3 3 3 3 4 3 3 3 2 2 3 2 3 3 2 2 2 2 2 2 2 2 2 3 3 3 3 2 3 3 3 3 2 2 2 2 3 3 2 2 2 2 2 2 $ $ $ & * $ % 3 ",
"q t l h :.:.K P ~ ~ W W W W !  . . .-.-.h.M.N.N.B.B.).`..X X<X<XeX9X0X0XrXtXtXyXyXyXyXyXyXyXyXyXhXhXnXvXvXvXbXbXmXNXNXBXNXNXVXVXVXCXDXCXDXFXFXCXDXDXFXFXFXFXFXFXFXDXDXDXFXFXFXFXFXFXDXDXDXDXDXFXCXCXFXFXFXFXFXFXFXFXFXFXFXFXGXFXFXFXFXFXFXFXFXFXFXFXFXFXFXFXFXFXFXFXFXFXFXFXFXFXFXFXFXFXFXFXFXFXFXFXFXFXFXFXFXFXFXFXFXFXFXFXFXFXFXFXFXFXFXFXFXFXFXFXFXFXFXFXFXFXFXFXFXFXFXFXFXFXFXFXFXFXFXFXFXFXFXFXFXFXFXFXCXCXCXCXVXVXBXBXBXbXnXnXuXuXpXpXpXaXaXaX4XaX9X9X9X9X9X5XoX_.G.A.A.U.T.b.@.E F x H E E / o.#.#.{ / / ^ ^ { +.+.} +.&.&.+.+.+.} { +.&.@.*.+.+.@.&.8.w.0.6.6.=.@.} } @.@.&.&.&.#.@.4.w.q.q.q.w.&.&.w.C.w.w.C.x.x.w.x.C.x.*.o.o.=.x.=.=.=.=.=.*.=.*.{ { { o.o.o.o.o.o. .Q ! o.o.Q Q Q ~ I Q ! ! ! ! ! o.! ! ! Q ! o.o.*.o.o.o.o.o.o.o.o.o.$.=.=.=.=.=.=.=.=.w.x.C.C.C.C.H.P.H.H.P.P.P.P.L.L.L.L.L.E.XXOXXXXXXXXXXX'.Q.Q.L.E.L.S.d.e.O./ M c v p i 7 7 7 k G R ` ' %.g.g.k.h.h.k.k.k.h.h.h.h.z.z.k.k.k.k.k.k.h.g.h.g.g.g.k.B..XqXlXvXnXhXiXrX4X1X`.k...K V l t r r z & z > - & & & & & & & & & & & & & & & & & & & & & & & & & & & & & & * * * * * * * * & & % $ $ % & & % & & 3 3 3 3 3 3 3 3 3 3 3 4 3 4 4 3 3 3 3 3 3 3 3 3 3 3 3 3 3 4 3 3 2 2 2 2 2 2 3 2 2 2 2 2 2 3 3 2 3 2 2 3 3 3 3 3 3 2 2 2 2 3 3 2 2 2 2 2 % % $ $ & & $ % 3 ",
"r t f k :.K K K I ~ W W W W ! ;. . .-.-.h.M.N.N.B.).`.`..X1X<X<XeX9X9X0XrXtXtXyXyXyXyXyXyXyXyXyXhXhXvXvXvXvXbXbXmXNXBXBXVXVXVXVXVXCXDXCXDXFXFXCXFXFXFXFXFXFXFXFXFXFXDXDXFXFXFXFXFXFXFXFXFXDXDXFXCXCXFXFXFXFXFXFXFXFXFXFXFXGXGXFXFXFXFXFXFXFXFXFXFXFXFXFXFXFXFXFXFXFXFXFXFXFXFXFXFXFXFXFXFXFXFXFXFXFXFXFXFXFXFXFXFXFXFXFXFXFXFXFXFXFXFXFXFXFXFXFXFXFXFXFXFXFXFXFXFXFXFXFXFXFXFXFXFXFXFXFXFXFXFXFXFXFXFXFXFXFXCXCXCXCXVXVXBXBXBXbXnXnXuXuXuXpXpXaXaXaXaXaX9XaX9X9X0X5XoX_.G.S.U.T.T.T.b.} H c H Y E ! { o.+.} { { / ! / { +.+.+.&.&.+.+.@.&.+.+.*.+.*.&.&.&.&.&.8.6.=.=.&.*.{ +.@.+.+.+.+.+.@.&.8.w.w.&.$.#.&.w.x.x.w.=.=.=.x.x.x.=.o.o.o.=.=.=.=.*.=.*.*.*.o.{ { o.o.! Q ! ! ! Q I Q o.! I I Q I I I Q ! ;.! ! ! ! Q Q Q ~ Q o.o.-.-.$.o.o.o.o.o.-.=.=.=.=.=.=.=.=.=.w.C.C.C.C.C.H.P.H.H.H.H.H.H.L.L.E.E.E.].].XXXXXXXXXX'.Q.E.L.K.L.P.d.8.#./ Y c v i i i 7 7 a F R R ` ] g.h.g.h.h.k.k.h.h.h.h.h.h.h.h.h.h.h.h.h.k.k.h.h.h.g.g.h.k.N..X0XhXnXhXiXrX4X1X`.k...K V l a r r z & z > - & & * * & & & & & & & & & & & & & & & & & & & & & & & & & & * * * * * * * % & % $ $ $ $ % & & & 3 3 3 3 3 3 3 3 4 4 4 4 4 4 4 4 3 3 3 3 3 3 3 3 3 3 3 3 3 3 4 3 2 2 2 2 2 2 2 2 3 2 2 2 2 2 3 2 2 3 3 3 3 3 2 2 3 2 2 2 3 3 3 3 2 2 2 2 2 % % $ $ & & $ & 3 ",
"r t f :.K K K K U I ~ W W W W W  . .%.-.-.j.N.B.B.).`..X.X<X<X2XeX9X9X0XwXtXtXyXyXyXyXyXyXyXyXyXhXhXvXvXvXvXbXbXMXNXBXBXNXVXVXVXVXCXDXCXDXFXFXDXFXFXFXFXFXFXFXFXFXFXDXDXDXFXFXFXFXFXFXFXFXFXDXFXCXCXFXFXFXFXFXFXFXFXFXFXGXGXGXFXFXFXFXFXFXFXFXFXFXFXFXFXFXFXFXFXFXFXFXFXFXFXFXFXFXFXFXFXFXFXFXFXFXFXFXFXFXFXFXFXFXFXFXFXFXFXFXFXFXFXFXFXFXFXFXFXFXFXFXFXFXFXFXFXFXFXFXFXFXFXFXFXFXFXFXFXFXFXFXFXFXFXFXFXFXFXCXCXCXCXVXVXBXBXBXMXbXnXnXuXuXpXaXaXaXaX9XaXaXaXaX9X9X5X|._.K.T.T.R.A.T.A.+.Y c Y E ^ ! ! / { { { { { ! ^ { *.+.+.&.+.{ { *.&.+.{ { { +.&.6.=.&.@.&.@.@.&.&.*.+.*.&.+.+.+.+.+.+.#.&.+.+.+.+.#.&.=.=.x.=.*.*.=.=.=.*.o.o.*.=.x.x.x.=.*.*.*.o.*.%.+.o.o.! Q Q ! o.! Q U I Q I U I ~ I Q Q ! o.o.! ! ! ! ;.! ! Q ! o.$.=.=.$.o. .o.o.-.=.=.=.=.=.C.=.=.w.w.C.C.C.C.C.C.D.H.H.H.H.H.L.L.H.L.E.E.E.E.E.E.E.Q.Q.Q.Q.E.K.K.G.K.D.8.#.( Y c v i i u i 6 7 h U E Q ` ] g.h.z.k.k.h.h.k.k.k.k.k.k.h.h.h.h.h.h.z.k.k.k.k.k.g.h.h.z.z.B.2XtXhXhXiX9X4X1X`.k...K V l a y r 9 & z > - & & * * * * & & & & & & & & & & & & & & & & & & & & & & & & * * * * * * % % & % $ $ $ $ % & & 3 3 3 3 3 & & 3 3 4 4 4 4 4 4 4 4 3 3 3 3 3 3 3 3 3 3 3 3 3 3 4 3 2 2 2 2 2 2 2 2 2 2 2 2 2 2 3 3 3 3 3 3 2 2 2 2 2 2 3 3 3 3 3 3 3 3 3 % % % % $ $ & & $ & 3 ",
"t f k j K K I ~ ~ ~ ~ W W W ! !  . .%.-.-.j.N.N.B.).`.`..X1X1X2XeX9X0XrXiXiXtXtXyXyXyXtXtXtXyXhXhXhXnXnXzXvXbXmXmXMXNXBXNXNXVXVXCXCXCXDXDXDXFXFXFXFXFXFXFXFXFXFXDXDXFXFXFXFXFXFXDXDXDXDXFXFXFXFXCXCXCXFXFXFXFXFXFXFXFXGXFXFXFXFXFXFXFXFXFXFXFXFXFXFXFXFXFXFXFXFXFXFXFXFXFXFXFXFXFXFXFXFXFXFXFXFXFXFXFXFXFXFXFXFXFXFXFXFXFXFXFXFXFXFXFXFXFXFXFXFXFXFXFXFXFXFXFXFXFXFXFXFXFXFXFXFXFXFXFXFXFXFXFXFXFXFXFXFXFXFXCXCXCXCXVXVXBXBXmXbXbXnXlXuXpXpXaX9XaX4XaXaXaXaXaXaX0X4X X_.H.G.T.T.Q.S.S.Z.O.Y H Y E Y E / +.+.+.+.{ E ! { { +.*.+.&.| | *.=.+.{ { *.+.+.*.&.=.&.+.| } *.@.+.} } +.{ +.&.+.+.+.+.+.+.} { o.+.*.w.x.x.=.=.j.j.=.-.=.o.*.*.=.=.=.=.=.=.o.o.%.*.*.%.! o.! Q Q ! o.! I I ~ I P P U I U U ~ ! o.o.*.o.o.o.! Q Q ! ! ! ! $.o.o.o.o.o.o.$.-.$.*.*.=.x.=.=.=.=.C.C.x.C.C.C.C.D.P.H.H.L.L.L.L.L.E.E.E.E.Q.XXE.Q.Q.E.K.K.S.S.D.D.q.8.( T c c v i w i 8 7 d F R R [ ' ..g.g.g.k.k.k.k.h.h.g.z.h.k.k.k.k.k.h.h.h.k.k.k.h.g.g.h.h.h.h.N.B.4XiXnXuX9X2X1X`.k.[ K Z B s a y q & * & & - - - & * $ 3 9 3 & & & & & & & & & & & & & * * * * * * & & & * * * * * * $ % % % % % % % % & 3 3 3 3 3 3 3 3 3 7 r 7 7 3 3 4 4 3 3 3 3 3 3 3 3 3 3 3 3 3 3 3 3 2 3 2 3 3 2 3 3 3 3 2 2 2 2 3 3 3 3 2 2 2 2 3 3 3 3 3 3 3 & 3 & 3 3 3 % % $ $ $ $ & & % & 3 ",
"f f k :.K P I ~ ~ ~ ~ W W W W !  . .%.-.-.h.M.N.B.B.`.`..X X<X2X4X9X9XrXtXtXyXyXyXyXyXtXtXtXyXhXhXlXnXvXvXvXbXbXmXMXNXBXNXNXVXVXCXCXCXDXDXDXDXDXFXFXFXFXFXFXFXFXDXDXFXFXFXFXFXFXDXDXDXDXFXFXFXFXCXCXCXFXFXFXFXFXFXFXFXGXFXFXFXFXFXFXFXFXFXFXFXFXFXFXFXFXFXFXFXFXFXFXFXFXFXFXFXFXFXFXFXFXFXFXFXFXFXFXFXFXFXFXFXFXFXFXFXFXFXFXFXFXFXFXFXFXFXFXFXFXFXFXFXFXFXFXFXFXFXFXFXFXFXFXFXFXFXFXFXFXFXFXFXFXFXFXFXFXFXFXCXCXCXCXVXVXCXBXBXmXbXnXlXuXuXpXaX9XaX4XaXaXaXaX9XaX0X4X X_.H.K.E.T.T.S.S.S.9.O.^ E F E ^ / } *.*.{ { / { +.+.+.+.+.| { { *.=.*.| { +.| | +.*.&.*.+.{ } +.} | { | } { } } | +.@.+.{ +.+.+.*.&.&.=.&.=.*.*.=.=.-.*.-.=.=.=.=.*.*.*.*.o.{ { o.o.o.{ Q ! ! Q Q ! ! ! ~ K U U P U I W ~ I ~ Q Q Q ! o.o.o.o.! ! o.o.o.o.o.o.o.o.o.$.-.=.$.*.*.=.=.=.w.w.=.w.C.C.C.C.C.D.D.D.P.H.H.L.L.L.K.E.E.Q.E.Q./.XXQ.Q.Q.E.G.S.S.Z.d.q.8.O.^ M v v v i w w 7 7 d G R R ' ' %.g.g.h.k.k.k.k.k.h.h.z.h.h.h.h.h.z.z.z.h.k.k.k.h.g.g.h.z.z.z.k.N.`.4XrXiX0X4X1X`.N...R B s a r r 3 3 & & & & & & & & * & & & & & % % & & & & & & & & & * * % * * * & & * * * * * * % $ % % % % % % % % 3 3 3 3 3 3 3 3 3 3 3 4 4 3 3 2 4 4 3 3 3 3 3 3 3 3 3 3 3 3 3 3 3 3 2 3 2 2 3 2 3 3 3 3 2 2 2 2 3 3 3 3 2 2 2 2 3 3 3 3 3 3 & & & 3 & 3 & % % $ $ $ $ & & $ & 3 ",
"f k j :.K U ~ W W W W W W W W W W !  .%.-.h.N.N.B.B.).`.`. X1X<X2XeX9XrXtXyXyXhXhXhXyXyXtXtXyXyXhXhXvXvXvXvXbXbXmXMXNXBXNXVXVXDXVXCXCXCXDXDXDXDXDXDXFXFXFXFXFXDXDXDXDXFXDXDXFXDXDXDXFXFXFXFXFXFXCXCXFXFXFXFXFXFXFXFXFXGXFXGXFXFXFXFXFXFXFXFXFXFXFXFXFXFXFXFXFXFXFXFXFXFXFXFXFXFXFXFXFXFXFXFXFXFXFXFXFXFXFXFXFXFXFXFXFXFXFXFXFXFXFXFXFXFXFXFXFXFXFXFXFXFXFXFXFXFXFXFXFXFXFXFXFXFXFXFXFXFXFXFXFXFXFXFXFXFXFXFXFXFXFXCXCXVXVXBXBXmXmXbXnXuXuXpXpXaXaX4X4XaXaXaXaX9XrX4X*X_.H.K.E.T.T.U.U.U.S.t.O.Y c E { ^ / &.&.{ { ! { +.+.+.+.{ ' ' | *.*.%.{ { | { | | +.+.+.+.+.| { { / { { { { { / / } &.+.{ } +.*.&.*.*.*.+.o.o.o.*.-.*.%.%.j.=.=.*.o.o.o.*.o.{ o.o.o.{ ! I Q ! ! ! Q Q I I j P P P U ~ Q ~ Q Q Q Q Q ! o.o.o.! ! ! ! ! ! o.;.o.o.o.o.$.=.=.=.=.=.=.=.=.x.C.w.C.C.C.C.C.C.D.P.P.H.H.L.L.L.L.K.L.E.E.Q.Q.Q./.Q.Q.Q.G.S.S.Z.D.q.8.O./ M v v i v i w w 7 7 d R R R ' ] %.g.h.h.h.k.k.k.k.k.h.h.k.h.z.z.g.g.h.z.h.k.k.k.h.g.g.h.z.z.z.k.k.N.B.1X9X0X4X<X).N...R S s y r q q q q & z - - - & & & & & & & & & & & & & & & & & & & % % % % * * * * & & * * & & % $ % % % % % % % % & 3 3 3 3 3 3 3 3 2 3 3 3 3 2 2 4 4 3 3 3 3 3 3 3 3 3 3 3 3 3 3 3 3 3 3 2 3 3 3 3 3 3 3 3 3 3 3 3 3 3 3 3 3 3 3 2 3 3 3 3 3 3 3 & & & & & % $ $ & $ $ & & $ & 3 ",
"f k :.K K U ~ ~ W W W W W W W W Q !  . .-.h.N.N.B.B.).`..X X1X<X4XeX9XrXtXyXyXhXhXhXhXyXtXtXtXyXyXhXvXbXbXbXvXvXmXMXNXBXNXVXVXDXVXCXCXCXDXDXDXDXDXDXFXFXFXFXFXDXDXDXDXDXDXDXDXDXDXFXFXFXFXFXFXFXCXCXFXFXFXFXFXFXFXFXFXGXGXGXFXFXFXFXFXFXFXFXFXFXFXFXFXFXFXFXFXFXFXFXFXFXFXFXFXFXFXFXFXFXFXFXFXFXFXFXFXFXFXFXFXFXFXFXFXFXFXFXFXFXFXFXFXFXFXFXFXFXFXFXFXFXFXFXFXFXFXFXFXFXFXFXFXFXFXFXFXFXFXFXFXFXFXFXFXFXFXFXFXFXFXFXCXCXVXBXBXBXbXnXnXlXuXpXpXaXaX4X4XaXaX4XaX9X0X4X*X_.H.K.E.T.T.U.T.T.U.S.4.Y c E ^ E / #.&.{ ! E { { { { { { { | *.*.*.{ ' ' ' | | | { { | +.| | | { { { { { +.{ / / } +.+.{ { { +.*.*.*.+.{ o.o.o.o.o.o.o.o.*.*.*.o.o.o.o.*.o.o.o.%.{ { ! Q ! ! { ! ~ I U P P U U U I ~ I I ~ Q ! Q ! o.o.o.! ! Q Q I I Q ! o.o.$.*.o.o.*.-.=.=.=.=.=.=.w.C.C.C.C.C.C.C.C.D.H.H.L.L.L.L.L.L.K.E.E.E.Q.Q.Q.Q.E.E.T.S.Z.S.D.D.9.#.( ^ c v v v i i w 7 7 7 Z R R R ' ] %.g.h.h.k.k.k.k.k.k.k.k.k.k.z.g.g.g.h.h.h.k.k.k.h.h.g.h.h.z.z.k.k.z.N.`.<X4X4X.X).j. .R B h a r q q q q q q 6 6 6 3 3 3 3 & & & 3 3 3 3 & & & & & & & & % * * & & & & * & & * * & & % $ % % % % % % % % & & 3 3 3 3 3 3 3 3 2 2 3 3 3 3 4 4 3 3 3 3 3 3 3 3 3 3 3 3 3 3 3 3 3 3 $ 2 3 3 3 3 3 3 3 3 3 3 3 3 3 3 3 3 3 3 3 3 3 3 3 3 3 3 & & 3 & & % $ $ & % % & $ $ & 3 ",
"k k :.K P P ~ ~ W W W ~ W W W W Q !  . .-.h.N.N.B.).).)..X.X<X<XeX9X0XrXrXtXyXyXhXhXhXyXyXtXyXyXyXhXvXbXbXbXvXvXmXNXBXBXNXVXVXDXVXCXCXDXCXDXDXDXDXDXFXFXFXFXDXDXDXDXDXDXDXDXFXFXDXDXFXFXFXFXFXFXCXFXFXFXFXFXFXFXFXFXFXFXGXGXGXFXFXFXFXFXFXFXFXFXFXFXFXFXFXFXFXFXFXFXFXFXFXFXFXFXFXFXFXFXFXFXFXFXFXFXFXFXFXFXFXFXFXFXFXFXFXFXFXFXFXFXFXFXFXFXFXFXFXFXFXFXFXFXFXFXFXFXFXFXFXFXFXFXFXFXFXFXFXFXFXFXFXFXFXFXFXFXCXCXFXFXCXCXVXVXBXBXbXnXnXuXuXpXpXaXaX4X4XaXaX4XaX9X9X2X<X_.L.G.T.T.U.T.T.U.S.U.t./ / E Y Y ^ } } { E E { { { o.+.{ %.*.*.*.%.{ ' ' ! { { { | | { +.{ | { { { { { { { { { / { { { { { { { o.+.+.+.o.o.o.o.o.o.o.o.{ o.o.*.o.o.o.o.o.o.o.o.o.! ! ! Q ' ! ! ~ I I U P U U U I I ~ I I I Q Q Q I Q Q Q ! ! ! Q Q Q ! o.o.o.$.$.o.o.o.*.=.=.=.=.*.=.x.C.C.C.C.C.C.D.D.P.H.H.L.L.L.L.L.L.L.L.L.E.Q.Q.Q.Q.E.T.S.Z.D.Z.D.d.8.+./ Y v v v v i i 8 8 7 d G R R W ' ....g.g.h.k.h.k.k.k.k.k.k.k.k.k.g.g.g.z.h.h.h.k.k.h.h.h.h.h.z.z.k.k.z.h.N.`. X*X`.F.j. .R V B a y r q 6 3 3 3 6 3 3 3 3 3 3 3 3 3 3 3 3 3 3 3 & & & & & & * & & & & & & & & & * * & * % # % % % % % % % % & & 3 3 3 3 3 & 3 3 2 2 3 4 4 4 4 4 3 3 3 3 3 3 3 3 3 3 3 3 3 3 3 3 & % % % & & & & & & 3 3 3 3 & & & & & & & 3 3 3 3 3 3 3 3 3 & & & & 3 & $ $ 3 % % & % $ 3 q ",
"k j K P P U U ~ W W W ~ W W W W Q !  . .-.h.N.N.B.).).)..X.X<X<XeX9X9X0XrXtXyXyXhXhXhXhXyXyXyXyXhXhXvXvXvXvXbXbXmXNXBXBXNXVXVXVXCXCXCXDXDXDXDXDXDXDXFXFXFXFXDXDXDXDXDXDXDXDXFXFXDXDXFXFXFXFXFXFXCXFXFXFXFXFXFXFXFXFXFXFXGXGXGXFXFXFXFXFXFXFXFXFXFXFXFXFXFXFXFXFXFXFXFXFXFXFXFXFXFXFXFXFXFXFXFXFXFXFXFXFXFXFXFXFXFXFXFXFXFXFXFXFXFXFXFXFXFXFXFXFXFXFXFXFXFXFXFXFXFXFXFXFXFXFXFXFXFXFXFXFXFXFXFXFXFXFXFXFXFXCXCXCXFXCXCXCXVXVXBXBXbXnXnXuXuXpXpXaXaXaX4XaXaX4XaX9X9X4X2X_.H.G.G.T.U.U.T.U.S.T.U.9.&./ Y Y ^ / / / E E { { { +.*.{ +.+.*.+.| { { { ! { { { { { | | { { ! { { | { { { / / / ! E / { +.o.+.o.+.*.*.o.o.o.o.o.o.o.o.' o.o.%.*.*.o.o.{ o.o.o.o.! ! ! ! ! Q I P P U I U U j :.U ~ ~ ~ Q ! ! Q I U I I Q Q ! ! ! Q ! o.o.o.o.o.o.o.o.o.*.*.*.*.=.=.=.x.C.C.C.C.D.P.H.H.H.H.H.H.L.L.L.L.L.L.K.L.L.E.Q.E.E.G.S.S.D.D.D.t.9.O./ Y c c v v i i w 7 7 d Z G R R [ ] ..%.g.g.g.k.k.k.k.k.k.k.k.k.k.h.z.g.g.h.h.h.h.h.h.h.h.h.h.h.z.g.h.k.h.z.h.h.N.N.j.l.%.' Q P V h a a r 6 3 3 3 3 3 3 3 3 3 6 3 3 3 3 & & & 3 3 & & & & & & $ & & & 3 & & & & & * * * * % $ % % % % % % % % % & & 3 3 3 3 & 3 3 2 3 3 4 7 7 4 4 3 3 3 3 3 3 3 3 3 3 3 3 3 3 3 & & % % % % & & & & & & & 3 3 & & & & & & & 3 3 3 3 2 3 3 3 3 & & 3 & 3 & $ $ & $ $ % % % 3 r ",
"j :.K P U U I ~ ~ ~ ~ ~ W W W Q Q !  . .-.h.M.N.B.).).)..X.X X<X4XeX9X0XrXtXyXhXyXhXhXhXyXyXyXhXhXhXnXvXvXvXbXbXmXNXNXBXNXVXVXVXCXCXDXFXFXFXFXFXDXDXFXFXFXDXDXDXDXFXDXDXFXFXFXFXDXDXDXDXFXFXFXFXFXFXFXFXFXFXFXFXFXFXFXFXGXGXGXFXGXFXFXFXFXFXFXFXFXFXFXFXFXFXFXFXFXFXFXFXFXFXFXFXFXFXFXFXFXFXFXFXFXFXFXFXFXFXFXFXFXFXFXFXFXFXFXFXFXFXFXFXFXFXFXFXFXFXFXFXFXFXFXFXFXFXFXFXFXFXFXFXFXFXFXFXFXFXFXFXFXFXFXFXFXFXCXCXCXCXVXVXVXVXBXBXbXnXnXlXuXuXpXpXaXaXaXaXaXaX9XaX9X9X2X_.L.G.G.T.T.T.T.U.U.R.R.Z.c.+.E E E E E ! E ! { { / { o.{ { | +.| { { { { ! { { { ' ' ' { { E E E { { { E E E E { ! ! { o.+.o.+.o.*.*.o.o.o.o.o.' { { o.! o.o.o.o.o.o.o.! o.{ o.o.! ! ! Q I I P k k F P P P j j P I ~ Q Q ! ;.! Q I I Q Q Q ! ! ! ! ;.o.o.o.o.o.o.o.*.#.-.-.-.*.=.=.x.x.x.w.C.C.D.H.H.H.P.H.H.H.H.L.L.L.L.K.H.K.L.E.E.E.K.S.S.Z.D.d.t.8.O.( T M c v v v i i 8 7 7 h G R R W [ ..%.g.z.g.h.k.k.k.k.k.k.k.k.k.k.k.k.h.z.z.z.h.h.h.h.h.h.h.h.h.g.g.h.h.h.g.g...%.....' ! Q Q W R R V B l a y r r q 7 4 7 7 r r r q 7 6 6 6 6 6 6 6 3 3 3 % & $ $ & 3 3 3 & % & & % % & & $ $ % % % % % % % % % & & 3 3 3 3 & 3 3 3 3 3 4 7 r 4 4 3 3 3 3 3 3 3 3 3 3 3 3 3 3 & & & % $ $ % & & & & & & & & & & & & & & & & & 3 3 2 2 2 2 3 3 3 3 3 3 3 & % $ & $ $ % & & 6 y ",
":.K P U U ~ ~ I I I I ~ W W W W Q !  . .-.h.M.N.B.B.).).`..X.X<X<X4X9X9XrXtXyXhXyXyXhXhXhXyXyXhXhXhXnXnXzXvXbXmXmXNXNXBXNXVXVXVXCXDXDXFXFXFXFXFXDXDXFXFXFXFXDXDXFXFXFXFXFXFXFXFXDXDXDXDXFXFXFXFXFXFXFXFXFXFXFXFXFXFXFXFXGXGXGXFXGXGXFXFXFXFXFXFXFXFXFXFXFXFXFXFXFXFXFXFXFXFXFXFXFXFXFXFXFXFXFXFXFXFXFXFXFXFXFXFXFXFXFXFXFXFXFXFXFXFXFXFXFXFXFXFXFXFXFXFXFXFXFXFXFXFXFXFXFXFXFXFXFXFXFXFXFXFXFXFXFXFXFXFXFXFXFXFXCXCXVXVXVXVXBXBXbXbXnXlXuXuXiXpXaXaXaXaXaXaX9XaX9X9X2X|.H.G.G.T.W.R.T.U.U.U.R.Z.D.8.{ ^ E E E E E ! { ! Q ! { { { | | { { { ' E ! { ' ' ' E E E { E Y E E ' E Y E E E { { { { o.{ { o.o.*.o.o.{ o.o.{ ! ! { { ' o.' ' ' o.o.{ ! ! Q ! ! Q Q I P U U P j f f j j U j f j I I I Q I Q ! ! Q Q ! ! Q ! o.! o.o.o.o.$.o.o.o.$.$.-.*.*.-.*.=.x.C.C.C.=.=.C.C.P.P.H.C.P.H.H.H.L.L.L.L.H.H.K.L.E.E.K.K.S.S.D.t.q.9.#.( / T c c v v v i i 7 7 7 B R R R [ ] %.g.g.g.g.k.k.k.k.k.k.k.h.k.k.k.k.k.g.z.z.z.h.h.g.h.h.h.h.h.h.h.h.g.g.h.h.g.h.%.] ' ! Q Q ! ! ! W R U V B h a s y y y s s a a a t y y r q q 6 6 6 6 3 3 3 % # $ & & 3 & % $ & & % % & & $ $ % % % % % % % % % & & 3 3 3 3 & 3 2 2 2 3 4 7 r 4 4 3 3 3 3 3 3 3 3 3 3 3 3 3 3 & & & % $ $ % % & & & & & & & & & & & & & & & & 3 3 2 2 2 2 3 3 3 3 3 3 3 & % $ % $ $ $ & & q y ",
"K K P U I I U P I I ~ ~ ~ ~ I I Q Q ' o.-.h.N.N.B.).).`.`..X1X<X<XeX9XrXtXtXtXtXyXyXyXyXyXyXyXyXhXhXvXvXvXvXbXmXMXNXBXVXVXVXVXVXCXDXDXDXFXFXFXDXDXDXDXDXFXFXFXFXFXFXFXFXFXFXFXDXDXDXCXCXDXDXFXFXFXFXFXFXFXFXFXFXFXFXFXFXFXFXFXFXFXFXFXFXFXFXFXFXFXFXFXFXFXFXFXFXFXFXFXFXFXFXFXFXFXFXFXFXFXFXFXFXFXFXFXFXFXFXFXFXFXFXFXFXFXFXFXFXFXFXFXFXFXFXFXFXFXFXFXFXFXFXFXFXFXFXFXFXFXFXFXFXFXFXFXFXFXFXFXFXFXFXFXFXFXFXFXFXFXCXCXCXCXVXBXBXbXbXnXlXuXuXiXpXaXaXaXaXaXaX9X9X0X9X2X|.J.K.K.Q.W.R.T.U.U.~.R.R.T.D.&.{ E Y Y Y ! ! ! ! ! ! ! E { | { %.%.{ { { ' ' ' E E E E E E E E E ' ! E U R U U E { { { { { ! ! { o.o.{ { o.! Q ! ! Q ! o.o.{ ! ' o.o.' ! ! ! Q I Q Q I F F F j k k g g U j j j I I U I Q ! Q Q Q Q Q Q Q Q ! o.o.$.*.o.o.o.$.$.o.o.$.=.=.*.#.=.w.x.x.x.C.x.w.w.C.C.P.H.H.H.H.H.L.L.L.P.P.L.L.K.K.K.K.S.H.Z.D.d.q.9.#.( / Y c c v v v n i 8 7 7 d F R R R [ ] %.g.g.z.z.h.k.k.k.k.k.k.k.k.h.k.z.z.z.z.z.z.z.g.h.h.h.h.h.h.h.h.g.g.g.g.g.g.%.%.] ' W ! Q I ' ' [ W R R G Z R C Z B B Z Z V V V V F V h h h k d s r r r 6 3 y q 3 & & 3 3 3 3 3 & & 3 & $ $ % % $ $ $ $ % & 3 & & & 3 3 3 3 3 3 3 3 3 3 3 3 7 4 4 3 3 3 3 3 % & 3 3 3 3 & & & & & & & & & & & & % % % % $ $ $ $ % & & & & & 2 1 1 1 2 2 2 2 $ $ 2 3 3 $ $ $ $ % 3 3 % $ 3 y ",
"P U I ~ ~ ~ U U ~ I I I ~ ~ I I Q W !  .-.-.M.N.B.).).`.`..X<X<X<X4X9X0XrXtXtXtXyXyXyXyXyXyXyXyXhXhXvXvXvXvXbXmXNXNXBXVXVXVXDXDXCXDXDXDXFXFXFXFXDXDXDXDXFXFXFXFXFXFXFXFXFXFXDXDXDXDXCXCXDXDXFXFXFXFXFXFXFXFXFXFXFXFXFXFXFXFXFXFXFXFXGXFXFXFXFXFXFXFXFXFXFXFXFXFXFXFXFXFXFXFXFXFXFXFXFXFXFXFXFXFXFXFXFXFXFXFXFXFXFXFXFXFXFXFXFXFXFXFXFXFXFXFXFXFXFXFXFXFXFXFXFXFXFXFXFXFXFXFXFXFXFXFXFXFXFXFXFXFXFXFXFXFXFXFXFXFXFXCXCXCXCXVXBXBXbXbXnXlXuXuXiXpXaXaXaX4XaXaX9X9X0X9X2X|.H.H.G.S.T.U.U.U.U.~.~.W.S.G.D.8./ U F U Y E ! E E ! / / ! E ' { | { { %.{ { ' E E E E E E E E ! E E E R E E Q ' { { ! ! ! I Q ! { ' ! ! ! Q Q ! ! Q ! o.' ! Q Q ' ' ' ! ' ! I P P I I P j I U k k x k k j f j U I U I Q ! Q Q Q Q Q ! ;.o.o.o.*.$.$.*.o.o.*.o.o.o.$.=.=.=.=.=.x.C.w.x.C.C.C.C.D.P.H.H.H.H.H.L.L.L.L.L.L.L.L.K.K.K.G.H.D.D.t.q.8.3.} / ^ M c c v v n i i 8 7 i h G R R ` [ ] %.g.g.z.h.k.k.k.k.k.k.k.k.k.h.k.z.z.g.g.g.z.g.h.h.h.h.h.h.h.h.h.g.h.g.g.g.g.%.%.%.' W Q Q R ' ' ' ' ' [ W R R R R E Q Q R R R R I I U P U U I U V V h f d a a y r q 3 3 3 & 3 3 & & 3 & % $ 3 3 3 & & & & & $ $ % & & 3 3 3 2 2 2 2 3 3 3 3 3 3 3 2 2 2 2 3 & & 3 & 3 3 3 & 3 3 3 & & % % % $ % % & & & % % $ $ % & & & 3 3 3 2 2 2 3 2 2 2 $ $ 2 3 3 3 % $ % $ 3 3 $ $ 3 r ",
"I I ~ ~ ~ ~ I ~ I I I I I I I I Q Q !  .-.-.M.N.B.B.).)..X.X X<X4XeX9X0X0XrXtXyXyXyXyXyXyXyXyXhXhXhXvXvXvXvXbXmXNXBXVXVXVXDXDXDXCXDXDXFXFXFXFXFXDXFXDXDXFXFXDXDXDXDXFXFXFXFXFXFXFXFXDXDXDXDXFXFXFXFXFXFXFXFXFXFXFXFXFXFXFXFXFXFXFXFXGXFXFXFXFXFXFXFXFXFXFXFXFXFXFXFXFXFXFXFXFXFXFXFXFXFXFXFXFXFXFXFXFXFXFXFXFXFXFXFXFXFXFXFXFXFXFXFXFXFXFXFXFXFXFXFXFXFXFXFXFXFXFXFXFXFXFXFXFXFXFXFXFXFXFXFXFXFXFXFXFXFXFXFXFXFXFXCXCXCXCXVXBXBXbXnXnXlXuXuXpXpXaXaXaX4XaXaXaX9X0XqX3X X_.H.G.T.U.U.U.U.U.~.~.W.S.T.Q.D.#.E Y F x E / E E ^ / ^ E E E ' { | { | { ' ' E E E E E E E ! ! ! E E ! E ! ' { { ! ! E I U U Q Q Q Q Q Q Q ! { ! Q Q ' Q I U I Q ! ! ! ! Q I V V U U P j Q I g g P P g j f f x U U I Q Q Q Q Q Q Q ! o.o.o.o.o.o.o.o.o.o.*.$.;.;.$.*.-.=.=.=.x.x.=.=.=.C.C.P.P.P.P.H.L.H.L.L.L.L.L.L.H.L.K.G.S.S.H.D.D.q.q.1.O.( ) Y M c c v v n i i 8 8 8 u F R R ` [ [ ] %.g.h.h.k.k.k.k.k.k.k.k.k.k.k.k.k.g.h.h.k.h.h.h.h.h.h.h.g.g.h.h.h.h.h.h.h.h.g.g.%.' Q R R U R [ ' [ ' [ [ ' R R [ ' ' ' ' Q ! R I U U R R R ' ' W R Q R U P V V h f d a y r r 3 3 3 3 3 2 $ $ $ $ $ $ $ % % $ $ $ & 3 3 3 3 2 2 2 2 3 3 3 4 4 3 3 2 2 2 2 2 3 3 3 & 3 & 3 3 7 3 3 % $ $ % & 1 % 3 3 3 3 3 3 2 % 2 3 3 3 3 3 3 4 2 2 3 3 2 2 1 1 2 3 3 3 % % 3 $ 2 3 $ $ 3 y ",
"W W W W ~ ~ I I ~ U I I I I I I Q Q !  .-.-.M.N.N.B.).)..X.X<X<X4X4X9X9X0XrXtXyXyXyXyXyXyXyXyXhXhXhXvXvXvXvXbXmXNXBXBXVXVXVXVXDXCXDXDXFXFXFXFXFXFXFXFXFXFXFXDXDXDXDXDXFXFXFXFXFXDXDXDXDXDXDXFXFXFXFXFXFXFXFXFXFXFXFXFXFXFXFXFXFXFXFXFXFXFXFXFXFXFXFXFXFXFXFXFXFXFXFXFXFXFXFXFXFXFXFXFXFXFXFXFXFXFXFXFXFXFXFXFXFXFXFXFXFXFXFXFXFXFXFXFXFXFXFXFXFXFXFXFXFXFXFXFXFXFXFXFXFXFXFXFXFXFXFXFXFXFXFXFXFXFXFXFXFXFXFXFXFXFXCXCXCXCXVXBXBXbXnXnXnXnXuXpXpXaXaXaXaXaXaXaX9X9XqX9X*X_.K.E.T.U.U.U.U.U.R.R.R.T.G.S.S.D.8./ Y F Y ^ ^ ^ / ^ E E E E E E E ' ' ' E ! ! ! E E R E E ! ! ! ' ! ' E ! { { ! ! Q Q I I I U I I I Q ! ! ' { ! I I Q U U P P I Q ! ! Q Q I P F F V j x ~ U d g P U x F j f j U I I Q Q Q Q ! ! ! ! o.! ! ! ! ! ;.o.o.$.*.$.o.o.$.=.=.=.=.=.w.=.=.=.=.w.C.D.P.D.H.H.L.L.L.L.L.L.L.H.H.K.H.H.H.S.D.D.C.q.8.O.( ) Y M c c v v v i i i 8 8 y h G R W ` [ ' ] ..g.h.h.k.k.k.k.k.k.k.k.k.k.k.k.g.g.h.k.k.h.h.k.k.h.h.g.g.g.h.h.h.h.h.h.h.h.g.g.%.] [ R R R W [ [ [ [ ` ` [ [ ` ` [ ' ' ' W W R P K K K R W ' ' ' ' ' ! Q Q E Q Q R U P V h a a r r 3 3 3 3 # # $ $ $ % 3 3 $ $ & & 3 3 3 3 2 2 2 3 4 4 4 4 3 3 2 2 2 2 2 2 3 3 3 & 2 3 2 3 4 3 3 $ 1 % 2 3 1 3 3 3 4 3 3 3 2 3 2 3 3 3 2 3 2 2 2 3 4 4 3 3 3 2 3 3 % $ $ $ 3 $ $ 3 2 3 r a ",
"W Q W W W W W W I I I I I I I ~ Q Q ! o.-.-.M.N.N.B.).).`..X<X<X2X4XeX9X9XrXyXhXyXyXyXyXyXyXhXhXhXhXvXvXvXvXbXmXMXNXNXNXNXVXVXVXCXDXDXFXFXFXFXDXFXFXFXFXDXDXDXDXDXDXFXFXFXFXDXFXDXDXDXDXFXFXFXFXFXFXFXFXFXFXFXFXFXFXFXFXFXFXFXFXFXFXFXFXFXFXFXFXFXFXFXFXFXFXFXFXFXFXFXFXFXFXFXFXFXFXFXFXFXFXFXFXFXFXFXFXFXFXFXFXFXFXFXFXFXFXFXFXFXFXFXFXFXFXFXFXFXFXFXFXFXFXFXFXFXFXFXFXFXFXFXFXFXFXFXFXFXFXFXFXFXFXFXFXFXFXFXFXFXCXCXCXCXVXBXBXbXnXnXnXnXuXpXpXpXaXaXaXaXaXaXaX9XqX3X-X_.G.G.S.R.R.T.T.T.R.R.T.W.G.A.S.T.A.4./ ^ Y U E / ^ E E E E E E E E E E E E ! ' ' ' ! R ! R R R Q ! ! E Q ! ' ! E Q Q Q Q Q I U P P U I Q Q ! Q I U I I P P P F U Q Q I I U F V j h h k x U P x U U U U U x j P I ~ Q Q ! ! ! o.o.! ! ! ! ! ;.o.o.o.*.-.*.$.$.o.o.-.=.=.=.=.=.x.x.=.=.x.=.C.D.P.P.P.H.L.L.L.L.L.L.L.H.H.K.P.S.D.D.D.d.q.9.1.O./ Y M v v v v v v i i i 8 8 t k R R R ` [ ] ] ..g.h.k.k.k.k.k.k.k.k.k.k.k.k.k.z.z.g.h.k.h.h.k.h.h.h.g.z.z.g.g.g.h.h.h.g.g.g.g.g.%.' W R W [ [ ' [ ` ` ` ` ' ' ' ' [ [ W R R R R R R R R R [ ' '  .' ' ' ' ' ' ' ' ' W R R F V B h s a s y q 6 3 3 3 3 3 3 & & 3 3 3 3 3 & 3 3 2 3 3 3 4 4 3 3 2 2 2 3 2 2 3 2 2 1 1 2 2 3 2 2 1 $ 1 2 2 2 2 2 2 3 3 2 2 2 2 2 2 2 1 1 2 2 1 2 2 4 4 4 7 7 7 7 3 2 $ $ $ $ 1 $ $ $ 2 2 r a ",
"W W Q Q W W W ~ I I I I I I I ~ Q Q ' o.-.-.M.N.N.B.).).`..X<X<X<X4XeX9X0XrXtXyXyXyXhXyXyXyXyXyXhXhXvXvXvXvXbXmXMXNXNXNXNXNXVXVXCXDXDXFXFXFXFXDXFXFXFXFXDXFXDXDXDXDXFXFXFXFXDXDXDXDXDXDXFXFXFXFXFXFXFXFXFXFXFXFXFXFXFXFXFXFXFXFXFXFXFXFXFXFXFXFXFXFXFXFXFXFXFXFXFXFXFXFXFXFXFXFXFXFXFXFXFXFXFXFXFXFXFXFXFXFXFXFXFXFXFXFXFXFXFXFXFXFXFXFXFXFXFXFXFXFXFXFXFXFXFXFXFXFXFXFXFXFXFXFXFXFXFXFXFXFXFXFXFXFXFXFXFXFXFXFXFXCXCXCXCXVXBXBXbXbXnXnXnXuXiXpXpXaXaXaXaXaXaX9XrXqX4X-X_.K.G.A.R.R.R.T.R.T.U.U.W.Q.T.T.T.A.x.4.@.E H Y ^ E E / E E E E E ' ' E E E E ' ' ' ! E R R F G R E R R Q ! ! R R ! ! Q Q Q I P F U U F U U U P F F U U V P P V P I R U U V f d a a k j x F U Q ! ~ U U U U U I I Q ! ! Q Q Q ! ! Q Q Q ! ! o.o.o.o.*.-.*.*.$.$.-.=.=.=.=.=.x.C.C.C.C.D.C.C.P.H.H.H.L.L.L.L.L.L.L.H.H.P.P.D.D.D.D.d.q.8.1.#.( ) Y M v v v v v v i i i 8 8 u F R R R [ ] ] ....g.h.k.k.k.k.k.k.k.k.k.k.k.k.z.z.z.g.h.k.k.h.h.h.h.h.h.g.z.g.g.g.h.h.g.g.g.g.g.g.g.] ' [ [ [ ' ' ' [ [ [ ' [ [ ' ' [ W R K R K K K K K R R W ' ' ' ' ' ' ' ' ' ' ' ' ' ! E Q R R R U F V k f a a y q 3 3 & 3 6 q r r r r q r r r r r r r r r r r 7 7 7 r r r 7 7 4 4 4 4 4 4 3 4 4 4 4 4 4 2 2 2 2 2 2 2 2 4 2 2 2 2 2 4 4 4 7 r y s s s s a s r r 3 3 3 3 2 $ # $ 2 2 7 s ",
"! ! ! ! ! Q Q W Q ~ I I I I I I Q Q ! o.-.-.M.N.B.B.).`.`..X X<X<X4XeX9X0XrXyXyXyXhXyXhXyXyXyXyXhXnXvXvXvXvXbXMXVXVXNXNXNXNXVXVXCXDXDXFXFXFXDXDXDXDXFXFXFXFXFXFXDXFXFXFXDXDXDXDXDXDXCXDXFXFXFXFXFXFXFXFXFXFXFXFXFXFXFXFXFXFXFXFXFXFXFXFXFXFXFXFXFXFXFXFXFXFXFXFXFXFXFXFXFXFXFXFXFXFXFXFXFXFXFXFXFXFXFXFXFXFXFXFXFXFXFXFXFXFXFXFXFXFXFXFXFXFXFXFXFXFXFXFXFXFXFXFXFXFXFXFXFXFXFXFXFXFXFXFXFXFXFXFXFXFXFXFXFXFXFXFXFXCXCXCXCXVXBXBXMXmXnXnXnXuXuXpXpXaXaX9XaXaX9X9X9X9X2X X_.E.T.S.U.U.T.T.T.T.T.U.Q.W.T.T.T.S.A.D.x.+.^ ^ / ^ E E E E E E E ' E Y E R R E E ! R R R R G G U R R R R ! Q R Q ! ! E I I I P U I I F F F V j F F F V h V V j V U U V k a a a f f j U F F U Q ! ~ P U U I I ~ Q Q ! ! ! Q Q Q Q Q Q Q ! ! o. .!  .o.o.$.$.$.=.=.$.=.=.x.=.x.C.C.C.C.H.D.H.H.H.L.L.L.H.H.L.L.P.H.H.H.P.D.C.D.d.d.q.8.$.O._ / Y M c v v v v v v i i 8 8 i d F R R R [ ] ....g.g.k.k.k.k.k.k.k.k.k.k.k.k.k.k.z.z.h.h.k.k.h.h.h.h.h.h.g.g.g.h.h.h.h.g.g.g.g.g.g.g.%.] ' ' ] ] ' ' ' ] ] ' ` ` ` ` W R P C C Z Z V Z V K R W ' ' ' ' ' ' ' ! ! ! ' ' ' ! Q ! ' ' ' ' Q R U F V k f a y y y a a f k j j h h B B h h h h f h B B h h h h h B B B B B B h h h s s h h s s s r s y 0 4 5 4 4 7 0 7 0 r s s s h h h B B B B h h f d s a a a a a s 7 2 2 3 3 r s ",
"W ! ' ' ' ! W Q Q Q I I I I I I Q Q ! o.-.-.h.N.B.B.).).`..X.X<X<X4X9X9X0XiXyXyXyXyXhXhXyXyXyXyXhXnXvXvXvXvXbXMXVXVXBXNXNXVXVXDXCXDXDXFXFXFXDXDXDXDXDXFXFXFXFXFXDXFXFXFXDXDXDXDXDXDXCXCXDXFXFXFXFXCXFXFXFXFXFXFXFXFXFXFXFXFXFXFXFXFXFXFXFXFXFXFXFXFXFXFXFXFXFXFXFXFXFXFXFXFXFXFXFXFXFXFXFXFXFXFXFXFXFXFXFXFXFXFXFXFXFXFXFXFXFXFXFXFXFXFXFXFXFXFXFXFXFXFXFXFXFXFXFXFXFXFXFXFXFXFXFXFXFXFXFXFXFXFXFXFXFXFXFXFXFXFXFXCXCXCXCXVXVXBXBXmXbXnXlXuXuXuXpXaXaXaXaX4X4X4X1X X`.J.H.K.G.A.I.U.U.U.R.R.T.T.W.T.A.S.T.Q.T.S.A.c.4.+.{ / Y F U R R U Y E R F E U F F U R R U R R R R U I R E R Q ! Q E ' ! I I I I U I Q Q U P P F V F P V h a h j k h P V k y y a j V V F I U U F F I U P U U ~ Q Q Q Q Q ! o.! ! ! Q Q ! o.o.o.o.! ! ! o.o.-.$.=.=.=.$.-.=.=.=.x.x.x.w.x.C.H.P.H.H.K.H.H.P.K.H.K.P.H.P.P.D.C.D.d.d.q.8.8.#.( / ^ M c v v v i v v v i i 8 8 u k F E R R [ ] %.g.g.h.k.k.k.k.k.k.k.k.k.k.k.k.k.k.z.z.h.k.k.k.z.h.h.h.h.h.h.h.h.h.h.h.h.g.g.g.g.g.g.g.g.] ] ] ] ] ' ' ' ' [ ` ' [ R R R R R R K V Z V V V K R W ! ' ' W W W ' ' ! ! ! ' ! ! Q ! ! ' ' ' ' W Q Q I R U P P P P V V P I R Q Q I R R R R U P P G R R R R R R R R R R R R R R R G G G R G C Z B h B B s s s s s s s s s S B C G R G G R R P C V Z B B B h h B B B B s y r r r y a ",
"' '  . .! ! Q Q Q I P U I I I ~ ~ Q ;.o.%.-.M.N.).).).).`..X.X<X<X4X9X9X0XtXyXhXhXhXhXhXyXyXhXhXhXkXvXvXvXvXbXmXMXNXMXMXVXVXVXDXDXDXDXDXFXFXDXDXDXDXDXDXDXFXFXFXDXDXDXDXFXFXFXFXFXFXFXFXDXDXFXDXCXCXCXCXFXFXFXFXFXFXFXFXFXFXFXFXFXFXFXFXFXFXFXFXFXFXFXFXFXFXFXFXFXFXFXFXFXFXFXFXFXFXFXFXFXFXFXFXFXFXFXFXFXFXFXFXFXFXFXFXFXFXFXFXFXFXFXFXFXFXFXFXFXFXFXFXFXFXFXFXFXFXFXFXFXFXFXFXFXFXFXFXFXFXFXFXFXFXGXFXFXFXFXFXFXCXCXCXCXCXVXBXbXbXbXnXuXiXuXpXaXaXaX9X9XaX9X1X<X`.F.F.C.H.G.T.U.U.U.R.R.R.W.W.T.T.R.T.T.T.S.A.G.G.D.q.8.+.^ U F F F U U I U F F U U F V U I U U I I V k F U I Q Q Q ! ! ! E Q R I I U I I I V V V j j V V k d j h k V P V h a r h F F F U U U I P j F F U U I U Q ! Q I I Q ' ' { ! ! !  . .! Q ! ! ! o.o.o.*.$.-.=.=.=.=.=.=.=.=.=.=.=.=.C.H.H.H.H.K.K.H.H.D.H.H.H.H.H.P.D.C.D.D.d.d.8.1.O.( ( ) M M c c c v c c p i i ; - w a k U R R R ' ......g.g.h.k.k.k.k.k.k.k.k.k.k.k.k.k.z.z.k.h.k.g.g.h.h.g.z.z.h.k.g.h.h.h.h.h.g.g.g.g.g.g.g...] ] ] ] ' ] ' [ [ ' ' ` R R R R C Z V h h l l f V K R ~ W W R W W E R E ' ' Q R R R Q ' ' ' ' ' ` W W Q R R R R R U U I R Q Q ! ! ! ! ' ! Q W Q [ ' ' ' ' ' ' [ [ [ [ ' ] ' ' ' ] [ ' ' ] ] ' ' [ W R R R C C C Z Z B C A R R G G R R R G R R R R G C Z Z B Z C C C C C Z Z C C C B ",
" . . . .! ! Q Q ! ~ I I I I I ~ ~ Q ;.o.-.h.M.N.B.B.).).`..X X<X<X4X9X9X0XtXyXhXhXhXhXhXyXyXhXhXhXvXvXvXvXvXbXmXMXNXMXNXVXVXVXDXDXDXDXDXFXFXFXFXDXDXDXDXDXDXFXFXDXDXDXDXFXFXFXFXFXFXFXFXDXDXDXCXCXCXCXCXFXFXFXFXGXGXFXFXFXFXFXFXFXFXFXFXFXFXFXFXFXFXFXFXFXFXFXFXFXFXFXFXFXFXFXFXFXFXFXFXFXFXFXFXFXFXFXFXFXFXFXFXFXFXFXFXFXFXFXFXFXFXFXFXFXFXFXFXFXFXFXFXFXFXFXFXFXFXFXFXFXFXFXFXFXFXFXFXFXFXFXFXFXFXGXFXFXFXFXFXFXFXVXCXCXCXVXBXBXmXbXnXuXiXpXpXpXpXaX9X4X9X4X.X).l.' ' *.x.G.T.U.U.U.R.R.R.R.R.T.T.T.T.T.T.G.S.S.G.G.A.D.x.#./ F F F P U Q I I F U I F F I I I I U U U F F U U ! ! ! ! E U R I Q R U V V P V k k k j V P P V k k f f k h d a d d j U U P U U P F x j F F P F F F U I I I I Q ! { o.' ! ! o.o.o.;.;.o.o.o.$.$.-.=.=.=.=.=.=.=.=.=.=.=.x.x.x.C.H.H.H.H.H.H.H.H.D.H.H.D.D.D.D.D.D.d.d.q.8.8.1.O.( ) ) M M c c c c v p i i i w w t k F R R W ` ' ..%.%.g.h.k.k.k.k.k.k.k.k.k.k.k.k.k.k.z.z.k.k.h.k.z.h.h.z.z.z.z.h.k.h.h.h.h.g.g.g.g.%.g.g.g...] ] ..] ] ] ' [ [ [ ` R A C C C C Z V f a a a a f B V P R R U P P U R R R R R P R R R R R R R R R R R R R R R R R U R I Q Q Q ! ! ! ! ' ' ' ' ' ] ] ' ' [ ' ] ] ] ] [ ] ] ] ] ] ] ' ] ] ] ] ' ' ' W W W R R R R R R K R R R ` ` ` R R R R R R R R G C Z Z Z C G R R W R R R K R R [ ",
"o.o.o. . .! ! ! ! Q ~ ~ I I I I Q Q ;.o.-.h.M.N.N.N.).`.`..X X<X<X2X9X9X0XtXyXyXhXhXyXhXyXyXhXhXhXlXvXvXvXvXbXMXMXNXNXNXVXVXVXDXDXDXDXDXFXFXFXFXFXFXDXFXDXDXDXDXFXFXDXDXFXFXDXFXFXFXFXFXDXFXFXFXFXCXCXCXFXFXFXFXGXGXFXFXFXFXFXFXFXFXFXFXFXFXFXFXFXFXFXFXFXFXFXFXFXFXFXFXFXFXFXFXFXFXFXFXFXFXFXFXFXFXFXFXFXFXFXFXFXFXFXFXFXFXFXFXFXFXFXFXFXFXFXFXFXFXFXFXFXFXFXFXFXFXFXFXFXFXFXFXFXFXFXFXFXFXFXFXFXFXFXFXFXFXFXFXFXFXCXCXCXCXVXBXBXBXmXnXlXuXiXpXpXpXaX4X1X1X`.N.g.` C G { x.T.T.U.U.R.U.T.R.R.R.T.T.T.T.T.T.T.G.S.S.A.A.D.D.w.&.{ ! E Y Y U U U F U U U U I U U U V V U U F j F Q ! ! ! U U U I I I V h h j j k a f j V V V V V f f h d t r a k V P U U I U U F j j F F P P F j j F F U U I Q Q ! ! ! Q Q ! o.o.o.o.$.$.$.$.-.$.=.=.=.=.=.=.w.x.x.w.x.C.C.C.D.H.D.H.H.H.H.H.H.H.H.H.D.D.D.D.D.D.q.8.8.1.1.O.( ) ) M M v v c v c v i i < w w i d F F R E ' ' ] ..%.%.g.h.k.k.k.k.k.k.k.k.k.k.k.k.k.k.z.z.k.k.k.k.h.h.k.z.g.z.g.h.k.k.h.h.h.g.g...] ] ..g.g.g.......] ] ' [ ` ` [ ` R A A K R R P V l a a a a a a f h V V V V V V P P P C V V V V P U R U U U R R R R R R R R U P U U U I I I R I I R R W [ ' ] ] ] ' ' ' ] ] ] ] ' ] ] ] ] ....] ] ] ] ' [ [ [ [ R R R R R R R R R R R R R ` R R G G G R R R R A Z Z Z C G R R R ` ' ' [ R R R [ ",
"o.o.o. . .' ' ! ! Q ~ ~ I I I I ~ Q ! o.-.h.M.N.N.N.).`.`..X.X X<X2X9X9X0XtXyXyXhXhXhXhXhXhXhXhXhXlXvXvXvXvXbXMXMXNXNXNXVXVXVXDXDXDXDXDXFXFXFXFXFXFXFXFXDXDXDXDXFXFXDXFXFXFXDXDXDXFXFXDXDXDXFXFXFXCXCXCXFXFXFXFXGXGXFXFXFXFXFXFXFXFXFXFXFXFXFXFXFXFXFXFXFXFXFXFXFXFXFXFXFXFXFXFXFXFXFXFXFXFXFXFXFXFXFXFXFXFXFXFXFXFXFXFXFXFXFXFXFXFXFXFXFXFXFXFXFXFXFXFXFXFXFXFXFXFXFXFXFXFXFXFXFXFXFXFXFXFXFXFXFXFXFXFXFXFXFXFXFXFXCXCXCXCXVXBXBXBXbXnXnXuXuXpXpXpX9X1X.XB.k.[ R B s V { x.S.Z.U.U.U.U.T.R.R.R.T.T.T.T.T.T.T.T.T.G.A.q.0.x.x.q.x.=.+./ E Y F F F F F F F U F F F k k F U P F F F U I I U U U U U F j f f j j k f k V j h f f k k h h f a t f F F P U U U U U F F F U U U U P F F F F U I Q Q Q ! ! Q Q Q ! ! o.o.o.$.$.$.*.$.$.=.=.=.=.=.w.x.C.x.x.C.H.H.H.H.H.H.H.H.H.H.H.H.H.K.H.D.D.D.D.C.C.8.8.1.O.O.( / ) M M v v v v v v v i < , ; 7 e d F F R R ' ] ..%.%.g.g.h.h.k.k.k.k.k.k.k.k.k.k.k.k.k.z.z.k.k.k.g.h.h.k.k.z.z.g.g.k.k.k.k.h.g.g...] ] ..g.g.g...] ] [ [ ' [ ` R R R R R R R R R P B a y y a a a a a f h V V V V P U P C V B k B V P P F F F P R R U U R I R U F V h k k k k j j V V V G U R R [ ' ] ] ] ] ] ] ] ] ' ] ] ' ] ] ] ' [ [ ` ` R R ` ` R R R ` ` R R R R A A A G R G A C C G R R G G C C C C G G R R R R [ ' ' R A A R ",
"o.o. . . .' '  .! W ~ ~ I I I I I W !  .-.h.M.N.N.B.).).`..X.X.X<X2X9X9X0XtXyXyXhXhXhXhXhXhXhXhXlXvXvXvXbXbXbXMXNXNXBXBXBXVXVXDXDXDXDXDXDXDXDXDXFXFXDXDXDXDXFXFXFXFXFXFXDXDXDXDXDXDXDXDXFXFXFXFXFXCXCXCXFXFXFXFXGXGXFXFXFXFXFXFXFXFXFXFXFXFXFXFXFXFXFXFXFXFXFXFXFXFXFXFXFXFXFXFXFXFXFXFXFXFXFXFXFXFXFXFXFXFXFXFXFXFXFXFXFXFXFXFXFXFXFXFXFXFXFXFXFXFXFXFXFXFXFXFXFXFXFXFXFXFXFXFXFXFXFXFXFXFXFXFXGXGXGXFXFXFXFXFXFXFXFXCXCXCXVXVXBXbXbXnXnXnXuXiXpXaX4X1XB.h.[ Z s r y h ! =.c.c.U.U.U.T.T.T.T.T.T.T.T.T.T.T.T.T.Q.E.S.c.x.D.A.D.D.x.8.*.+.{ E E F F F F F F x j F F F F U I I F k j F U U U F k j V h f f k k f h k k d y y a k k f d k k j j F F F F U U U F F P I U U U I I U U U U I Q Q Q Q ! ! !  . . .o.o.o.o.*.$.$.$.$.-.=.=.=.=.w.x.C.C.C.C.C.H.H.H.H.D.H.H.H.H.H.H.G.K.G.H.D.D.D.C.x.q.8.8.@.O.( / ) M M v v v v v v v c i e , - - e d F F P R ' ] %.%.g.g.g.h.h.k.k.k.k.k.k.k.k.k.k.k.k.k.h.h.k.k.z.z.h.k.h.k.h.z.h.g.g.g.h.k.k.h.g.....] ] g.g.g.] ] ` ` [ ' [ ` R R R R R R R P V h h a r y a a a y y a f h V V F U U F V h h k h h V V V V V V U I V V V V V j f a a t a y y y t a a f B V C G R R ` [ ] ] ] [ ' ] ' ] [ [ [ [ [ ` ` ` R L R R ` ` ` ` ` ` ` R R R ` R A A G R G A Z Z C A G C C C C G G G G G R R R [ [ [ [ R R R ",
" . . . . . . .' Q W ~ ~ ~ I I ~ I Q !  .%.h.M.N.N.).`.`..X.X.X.X<X<X9X9X0XtXyXyXhXhXhXhXhXhXhXhXlXvXvXbXbXbXMXMXNXNXMXBXVXVXVXDXDXDXDXDXDXDXDXFXFXFXDXDXFXFXFXFXFXFXFXFXDXDXDXDXDXDXDXDXFXFXDXFXCXCXCXCXFXFXFXFXGXGXFXFXFXFXFXFXFXFXFXFXFXFXFXFXFXFXFXFXFXFXFXFXFXFXFXFXFXFXFXFXFXFXFXFXFXFXFXFXFXFXFXFXFXFXFXFXFXFXFXFXFXFXFXFXFXFXFXFXFXFXFXFXFXFXFXFXFXFXFXFXFXFXFXFXFXFXFXFXFXFXFXFXFXFXFXFXGXGXFXFXFXFXFXFXFXFXFXFXCXCXVXVXBXMXbXnXnXnXuXpXpX4X1XB.h.[ K s 3 4 3 y U $.A.S.U.U.U.T.T.T.T.T.T.T.T.T.T.T.T.T.A.G.G.A.D.S.S.D.D.D.c.x.w.&.+.{ E U F F F F k j F F F k F U U F j j j F U F k t k h h f f d a y d f h d a a k F V h d k F P F V j j F F U F F F F I I F F U I I I I I Q ! ! ! Q ! !  .o.o. .o.o.o.*.-.$.$.$.$.=.&.*.=.=.x.C.C.C.C.C.C.H.P.H.D.D.H.H.H.H.H.H.G.G.H.H.D.D.C.x.w.w.8.1.O.( / ) M M M b b v v v c c v i e w 7 w t h F F R R [ ] %.%.g.g.g.h.k.k.k.k.k.k.k.k.k.k.k.k.k.k.k.k.k.z.z.z.h.z.z.k.h.h.h.h.g.g.h.k.k.h.g.%...] ..g.g.g.] ' R R ` ' ' [ R R R R W W R P V h f a y y a a y a y y a d h k V V V k f a d f f d k k h f f h k V k f f f a a y y y y y y q y t y a d B Z C R R R A ` ' ] ' [ ' ] [ [ [ ` ` ` ` ` ` ` ` L ` ` ` ` ` ` ` ` ` R R R R G A A G G A C B Z C C C C C C G G R R G A G R R R R R W [ ` W ",
" . . . . . . . .! W W W Q W ~ ~ ~ Q '  .-.-.M.N.N.B.).`..X.X.X X1X<X9X9X0XtXyXtXhXhXhXhXhXhXhXhXkXvXvXbXbXbXMXMXNXNXNXBXNXVXVXDXDXDXDXDXDXDXFXFXFXDXDXDXFXFXFXFXDXDXFXFXFXFXFXFXFXFXDXDXDXDXDXCXCXCXCXCXFXFXFXFXGXGXFXFXFXFXFXFXFXFXFXFXFXFXFXFXFXFXFXFXFXFXFXFXFXFXFXFXFXFXFXFXFXFXFXFXFXFXFXFXFXFXFXFXFXFXFXFXFXFXFXFXFXFXFXFXFXFXFXFXFXFXFXFXFXFXFXFXFXFXFXFXFXFXFXFXFXFXFXFXFXFXFXFXFXFXFXFXGXGXFXFXFXFXFXFXFXFXFXFXCXVXVXVXBXMXbXnXnXuXpXaX4X.XB.z.L Z S 0 4 3 3 w P $.S.T.U.U.U.T.T.T.T.T.T.T.T.T.T.T.T.Q.A.A.G.G.S.G.S.A.G.S.D.D.D.x.8.&.} ! Y Y Y F F F U U F F F F F F F F F F F F h a f k k h f d a y f k j j V V P U U V k V P U F F V j F U F V F U F I U F F U I I I Q Q ! ! ! ! ! ! ! ' o.o.! ! o.o.%.*.=.=.=.=.=.*.=.x.C.C.C.x.x.C.C.C.C.D.D.C.C.D.D.D.H.H.H.H.H.D.D.D.D.d.w.&.&.@.O.( / ) ) M b b b v v v v v c p i w w w e a k U R R R [ ' ] ..g.g.h.k.k.k.k.k.k.k.k.k.k.k.k.k.k.k.k.k.k.k.g.z.z.z.z.k.k.k.k.h.g.g.g.g.h.g.g.g...] ] g.g.%.] ' R R R W W R R R W W W W R U V V h d a a t y y t y y y y a d d d h f a y a t a y a t a y y y a f a t y t t y t t t y y y e y t t s h V C R R ` [ ` ` ` ` [ [ [ [ [ [ [ ` L ` [ ` [ [ ` ` ` ` ` ` ` ` ` ` ` ` ` R A A A A A C C Z Z C C Z Z Z C G C G R R G G G R R K A K R W W W ",
" . . . .o. . .' ' ! ! ! ! W W W W W '  .-.h.M.N.N.B.).`..X.X X X X<X9X9X0XtXtXtXhXhXhXhXhXhXhXhXlXvXvXbXbXbXbXMXNXNXNXNXNXVXVXDXDXDXDXDXDXDXDXDXFXFXDXDXFXFXFXFXDXDXDXDXFXFXFXFXFXFXFXFXFXFXDXCXCXCXCXCXFXFXFXFXGXGXFXFXFXFXFXFXFXFXFXFXFXFXFXFXFXFXFXFXFXFXFXFXFXFXFXFXFXFXFXFXFXFXFXFXFXFXFXFXFXFXFXFXFXFXFXFXFXFXFXFXFXFXFXFXFXFXFXFXFXFXFXFXFXFXFXFXFXFXFXFXFXFXFXFXFXFXFXFXFXFXFXFXFXFXFXFXGXGXGXFXFXFXFXFXFXFXFXFXCXVXVXVXVXBXmXnXnXuXrX9X1XB.h.[ S 0 0 0 3 3 & w x #.q.Z.U.U.U.U.T.T.T.T.R.T.T.T.T.T.T.E.T.Q.T.G.S.G.T.G.G.S.A.A.S.D.b.x.4.} ^ E E Y Y Y ! E I E E U F U F F F F F j j j d k k k h k k k k j P U I I I I Q U F F U U P U F F U I P j V U V I I U U I Q I U I Q ! ! ! ! ! o.' o.o.o.! o.%.o.*.*.=.=.=.=.=.=.j.C.C.C.C.x.=.C.x.w.C.D.C.C.C.C.D.D.H.H.H.H.D.C.C.C.C.q.8.$.#.O.( / ) ) ) M b v v v v v v v v i w w e e u d V R R R ` ` [ ] ..g.h.k.k.k.k.k.k.k.k.k.k.k.k.k.k.k.k.k.k.k.k.k.k.z.z.g.k.k.k.k.h.h.g.g.g.g.g.g.g.] ] ] g.h.g.] ' R K K K K K K R R R R R C V V V h d d a y 7 7 y y y y y t t t y d t y y t t t t t y y t y y y y a t t t y a f f t y t y t t t a f B C R R W [ ' ] [ ` ` ` [ ` ` ` ` ` L ` [ [ [ [ [ [ ` ` ` ` ` ` ` D A A A R R A A G G G C C C C C C C Z Z G R C R R R R G R R R R R R W W R R ",
" . . . ... . .'  .' W W W W W Q ! ! ' o.-.h.M.N.N.B.B.`.`..X X X<XeX9X9X0XtXyXyXyXhXhXhXhXyXhXhXhXkXvXvXbXbXMXMXMXMXVXMXNXVXVXVXDXDXDXDXFXFXFXFXFXDXDXDXFXFXFXFXDXDXFXFXFXFXDXDXDXDXDXDXDXFXFXFXCXCXCXFXFXFXFXFXGXGXFXFXFXFXFXFXFXFXFXFXFXFXFXFXFXFXFXFXFXFXFXFXFXFXFXFXFXFXFXFXFXFXFXFXFXFXFXFXFXFXFXFXFXFXFXFXFXFXFXFXFXFXFXFXFXFXFXFXFXFXFXFXFXFXFXFXFXFXFXFXFXFXFXFXFXFXFXFXFXFXFXFXFXFXFXFXFXGXGXFXFXFXFXFXFXFXFXFXCXVXVXVXBXbXmXbXnXhX0X<X`.z.K S s 0 4 4 % * * - x o.t.Z.U.U.T.T.T.T.T.T.W.R.T.T.T.T.T.T.A.S.G.T.T.G.A.A.S.A.A.D.A.A.D.x.0.&.+.} { { E E / E Y E E U F U U F U U F j F U P F V j k V F U F U U P P U I U I U U U F F U U F F F U U V j F U F F I Q Q I U I I Q Q ! ! ! ' ! o.o.o.o.o.o.-.*.-.=.=.=.=.=.=.=.x.C.C.C.C.C.C.=.x.C.C.C.C.C.C.C.D.D.H.H.D.D.D.x.w.w.8.w.w.#.+.( / ) Y Y v v v v v v v v v v v i u e 7 w a k V R R R ` ` ' ] ..g.g.h.k.k.k.k.k.k.k.k.k.k.k.k.k.k.k.k.k.k.k.k.k.k.h.z.k.k.k.k.k.g.g.g.g.g.g.g.....] ] %.%.g.%.' R K A K A C C R P P P P P V h f j h a y 6 6 6 7 6 6 6 6 6 r t a d f f a a a a a f f f a a a a a f f f f f f t t a t t y t y a f B C K R R R [ ' ' ] [ ` L A ` ` L L L [ [ [ [ [ [ ` ` ` L L D D ` D D D D D G G G A C C C C C Z B Z C G C C C G R R R G G R R R R R R R R W ` ` ",
"'  . . ... . .'  .' [ W W W W ! Q Q !  .-.h.h.N.B.B.).`.`.`..X X<X2X9X9X0XtXyXyXyXhXhXhXhXhXhXhXlXvXvXbXbXMXMXNXNXVXBXMXNXVXVXVXDXDXDXDXDXFXFXFXFXDXDXDXFXFXFXFXDXDXFXFXFXFXDXDXDXDXDXDXFXFXFXFXCXCXCXFXFXFXFXFXGXGXFXFXFXFXFXFXFXFXFXFXFXFXFXFXFXFXFXFXFXFXFXFXFXFXFXFXFXFXFXFXFXFXFXFXFXFXFXFXFXFXFXFXFXFXFXFXFXFXFXFXFXFXFXFXFXFXFXFXFXFXFXFXFXFXFXFXFXFXFXFXFXFXFXFXFXFXFXFXFXFXFXFXFXFXFXFXFXFXGXFXFXFXFXFXFXFXFXFXCXCXVXVXBXmXmXbXhXiX2X`.z.L s 0 0 5 2 2 & & & - g / q.Z.U.U.T.T.T.T.T.T.R.R.T.T.T.T.T.T.G.T.T.T.G.G.A.A.S.S.A.A.S.A.D.D.x.0.8.4.=.&.} { / E E ! ! E E ! Y U U U F F I I V V V j V F U I I I I U F U I I U U F F F F F F F F F U U j k F Q E I E ! ! Q E R Q Q ! ! ! ! ' ! o.o.o.o.o.*.*.*.-.=.=.=.=.=.=.=.x.C.C.C.C.C.C.C.C.D.H.C.C.C.C.D.D.H.H.H.H.D.D.q.w.w.w.8.$.#.o.( / ^ Y M v v v v v v v v v v i i e w w t h V G R R R ` [ ] ..g.g.h.k.k.k.k.k.k.k.k.k.k.k.k.k.k.k.k.k.k.k.k.k.k.h.z.z.z.k.k.k.k.g.g.g.g.g.g.g.%.%.] %.%.%.g.g.] [ W R R R A C C V V B h h k f f a t r 6 6 6 6 6 6 6 6 q r t t a a a a a a a a f f f f f f f f f a u f f f f f f t y y q y y f h V C R R R ` [ ] ' ] [ ` ` K K L ` ` [ [ [ [ [ L ` ` ` ` L L L ` A D ` ` ` G A A G C Z B Z C C C B Z C G G G R R R R R R R R R R R R R R R W W W ",
"'  . . ... .' ' ' ' ' ' [ ' ' ' Q Q '  ...-.h.N.B.B.).`.`.`..X.X X<XeX9X0XtXyXyXyXhXhXhXhXhXhXhXvXvXvXbXmXMXNXMXNXBXBXBXNXVXVXVXDXDXDXDXDXFXFXFXFXFXDXDXFXFXFXFXDXFXFXFXFXCXCXCXDXDXCXCXCXFXFXFXCXCXCXFXFXFXFXFXGXGXFXFXFXFXFXFXFXFXFXFXFXFXFXFXFXFXFXFXFXFXFXFXFXFXFXFXFXFXFXFXFXFXFXFXFXFXFXFXFXFXFXFXFXFXFXFXFXFXFXFXFXFXFXFXFXFXFXFXFXFXFXFXFXFXFXFXFXFXFXFXFXFXFXFXFXFXFXFXFXFXFXFXFXFXFXFXFXFXGXFXFXFXFXFXFXFXFXCXCXVXVXVXMXbXMXvXtX2X).h.K S 0 0 0 4 % & & - & - p E 8.D.U.T.T.T.R.T.R.R.E.T.T.T.T.T.T.T.T.G.A.A.A.A.A.A.A.A.A.A.S.A.A.A.x.q.x.b.b.x.&.+.{ ! E / / ! ! / E U U I U I I U j V F F U U Q Q I I I F V F U U F F F F F F F F F F F U U F F U Q Q Q ! ! Q Q Q E Q ! { { ' ' ' ' o.%.%.%.%.%.*.#.*.=.=.=.=.w.x.x.x.C.C.C.C.C.C.C.D.H.H.C.C.C.d.D.D.D.H.D.D.D.C.q.w.8.8.$.#.O./ / ^ ^ M v v v v v v v v v v i i i w 7 w a j U R R R R ` ' ] g.g.k.k.k.k.k.k.k.k.k.k.k.k.k.k.k.k.k.k.k.k.k.k.k.k.z.g.z.z.h.k.k.k.h.g.g.g.g.g.g.%.%.] ..%.%.g.g...] ' ` ` ` R G C C B B d a a t y 7 6 6 6 6 6 6 7 6 q r y t t a a a a a a a a d d d d a a a d f f a a a f f f f f t y y y y f h V V K R W [ [ ' ] [ ' [ [ ` ` ` ` [ [ [ [ [ ` L A A L D L L L L L A R ` ` ` G A Z A Z B S B Z C G Z C G G R R R R R R R R R R R R R R R R R R R R ",
"'  .........] ' ' ' ' ' ' ' ' ' ' ' ' ..-.h.h.N.B.B.).`.`.`..X X X<XeX9X9XtXyXyXyXhXhXhXhXhXhXnXvXvXbXbXMXMXMXNXNXBXVXVXVXVXVXVXCXDXDXDXDXFXFXFXFXFXDXDXDXDXFXFXFXFXFXFXFXCXCXCXDXDXCXCXCXFXFXFXCXCXFXFXFXFXFXFXGXGXFXFXFXFXFXFXFXFXFXFXFXFXFXFXFXFXFXFXFXFXFXFXFXFXFXFXFXFXFXFXFXFXFXFXFXFXFXFXFXFXFXFXFXFXFXFXFXFXFXFXFXFXFXFXFXFXFXFXFXFXFXFXFXFXFXFXFXFXFXFXFXFXFXFXFXFXFXFXFXFXFXFXFXFXFXFXFXFXFXFXFXFXFXFXFXFXCXVXVXVXVXVXMXMXbXyX2X)...K S s 0 r r 3 & & % - - - u E 8.A.S.T.T.Q.R.R.W.R.E.T.T.T.T.T.T.T.T.A.A.A.b.b.b.A.A.A.A.A.A.A.A.A.c.c.b.A.D.c.x.8.&.*.+.+.+.{ / / / I I Q I I I U F P U I I Q Q Q I Q I U F F U F F F U U U U U U F F F U U U I I I Q Q Q Q E Q Q Q ! { o.o.o.{ { o.o.%.%.%.%.*.-.&.*.=.=.=.x.x.C.x.C.C.C.C.C.C.D.C.C.C.C.C.C.d.d.D.D.D.D.D.C.x.w.q.8.8.$.#.O.( / / ^ Y M v v v v v v v v v v i u u w 6 y h V U R R R R [ ] ..g.g.k.k.k.k.k.k.k.k.k.k.k.k.k.k.k.k.k.k.k.k.k.k.k.k.g.z.z.g.h.k.k.k.k.h.g.g.g.g.g...] ] ] %.%.%.%...] [ ` [ ' [ R R R P V h f a y q 6 7 q q q r q q 6 q y t a a t y y y a a d f f a y y y y y a a a a a a a a t a a y a a f k V C F P R R [ [ [ ' ' [ ` ` ` [ [ [ [ [ [ [ ` ` L A A A A A A A A A A A G G G G A Z S Z B B B Z C G G C C G G R R R R R R R R R R R R R R R R R R R R ",
"[ ]  ....... . .[ [ '  .' ' ' '  .'  ...-.h.N.N.N.B.B.).`..X.X X<X2XeX9X9XrXtXtXyXhXhXhXhXhXhXnXvXvXvXbXbXMXMXMXNXVXVXVXVXVXVXVXDXDXDXDXFXFXFXFXFXFXFXFXFXDXDXDXDXFXCXCXFXFXFXFXCXCXCXCXCXCXFXFXCXCXCXFXFXFXFXFXGXGXFXFXFXFXFXFXFXFXFXFXFXFXFXFXFXFXFXFXFXFXFXFXFXFXFXFXFXFXFXFXFXFXFXFXFXFXFXFXFXFXFXFXFXFXFXFXFXFXFXFXFXFXFXFXFXFXFXFXFXFXFXFXFXFXFXFXFXFXFXFXFXFXFXFXFXFXFXFXFXFXFXFXFXFXFXFXGXGXGXFXFXFXFXFXFXFXVXVXVXCXVXVXVXbXjX4X).z.L 0 0 0 4 4 3 % * * % & - - e Y &.S.S.T.T.T.T.T.W.W.W.E.T.T.T.T.T.R.T.T.A.v.v.v.A.A.A.A.A.A.A.A.A.A.G.G.G.A.A.D.D.c.x.x.x.x.x.&.o.{ { ! ! ! Q I I U U I I I I I I Q I Q Q I U U U I U U U F F U Y E F F F U Y Y Y I I E ! ! Q E ! ' E ' { o.+.%.o.o.o.o.o.o.o.%.*.=.*.=.=.=.w.x.C.C.C.C.C.C.C.F.C.C.C.C.C.C.C.C.C.C.D.D.D.C.D.C.q.8.w.w.8.#.+.( ( / ^ ^ Y M c v v v v v c c v p u t u y 7 t k V G R R R ` [ ] ] g.g.k.k.k.k.k.k.N.B.k.k.k.k.k.k.k.k.k.k.k.h.k.k.k.k.z.g.z.g.h.k.k.k.h.h.g.g.g.g.%...] ' ] %...] %.%.] ` R [ ' ' ` R R R R V h d t q r r y y y y q q 6 q y t a a y y y y y a f f d a y y y y y a a a d d a a a y y y y a k V V P P C R R R [ [ [ ` ` L L ` ` [ [ [ [ [ ` L D A A A A K K R K A C C A A A C C Z Z B B B Z Z C C C F G C C A G R R R R R R R R R R R R R R R R R R R R ",
"[ [ ] ........ .[ ' '  . . .' '  . . ...-.h.h.N.N.B.B.).`..X.X X<X2XeX9X9XwXtXtXyXhXhXhXhXhXnXvXvXvXvXbXbXbXMXMXNXVXVXVXVXVXVXVXDXDXDXDXFXFXFXFXFXFXFXFXFXDXDXDXDXFXCXCXFXFXFXFXCXCXCXCXCXFXFXFXCXCXCXFXFXFXFXFXGXGXFXFXFXFXFXFXFXFXFXFXFXFXFXFXFXFXFXFXFXFXFXFXFXFXFXFXFXFXFXFXFXFXFXFXFXFXFXFXFXFXFXFXFXFXFXFXFXFXFXFXFXFXFXFXFXFXFXFXFXFXFXFXFXFXFXFXFXFXFXFXFXFXFXFXFXFXFXFXFXFXFXFXFXFXGXGXGXGXFXFXFXFXFXFXFXFXCXCXDXDXCXVXBXjX2X)...R S 5 4 4 3 3 & & & - $ % % - i U #.S.S.S.T.T.T.T.W.W.E.R.T.T.T.T.T.E.R.T.T.I.A.A.T.T.S.T.T.T.S.S.S.G.G.S.A.A.b.c.D.D.x.x.x.b.x.x.*.*.*.{ o.o.' ! ! Q Q Q Q Q I I I I I I Q Q I I U U E Y U F F U E E E I Y U Y Y U U R E E ! E ! ' ' ! ' o.+.%.%.%.%.%.%.o.o.o.%.*.=.=.=.=.=.=.x.x.C.C.C.C.C.C.F.C.C.C.C.C.C.D.D.D.D.P.D.C.C.D.C.q.8.8.&.#.+.( ( / / Y Y M M v c v v v v c c c p u t u y y d V V C R R R [ ' ] ..g.g.k.k.k.k.k.k.N.N.k.k.k.k.k.k.k.k.k.k.k.h.k.k.k.k.h.z.z.z.h.k.k.k.h.h.g.g.g.g.%.%...' ] %.%.] %.%.' [ ` ` ' [ ` W R R R F V k a t y y y y r q 6 6 6 q y y t t y y a y a a f f a a a a a a a a a a d a a a a y y y a d h V P P G C R R R W ` ` ` ` ` ` [ ] ] ] ` D L D A A A A L K R R R R A C C C C C Z B B B B B B Z C G G F G G G G A G R R R R R R R R R R G G R R G G G R R G ",
"L [ [ ] X.X..... . . . . . . . . . . ...-.h.h.N.N.B.B.).`.`..X X1X<XeX9X9XwXtXyXyXyXhXhXhXhXnXvXbXbXbXbXbXMXMXMXNXVXVXVXVXVXVXVXDXDXDXDXFXFXDXDXDXDXFXDXDXDXFXFXFXFXCXCXCXCXFXFXCXCXCXCXCXCXFXFXCXCXCXFXFXFXFXFXGXGXFXFXFXFXFXFXFXFXFXFXFXFXFXFXFXFXFXFXFXFXFXFXFXFXFXFXFXFXFXFXFXFXFXFXFXFXFXFXFXFXFXFXFXFXFXFXFXFXFXFXFXFXFXFXFXFXFXFXFXFXFXFXFXFXFXFXFXFXFXFXFXFXFXFXFXFXFXFXFXFXGXFXGXGXGXGXFXGXFXFXFXFXFXFXFXFXCXCXDXCXBXbXjX2X)...A S s 5 4 9 3 3 3 6 - & $ $ % ; y F +.x.S.S.U.T.T.T.R.W.T.T.T.T.T.T.T.T.T.T.T.T.T.T.T.T.T.T.Q.T.T.S.S.S.A.A.D.c.c.c.c.D.b.c.x.b.x.x.w.&.=.*.=.=.%.o.o.o.{ { { ! ! Q ! ! I Q Q Q I I I U E E I U Y E E ! ! E E E Q E Q I E E E ! ! ' ' { { { %.+.+.+.+.+.*.*.%.%.*.-.=.=.=.=.w.=.=.w.x.C.C.C.C.C.C.C.C.C.C.C.C.C.C.D.D.C.D.C.w.w.q.q.w.w.#.#.+.O./ / ^ ^ Y Y M c v v v n n v v v p u e e e y a j F C G R R ` [ ] ] g.g.h.k.k.k.k.k.k.k.k.k.k.k.k.k.k.k.k.k.k.k.h.k.k.k.k.k.h.z.z.h.h.k.h.g.g.g.g.g.g.%.%.%.' ] %.] ] ] %.] ' ` [ [ [ [ ' ` R R C j k f a y t y q q q q q q q y y t t y y a a a a h f a y d a a a a a a a a a a a a a a a h B V C P P P P R R R R W ` ` ` [ [ ] ] [ [ L A A A A A A A A A R R R R C C C C B B B B B Z Z Z B V G F F C F G R G G G R R R R R R R R R G A C G G A A G G G G ",
"L W W [  . . . ....... . . . . .%. . ...-.h.N.N.B.B.B.).`.`..X.X.X<XeX9X9XtXyXyXyXyXhXhXhXhXnXvXbXbXbXMXMXMXMXNXNXVXVXVXVXVXVXVXDXFXFXFXDXDXDXDXDXDXDXDXDXDXFXFXFXFXCXCXCXCXFXFXCXCXCXCXCXCXFXFXCXCXCXFXFXFXFXFXFXFXFXFXFXFXFXFXFXFXFXFXFXFXFXFXFXFXFXFXFXFXFXFXFXFXFXFXFXFXFXFXFXFXFXFXFXFXFXFXFXFXFXFXFXFXFXFXFXFXFXFXFXFXFXFXFXFXFXFXFXFXFXFXFXFXFXFXFXFXFXFXFXFXFXFXFXFXFXFXFXFXGXFXGXFXFXFXFXFXFXFXFXFXFXFXFXCXVXCXVXVXbXjX2X`.g.K 5 5 0 4 4 4 3 & & * * O % $ @ * w c / w.S.S.T.T.T.T.R.W.T.T.T.T.T.T.T.T.T.T.T.I.I.I.T.G.T.T.T.T.S.A.A.A.A.D.A.D.D.D.A.G.G.G.D.C.C.C.x.x.x.w.x.x.=.*.=.=.o.o.o.o.{ { { { { { { ! ! ! ! ! ! ! ! E E E ! ! ! ! E ! / { { { { { { { { o.o.%.o.o.+.+.%.o.o.o.*.*.*.*.=.=.=.=.x.x.x.=.=.j.x.x.C.C.C.C.C.C.C.C.C.C.w.d.C.C.C.C.C.w.=.=.w.w.8.&.+.+.O.( / ^ ^ ^ Y M M c v v i < i i i i u u e w 7 7 d F U G G R R ` ' ] g.g.k.k.k.k.k.k.k.k.k.k.k.k.k.k.k.k.k.k.k.k.k.k.k.k.k.k.k.k.h.h.k.h.k.h.g.g.g.h.g.g.%.%.] [ ' ..' [ ] ] ] ' [ [ [ ' ' ] ' ' R F V f f d t t t y y q y y q y y t t t t a a a a a f f a y a a a a s s a a a a a a d h h h C C C C G R R R R K R R W [ [ [ [ [ ` L L A A A Z A A A ` ` A A A A A C Z B B B S B B Z Z V Z Z Z C F V Z V F U R R G G R R R R G R R R R G C C G C C C A G G G ",
"K K W [  . . .]  .........X. . . . .......h.h.N.N.B.B.).`.`..X1X.X<X4X9X0XrXtXyXyXyXlXlXlXlXlXlXzXvXbXbXbXbXmXmXNXBXVXVXBXBXVXVXCXCXCXCXFXFXFXFXFXFXFXFXFXFXFXFXFXFXFXFXFXFXCXCXCXCXCXCXCXCXCXCXFXFXFXCXFXFXFXFXFXFXFXFXFXFXFXFXFXFXFXFXFXFXFXFXFXFXFXFXFXFXFXFXFXFXFXFXFXFXFXFXFXFXFXFXFXFXFXFXFXFXFXFXFXFXFXFXFXFXFXFXFXFXGXFXFXFXFXFXFXFXFXFXFXFXFXFXFXFXFXFXFXFXFXFXFXFXFXFXFXFXFXFXFXFXFXFXCXFXFXFXFXFXFXFXVXCXFXFXDXCXzX2X_. .B s s 0 0 r 3 3 & % * * $ * O * @ @ 7 c / x.A.G.R.T.T.R.R.R.R.T.A.A.T.W.R.R.T.T.T.T.T.T.T.T.G.G.T.T.G.G.A.A.G.A.A.D.A.A.b.b.D.D.H.F.D.D.D.C.x.x.x.x.x.x.x.x.=.=.*.*.o.o.%.*.*.o.o.{ { { ' ! Q ! ! ! ! ! ! { ! ! ! ! ! { o.%.o.o.o.o.o.%.*.*.%.*.*.*.o.o.o.*.+.*.*.=.j.j.=.=.=.=.x.x.x.x.C.C.C.C.C.C.C.C.C.C.C.C.C.C.D.D.C.w.x.q.q.q.q.w.&.#.+.O.( / ^ ^ Y Y Y c v v v n < < < i v i i p i 8 t u k F G R R R ` [ ] ] g.g.k.k.k.k.k.k.k.k.k.k.k.k.k.k.k.k.k.k.k.k.k.k.k.k.k.k.k.z.z.z.k.k.k.k.g.g.g.g.g.g.g.%.%.] [ [ [ [ ' ] ' [ [ ] ' [ ' ] ' ' R R F V k k f a y y q q q q q y t y t t t t y y y a a d d a y y a a s a a d a s s l h h B V C P R R P K P R Z K R R ` [ [ ` [ ` ` L L A A Z A A A A ` ` A A A A A A C Z S S B B B B B B B B V C C C G P R R G G R R R R R R R R R G G G A C G G C C C C C G ",
"K K W W [  . .]  ........... ... .......g.h.k.N.N.B.B.).`.`..X1X1X<X4X9X0XrXtXyXyXyXlXlXlXlXlXlXvXbXbXbXbXbXmXmXNXVXVXVXBXBXBXVXCXHXHXCXFXFXFXFXFXFXFXFXHXHXFXHXFXFXFXFXFXFXFXFXCXCXCXCXCXCXCXCXFXFXFXFXFXFXFXFXFXFXFXFXFXFXFXFXFXFXFXFXFXFXFXFXFXFXFXFXFXFXFXFXFXFXFXFXFXFXFXFXFXFXFXFXFXFXFXFXFXFXFXFXFXFXFXFXFXFXFXFXGXGXGXFXFXFXFXFXFXFXFXFXFXFXFXFXFXFXFXFXFXFXFXFXFXFXFXFXFXFXFXFXFXFXFXFXCXCXFXFXFXCXFXFXDXCXCXCXMXzXeX).' B 0 r 0 4 3 3 3 3 & % * * * $ * * * @ ; g ^ w.A.G.E.R.T.R.R.T.I.A.v.A.T.R.R.T.T.T.T.T.T.T.T.T.T.T.T.T.T.G.A.A.G.A.A.A.A.A.A.A.n.D.D.D.D.D.D.C.x.x.x.x.x.x.j.j.j.j.j.=.*.*.=.=.=.*.%.o.o.o.o.{ { o.o.o.o.o.o.o.o.{ { { { o.o.%.%.%.+.%.*.*.*.*.*.*.*.*.*.*.*.=.*.*.&.=.=.=.=.=.=.j.x.x.x.x.x.C.x.C.C.C.C.C.C.C.C.C.C.C.D.D.C.w.q.q.0.0.8.8.@.O.} ( / / ^ Y Y Y Y v v v n i < < ; < i i i i i w t d k F G R R R ` [ ] g.g.g.k.k.k.k.k.k.k.k.k.k.k.k.k.k.k.k.k.k.k.k.k.k.k.k.k.k.k.k.k.k.k.k.k.k.g.g.g.g.g.%.%.....] [ [ ' ] ] ] ] ] [ [ [ ` ' ] ' ' E R P V B k f a y y q q q q q y t y t t t t t t a a d d d a y a a a a a a d s s B B B Z V C V C R R R R R R K R R R ` [ [ ` L K A A Z Z Z A A A A A L A A A A A A A Z Z Z B B B Z Z B B V V V C C C G P R R C G G G G G G G G G G G G A C C G G A C C A G G ",
"K K K W W [  ... ...................-.-.g.h.M.N.N.N.).).`.`..X1X1X<XeX9X0XwXtXyXyXhXhXlXlXlXlXlXvXbXmXmXmXmXMXNXBXVXVXVXVXVXVXVXFXFXFXFXFXFXFXFXFXFXFXFXFXFXFXFXFXFXDXDXFXFXDXFXFXFXFXFXCXCXCXCXFXFXFXFXFXFXFXFXFXFXFXFXFXFXFXFXFXFXFXFXFXFXFXFXFXFXFXFXFXFXFXFXFXFXFXFXFXFXFXFXFXFXFXFXFXFXFXFXFXFXFXFXFXFXFXFXFXFXFXFXFXFXFXFXFXFXFXFXFXFXFXFXFXFXFXFXFXFXFXFXGXGXGXGXGXFXFXFXFXFXFXFXFXFXFXFXFXFXFXFXCXFXFXFXFXDXVXmXjX2XB. .S s 0 r 4 2 3 3 6 6 & % % % * * * * * O ; i Y &.A.T.W.T.T.T.T.T.A.A.v.A.T.T.R.R.T.T.T.T.T.T.T.T.T.T.T.T.T.G.A.A.G.A.A.A.A.A.A.A.D.D.D.D.D.D.D.D.D.C.D.D.C.x.x.=.x.x.x.=.=.=.=.=.*.=.=.*.*.%.+.%.%.*.*.%.o.o.o.o.o.o.o.o.o.o.o.o.*.*.*.*.*.=.*.*.*.*.*.*.*.*.=.=.&.&.&.&.=.=.j.x.j.x.x.x.x.x.x.x.x.x.x.C.C.C.C.C.C.C.x.C.D.C.w.w.q.0.0.8.8.&.O.O./ / / ) ) Y Y Y Y v v n i < < < : < i i i i i e i d F F F F R R ` [ ] ..g.g.k.k.k.k.k.k.k.k.k.N.k.k.k.k.k.k.k.k.k.k.k.k.k.k.k.k.k.k.h.k.k.k.h.h.h.h.g.%.%...] ] ] ' [ ] ] ] ] ..%.] ] [ ` ` ' ] ] ' Q R U V B h a a t y t y q q q y t y t t t t d a a a d d d a a a a a a a a d h h Z V C C C C V C P R R R R R R R ` ` [ [ ` K A A S S S S A A A A A A A A A A S S S S Z Z Z Z B Z V V V V C F C C C G G P P U C G G G G G C C C C A C C C C C G G G R R R G G ",
"K K K K W [ ] ......................-.-.h.h.N.N.N.B.).).`.`..X X1X<XeX9X0XwXtXyXjXhXlXlXlXlXlXlXzXbXmXmXmXmXmXNXBXVXVXVXVXVXVXVXFXFXFXFXFXFXFXFXDXFXFXFXDXFXFXFXDXDXFXDXDXDXDXDXFXFXFXFXCXCXCXCXFXFXFXFXFXFXFXFXFXFXFXFXFXFXFXFXFXFXFXFXFXFXFXFXFXFXFXFXFXFXFXFXFXFXFXFXFXFXFXFXFXFXFXFXFXFXFXFXFXFXFXFXFXFXFXFXFXFXFXFXFXFXFXFXFXFXFXFXFXFXFXFXFXFXFXFXFXFXFXFXGXGXGXGXGXGXGXFXFXFXFXFXFXFXFXFXFXCXCXCXFXFXFXFXGXDXVXjX2XN.] S l s r 0 2 3 7 3 6 6 & % % % * * * * * @ ; w Y #.A.T.E.T.T.T.T.T.T.I.I.I.T.R.R.R.T.T.T.T.T.T.T.T.T.T.T.T.T.G.G.A.A.A.A.A.A.G.G.S.D.D.D.D.D.D.D.D.D.D.H.H.H.D.x.x.x.x.x.j.=.=.j.j.*.*.=.=.*.*.*.*.*.*.*.*.%.%.%.%.*.%.*.*.*.*.%.o.*.*.*.*.*.*.*.%.*.*.%.o.%.*.=.=.=.=.&.&.=.=.x.x.x.x.x.x.x.x.x.x.x.w.x.x.C.C.C.C.D.C.C.x.C.q.w.8.0.9.8.4.1.@.O.( / ^ ) ) Y Y Y Y Y v v i < < < ; : ; i i e w e e u k F F V C R R ` [ ] ..g.h.k.k.k.k.k.k.k.k.k.k.k.k.k.k.k.h.k.k.k.k.k.k.k.k.k.k.k.h.k.k.k.k.h.g.h.h.g.%.%...] ' ] [ [ ] ] ] ] ..%...] ' [ [ ] ] ] ' ' R R F Z h a a a t y y q q q y t y t t t t f d a a a a a a a a a a s a a d h B C F G C C C C C K K P P P K ` ` [ ` ` ` K A Z S S S S A A L L A A A A A Z S S S S S S B Z B B Z V V V V F P C C C G G P P P R R R R G G C C C C C C C A A G C G G R R R G C ",
"Z Z K K R [ ] ..] ..................-.-.h.h.N.N.B.B.).).`.`..X.X<X<X4X9XqXwXtXyXhXhXlXlXlXlXlXzXzXvXbXbXbXbXmXMXBXBXVXVXVXVXVXVXDXFXDXFXDXFXDXDXDXDXDXFXDXDXDXDXDXDXDXDXDXDXDXDXFXFXFXFXFXFXFXFXFXFXFXFXDXFXGXGXGXGXGXFXFXFXFXFXFXFXFXFXFXFXFXFXFXFXFXFXFXFXFXFXFXFXFXFXFXFXFXFXFXFXFXFXFXFXFXFXFXFXFXFXFXFXFXFXFXFXFXFXFXFXFXFXFXGXGXGXGXGXGXGXGXGXGXGXGXGXGXGXGXGXGXGXGXGXGXGXGXGXFXFXFXFXFXFXFXCXCXCXFXFXGXGXGXNXjX2XN.] A 0 0 4 3 1 $ 7 y 6 7 6 % % % * * $ * * * * ; w F #.D.G.E.T.T.T.T.T.R.T.T.T.T.T.T.T.T.T.T.T.T.T.T.T.T.T.T.T.T.I.I.T.A.A.A.A.I.T.I.A.G.G.G.D.D.D.x.x.D.D.D.D.D.D.x.x.x.x.x.j.j.j.j.j.*.=.j.j.=.*.*.*.=.*.*.*.*.*.%.+.%.*.*.*.*.*.*.*.*.*.*.*.*.*.*.%.*.%.o.o.*.*.=.=.j.=.=.=.=.=.x.x.x.x.x.x.x.x.x.x.x.x.x.x.C.C.C.C.D.x.q.q.q.w.w.8.9.8.1.@.@.O.( ( ) ^ ^ Y Y Y Y Y H v v i < < < < ; < i p i w y u d k P P V C R W [ ' ] g.g.h.k.k.k.k.k.h.z.z.k.h.k.k.k.k.z.z.h.k.k.k.k.h.h.k.k.h.h.h.k.k.k.k.h.h.h.h.%.%.%.%...] ' [ [ [ ' ' ' ] ] ] ] ] ' ' ] ] ] ' ' E R G V B a a a t t y y y y t y t t a a a f d y y t t a y a a a a a a d d h V C F F F C C C C C K R R R R [ ` ` ` ` A A S S S S A A A D ` L A A A A Z Z S Z Z Z B S B Z B B B V V V C C G C C C F G G P P P R R R G C C C C C C C A G G R C C G R R G C Z ",
"Z Z K K L ` [ ] ] ..................-.-.h.h.N.N.B.B.B.).`.`..X.X1X<X4X9X9X0XtXyXhXlXlXlXlXlXlXzXvXvXbXbXbXbXmXNXBXBXVXVXVXVXVXVXDXDXDXDXDXDXDXDXDXDXDXFXDXDXDXDXDXDXDXDXDXDXDXDXFXFXFXFXFXFXFXFXFXFXFXFXFXFXGXGXGXGXGXFXFXFXFXFXFXFXFXFXFXFXFXFXFXFXFXFXFXFXFXFXFXFXFXFXFXFXFXFXFXFXFXFXFXFXFXFXFXFXFXFXFXFXFXFXFXFXFXFXFXFXFXFXFXGXGXGXGXGXGXGXGXGXGXGXGXGXGXGXGXGXGXGXGXGXGXGXGXFXFXFXFXFXFXFXFXCXCXFXFXGXFXDXVXdX XM.[ Z S s 4 2 2 3 4 r y 2 6 6 ; % * * $ * * * * * ; 7 F #.D.S.T.T.T.T.T.T.R.T.T.T.T.T.T.T.T.T.T.T.T.T.T.T.T.T.I.A.A.A.A.A.A.A.A.A.A.A.A.A.G.D.D.D.D.c.x.x.x.x.x.x.C.C.n.x.C.x.x.x.x.x.x.j.=.j.j.j.j.j.=.=.j.=.*.*.=.*.*.*.*.*.*.*.=.=.=.*.=.*.*.*.=.=.*.*.*.*.*.*.=.=.=.=.x.j.=.=.=.j.x.x.x.x.x.x.x.x.x.x.x.x.x.x.x.x.x.x.x.x.q.w.w.8.8.8.8.1.@.O.O.} ( / ) ^ Y Y Y Y Y M H v v i i < < < i i i p i w y u k V P P P P R ` ' ] ..g.h.k.k.k.k.k.k.k.z.z.z.z.k.k.k.k.z.z.k.k.k.k.k.h.k.k.k.h.h.h.h.k.k.k.h.h.h.g.g.%.%.%...] ] [ ` [ [ [ [ ' ' ] ] ] ] ] ] ] ] ' ' Q R P C B f a a t t y t t t y t a a a f f f a y y y t a a y a a a a d h h V V C F F C C C C C K R R [ [ [ ` ` D A A Z S S S S A A L L L A A A Z Z Z Z S B C Z Z B B B B B B Z V V V V C F C C C C C F F F C C C C C Z Z Z G C C C C G R R C G G G G C Z B ",
"S Z K K K ` [ ] ] ..................z.h.h.h.N.N.).B.B.).`.`..X.X<X<X2XeX9X0XtXyXhXhXnXlXlXlXlXvXvXbXbXMXmXMXMXMXMXBXVXVXVXVXVXVXDXDXDXDXDXDXDXDXDXDXFXFXDXDXDXDXFXFXFXFXFXFXDXDXFXFXFXFXFXFXFXFXFXFXFXFXFXFXGXGXFXFXFXFXFXFXFXFXFXFXFXFXFXFXFXFXFXFXFXFXFXFXFXFXFXFXFXFXFXFXFXFXFXFXFXFXFXFXFXFXFXFXFXFXFXFXFXFXFXFXFXFXFXFXFXFXFXFXFXFXFXFXFXFXFXFXFXFXFXFXFXFXGXGXGXGXGXFXFXFXFXFXFXFXFXFXFXFXFXCXCXFXFXDXVXmXwX Xh.[ S s s s r 3 r y 7 7 6 % 6 ; % % % % % * * * * * * ; c +.x.A.T.T.T.T.T.T.T.T.T.T.T.T.T.T.T.T.T.T.T.T.T.T.T.T.A.A.A.A.A.A.A.A.A.A.A.A.A.A.G.G.A.D.D.D.x.x.b.x.x.x.x.b.b.n.C.n.x.n.C.C.x.x.j.j.j.j.x.j.j.j.j.=.=.=.j.j.=.*.*.*.*.*.=.=.l.j.=.=.*.*.*.=.=.=.=.*.*.=.=.x.=.=.x.j.j.j.j.x.x.x.x.x.j.j.x.x.x.x.x.x.x.x.x.x.w.w.w.w.w.8.8.8.8.8.1.#.O.} ( ( / ) ) ) Y M Y Y M v H c v i i < < < p i i u u w e d k V C P R R ` [ ] ..%.g.k.k.k.k.k.k.k.k.z.z.k.k.k.k.k.k.k.k.k.k.k.k.k.k.k.k.k.h.h.h.h.h.k.k.k.h.h.g.g.%.g.%...] ] ' [ [ [ [ [ [ ' ] ..] ] ] ] ' ' ' ' Q R R C B f f t t y y y t y t a f f f f f f a y y y a a a a a d f h h B V V C F G C C C G G R R ` [ [ [ ` ` A A A Z S S S A A A L L L A A A Z Z B Z Z B B Z B B S S B B B Z V C C V V C C V V V C C C C C C C C C C V Z Z G G C C C C G R G G G G C C B B ",
"l S C K K L ` [ ] ................z.h.h.h.N.N.N.).B.B.B.`..X.X.X1X<X<XeX9X0XiXyXhXhXnXnXnXlXnXvXbXmXMXMXMXMXMXBXMXBXVXVXBXBXVXVXVXCXDXCXDXDXDXFXDXFXFXFXFXFXDXDXFXFXFXFXFXFXDXFXFXFXFXFXFXFXFXFXFXFXFXFXFXFXFXGXFXFXFXFXFXFXFXFXFXFXFXFXFXFXFXFXFXFXFXFXFXFXFXFXFXFXFXFXFXFXFXFXFXFXFXFXFXFXFXFXFXFXFXFXFXFXFXFXFXFXFXFXFXFXFXFXFXFXFXFXFXFXFXFXFXFXFXFXFXFXFXFXFXGXGXFXFXFXFXFXFXFXFXFXFXFXFXFXFXFXDXDXDXDXmXkX XM.[ A s s s 4 r 3 6 r 2 $ 6 6 6 ; % % % % * * * * * * * * x +.x.A.G.G.T.T.T.T.T.T.T.T.T.T.T.R.T.T.T.T.T.T.T.T.T.G.A.A.A.A.A.A.A.A.A.A.G.G.A.A.G.G.G.G.G.D.D.A.G.D.n.x.D.D.D.D.n.n.x.x.n.n.x.j.x.j.j.j.j.j.j.=.j.j.*.=.j.j.l.*.j.j.=.=.=.l.l.j.=.=.*.*.*.=.=.=.=.*.=.=.j.j.=.*.x.x.x.x.j.x.x.x.x.j.=.=.j.x.x.x.x.x.x.x.x.w.w.w.w.8.8.8.&.&.&.4.#.#.} ( ( / ) ^ ) Y M M M M M v H c v v i i i < p i e i e e u h V C C R R R ` [ ] ..g.h.k.k.k.k.k.k.k.k.k.k.k.k.k.k.N.k.k.k.k.k.k.k.k.k.k.k.k.h.k.h.z.h.h.k.k.k.h.g.g.g.g...] ] %.] [ ` ` ` [ [ ' ] %.] ] ] ] ' ' ' ' Q R R C Z f f t y t y t t t t a f f f f f f d t y a a f f a d f h k B F U F G G C C C G G R R ` [ [ [ ` A A Z S S S S S A A A L D D L A A Z Z B B B Z B B B B S h h B B Z V C C C C V C C V V V V C C C C C C C C C C C C G G C C C C G G R R G G C Z B B ",
"B Z C A A K ` [ [ ] %.[ g.%.g.......z.z.h.k.N.B.B.B.).`.`..X1X1X1X<X4X9X0XrXiXuXuXhXhXhXlXlXnXlXbXbXmXmXmXmXMXmXVXBXVXVXVXVXVXVXCXCXDXCXDXCXDXCXDXFXFXFXFXCXFXDXFXFXFXCXCXCXFXFXFXFXFXFXFXCXCXCXCXCXCXCXFXFXFXFXFXGXHXFXCXCXGXCXFXFXFXFXFXFXFXFXFXFXFXFXFXFXFXFXFXFXFXFXFXFXFXFXFXFXFXFXFXFXFXFXFXFXFXFXFXFXFXFXGXHXZXHXGXAXGXZXFXFXFXFXFXFXFXFXFXFXFXFXFXFXFXFXFXFXFXFXFXFXFXFXFXFXFXFXFXFXFXFXFXFXFXGXFXcX8X X..W l 0 0 s 0 3 2 3 6 7 6 3 % $ @ 6 ; % % $ @ * X O * * * # u / 8.S.A.A.T.T.W.T.I.[.v.T.T.T.v.R.T.T.T.T.T.T.T.T.A.S.S.S.A.S.A.A.A.S.A.S.S.S.G.G.G.G.A.A.A.D.D.D.x.x.x.x.x.x.x.n.x.x.x.x.x.x.x.j.x.n.F.=.n.j.n.j.j.j.j.=.=.=.=.=.j.j.j.l.*.*.l.j.=.*.j.*.=.*.j.=.=.=.=.=.=.=.=.=.=.=.=.=.j.x.x.x.=.=.=.=.=.=.=.=.w.w.x.x.x.x.w.=.w.8.8.8.8.4.&.&.#.O.} ( / T T Y Y M Y ) Y M M M c c v v i i < i i e i e e t d k C R R K A R [ ] g.g.z.k.k.k.k.k.k.k.k.k.k.k.k.k.k.k.k.k.k.k.k.k.k.k.k.k.k.k.k.k.k.g.z.h.k.k.g.k.h.g.g.g.g.g.] ' ] ] [ ` ` ` [ ' ] ] ..%.%.] ' ' ' ' [ R R R G V k f a t t t y t t t t a f f k j f f d d f a y f d h k V F F F F G R Z R C G A [ ` ` ` ` ` ` A A Z S S S S S Z A A A R ` A A Z S S B B B B B B S B S h h h B V C V V C C V V V C C C C C C C V V V C C C C C V Z R R R G G G R R G G G C Z Z B B ",
"l B Z Z Z K ` [ [ ] ..[ %...-.....z.z.z.h.N.N.B.B.B.B.).`.`..X.X1X1X<X4X9X0XrXrXnXnXnXnXvXbXvXbXmXmXmXMXBXBXBXVXVXVXVXVXVXVXVXVXGXGXGXGXGXGXGXFXDXDXDXDXCXDXDXCXCXCXCXCXCXCXFXCXFXFXFXFXFXFXFXFXFXFXFXFXFXFXFXFXGXGXFXFXCXCXGXZXFXFXFXFXFXFXFXFXFXFXFXFXFXFXFXFXFXFXFXFXFXFXFXFXFXFXFXFXFXFXFXFXFXFXFXFXFXFXFXFXHXFXFXFXGXcXGXFXFXFXFXFXFXFXFXFXFXFXFXFXFXFXFXFXFXDXFXFXFXFXFXFXFXFXFXFXCXCXCXCXFXGXGXGXVXdX XJ.K Z s r a a r 2 7 r y y y 7 7 6 @ ; % @ % $ @ * * & * - * * g { 8.S.A.S.T.T.R.T.A.W.A.W.R.W.v.A.G.G.G.G.S.G.S.S.A.A.D.D.D.D.D.D.D.D.D.D.D.D.D.D.D.D.D.A.D.D.D.D.D.D.D.D.H.H.D.D.F.F.F.C.F.C.F.C.C.j.j.*.F.x.n.=.j.j.j.j.j.j.j.=.j.=.*.*.*.*.*.%.j.=.j.*.=.*.x.=.=.=.=.=.j.x.x.x.=.=.j.j.x.x.C.C.x.x.x.x.x.x.j.j.x.x.x.x.x.w.w.=.&.&.&.$.#.#.+.+.+.( ( / ^ T T Y Y M M M M M M Y H c c c p i i i i i i e e e d h R A A A ` [ ` A g.g.k.k.k.k.k.k.k.k.k.k.k.k.k.k.k.k.k.k.k.k.k.k.k.k.k.k.k.k.k.k.z.h.k.k.k.h.g.h.g.g.g.g.%.%.g.g.g.] [ ` ` [ ] ' ' ] ..%.%.] ' ' ' W R R R G C B f f t y t t y t t y t a f f f k f f y y a y y a h k V F F U P F C R A R A R A ` [ [ [ ` ` D A A S S S S S S Z A A A A A A Z Z Z B B B B Z B B B B B B B B Z C F V C C C V V V V C C C F C C V V B Z V C C C C C R G G G G G G G C C G C Z Z Z Z ",
"l h B Z Z A K ` ` [ ..[ %...%.........z.h.h.N.N.B.).`.`..X.X.X<X<X<X4X9X0XrXtXyXuXyXyXyXhXyXhXjXjXxXzXzXzXvXmXbXmXmXmXmXMXmXMXmXCXZXZXZXZXZXZXZXGXGXGXGXGXGXGXGXGXGXGXGXGXGXGXGXFXFXFXCXCXCXCXCXCXCXFXFXFXFXFXFXcXZXZXHXGXFXFXFXFXFXFXFXFXFXFXFXFXFXFXFXFXFXFXFXFXFXFXFXFXFXFXFXFXFXFXFXFXFXFXFXFXFXFXFXFXFXFXFXZXFXLXGXLXHXGXGXGXGXGXGXGXGXGXGXGXGXGXGXGXGXGXGXGXGXGXGXGXGXGXGXFXFXFXFXFXFXFXFXNXNXcXdX*XF. .K s 0 9 4 r r 2 $ % % % % * * $ $ $ 6 % $ % & $ * = = X X O O e E 8.S.A.S.T.T.T.G.A.T.T.W.A.W.A.T.T.T.T.T.T.T.T.T.G.G.G.G.G.G.G.G.S.S.S.S.G.G.G.G.S.G.S.S.G.G.G.H.C.C.C.C.C.x.x.x.C.C.C.x.C.x.x.x.j.=.F.C.H.=.=.*.j.j.j.=.j.=.=.=.=.=.x.x.C.x.j.*.*.%.=.%.=.*.=.=.=.=.=.=.=.=.=.=.=.=.=.=.j.j.j.x.x.x.x.x.x.x.j.j.w.w.w.w.w.=.&.&.=.=.&.$.#.#.+.+.+.( _ ( / T ^ T ^ Y Y M M M M Y Y H c c v p p p i i i e e u k V A A R ` ` ] ] g.g.g.h.k.k.k.k.k.k.k.k.k.k.k.k.k.k.k.k.k.k.k.k.k.k.k.k.k.k.k.k.k.k.N.k.g.g.g.k.k.k.l.h.g.] ] ] ] l.] [ R ` [ [ ` ] ..%.%.%.' ' ' ' [ R R R P C V f f a t y y t t t a a a f f f f f f y r t a a f V V F U U U U U C G C R G ' ` ` ` ` ` A A S S s S S S S S Z A A R A A Z S S S Z B B B Z Z Z Z Z Z Z Z Z Z C C G C C C V V V V V V C C G F C V Z h B B V C C F F G P G G G G C C C C C C Z Z Z C ",
"s l l B Z C K R R ` ..' %...........g.h.h.N.N.B.B.B.).).).`..X.X2X2X2X9XqX0XwXwXzXvXvXzXbXbXzXbXNXNXNXZXDXDXDXDXDXDXDXDXDXGXGXGXGXGXGXGXGXGXGXGXHXHXHXHXHXZXHXHXHXHXHXHXHXHXHXHXFXFXFXFXFXFXFXFXHXHXFXFXFXGXGXGXGXLXLXGXLXHXcXFXFXFXFXFXFXFXFXFXFXFXFXFXFXFXFXFXFXFXFXFXFXFXFXFXFXFXFXFXFXFXFXFXFXFXFXFXFXFXFXFXAXHXLXAXGXFXHXcXHXHXHXHXHXHXHXHXHXHXHXHXHXHXHXHXHXHXHXHXHXHXHXHXGXGXGXGXGXGXGXGXLXLXGXdX|.-.W l l l s r r r r r q q 6 3 6 6 6 6 % 6 & $ & 3 % * # # O # * ; d E &.H.A.G.T.G.T.G.T.G.T.T.0.G.D.W.A.A.A.H.H.H.H.H.H.D.D.D.D.D.D.D.D.D.D.D.D.D.D.D.C.D.D.D.D.D.D.D.D.D.D.D.F.D.C.C.F.F.C.C.F.C.C.C.L.x.C.*.=.*.x.F.x.j.j.j.j.j.j.j.=.=.*.+.o.+.=.x.j.=.C.*.x.=.=.=.=.=.j.j.x.x.x.x.x.x.x.x.x.x.x.x.C.C.C.C.C.C.x.x.x.w.w.w.w.=.=.=.&.#.#.#.#.+.o.o./ / / T T T Y Y Y Y ^ Y Y Y c M c c c c v p p p i e w w e f j F C G R R R R [ ] g.h.k.k.k.k.k.k.h.h.k.k.k.k.k.k.k.k.k.k.k.k.k.k.k.k.k.k.k.k.k.k.g.h.h.g.h.h.g.g...%.g.%...] ' ' ] ' ` W [ ' ' ' ' ' ' ' ' ' ' ! ! W Q R U P V V d a t y t y y y a a a a a a a a t f f t d f h V V V F F F F V C G R C R C ' [ R [ ` R A A S S s S S S Z Z Z A A R Z Z Z B S S Z S S B Z Z Z C Z Z Z Z Z Z C C G C V V V V V V Z Z V C F C V Z B h B B V C C F F G G G G G G C C C C C Z Z Z Z C ",
"s l l B Z Z K K K R ..R .. .%.h.-.-.-.h.h.j.M.M.).)._._.|.|. X X*X2X2X2XeX8XqXqXjXjXjXjXjXjXjXdXkXkXcXcXcXcXcXNXcXcXcXcXcXNXNXcXHXPXHXPXHXPXHXPXLXLXLXLXLXLXLXLXLXLXLXLXLXLXLXLXGXGXGXGXGXFXGXFXHXHXHXGXGXGXGXGXHXGXHXNXHXxXdXLXFXFXFXFXFXFXFXFXFXFXFXFXFXFXFXFXFXFXFXFXFXFXFXFXFXFXFXFXFXFXFXFXFXFXFXFXFXFXFXFXFXLXLXdXNXLXLXLXLXLXLXLXLXLXLXLXLXLXLXLXLXLXLXLXLXLXLXLXLXLXLXLXGXGXHXHXHXHXHXHX8X8X-XC.o.I l 9 y r 9 3 $ $ 3 6 3 3 & * & & 3 3 @ 3 & + # $ # # # # # * * ; w x #.D.A.G.T.G.T.T.T.A.Q.!.T.#XD.K.G.K.K.K.K.K.K.K.K.K.K.K.K.K.K.K.K.K.K.K.G.K.K.K.G.G.G.K.K.K.K.K.D.D.D.F.F.C.C.C.F.C.C.C.C.C.C.x.x.*.H.C.F.C.x.=.=.=.=.=.=.=.=.=.j.j.x.x.=.=.*.%.=.=.x.{ *.=.=.j.=.=.=.=.=.=.=.=.j.j.=.=.=.=.=.=.j.x.x.x.x.x.x.=.=.=.=.=.=.=.=.=.&.&.$.#.#.o.o.o./ / / / E T T T Y Y Y M Y Y c ^ c c c c c g p u p p u e u f j V R G G ` ] %.%.%.h.h.l.l.l.l.l.l.h.h.h.h.h.h.l.l.k.k.k.k.l.j.l.k.l.l.l.l.k.l.l.l.k.l.l.j.j.%...l.g.-.%.%.-.%.%.] ' ' ' W R R ' ' '  .o.o. . .' ' Q R I U P F V j f f a a a a a a f f f f f f f f 3 d k a y r y d V V V V V V V V B R Q ' R ' ' ' C Z B S s s s s B B B Z C C C C s s s S B S S B S S Z Z C C Z C Z Z Z Z Z C C C C V Z B V V V Z B Z V V V V B B B Z V V C C C C P P R R R G C C C C C Z B B Z Z ",
"a a l h Z C C A ` R W + + . . . . . . . . . .   .       . . . . . . . . + + = = . . . . . . . . . . . . . + + + . . . . . . . . X X . . . . . .                                 . . . . . . . . . . . . . . . . X + = . 9 # t 8XGXFXFXFXFXFXFXFXFXFXFXFXFXFXFXFXFXFXFXFXFXFXFXFXFXFXFXFXFXFXFXFXFXFXFXFXFXFXFXGXAXPXdXK . .                                                     . . . . . . . . 9 9 $ + .         . . . .   . . . o       o . . X % $ . . X . .   o o   o   o O #.D.D.G.T.S.T.T.W.A.T.S.D.c.@ o o                                                               o o o o . . o o o         o       7 x.w.o.j & X             o o o X q P o.=.=.=.j.=.o.= . .   o o o                                   o o o o o                 o o o o         o       o o     o o O o o O O c F x c c c p i , o o             . . . 1 s C ' l.. . . . . . . . . . . . . . . . . . . . . . . . . . . . . . . . . . . . . . 4 R 4 $ . . . . .     . . . + 3 l P     . .         X o . . o                                       = q y 3 # + + $ . . . . . . . . 3 B R R + . . . + + + + . . . . . . . . . . . . + + 1 s B S S B S Z Z Z C C Z Z Z Z Z Z Z Z Z Z C Z B B V V V V B V V V V Z B B V V C C C C C V G P R R G G C Z Z Z Z Z B B Z C ",
"a a l l B Z C C K K R . . . . . . . . o                                         . .     .     .         . . . .                                 o . . . . . . . . . . . . . . .                                     .   X   9 PXGXFXFXFXFXFXFXFXFXFXFXFXFXFXFXFXFXFXFXFXFXFXFXFXFXFXFXFXFXFXFXFXFXFXFXFXFXFXFXFXGXLXcXt   . . . . . . . o . . . . . o . o . . . o o o . o . o o o o o . . .   .           . . o       . o o o o                   % $ .         o o     o     o o.c.A.G.T.G.T.T.W.A.E.T.'.E.O o o o             o o o                           o o o                                             - *.I 6 o o o o o o o . o o o + o   o % F o.C.j.x.*.+   o . X o o o o . . o o o o o o o o o o   o o o o o     o o o o o o o o   o             o X o X o o o X o   o     o o U F x c c p w * O X o                       + f ' . . . . . . .   . . . . . . . . o . . . . . . . . . . . . . . . . + = + +     + + . .     . X X o .         o = . . . . .                                                       o # $ . o o     . .     . . . .   = y h + + . +                               . . . + r B S l B Z Z A C C Z Z Z Z Z C C C C C Z C Z h h V C C V C C V V Z V V V V V C F C C C C C F G P G C Z B B B B B B Z C G ",
"t t a l B Z V Z B C W + . +                   o                   .                                           o                 o o o o o o o o                                                                     #   X   $ LXGXFXFXFXFXFXFXFXFXFXFXFXFXFXFXFXFXFXFXFXFXFXFXFXFXFXFXFXFXFXFXFXFXFXFXFXFXFXFXGXHXLXIX9   = .                                                                       . . . .     .                                 & 3 .                 o o o o { x.A.G.T.G.E.T.T.T.Q.A.Q.G.o O                                                                             o o           o o   o o f o     o   o   o   o         . o     # F o.%.x.=.X   o     o o o   o                                                                                       o   O o o     U x c c g i - o             o     o     o     . $                                                                   .       .       . . .                 o                               o                                         X o     o .                   X     %   .           . . .                   . . . + s B S l B Z Z C C C Z Z Z Z C C C C C C Z C B h h V V C C G C V V Z V C C V C C G G G G G C C C C C Z B B S S S B B C G R ",
"a a f f h B B Z B K V #   o KXKXKXKXLXLXKXKXKXKXKXKXLXSXLXLXKXKX  LXKXLXKXKXKXKX        KXKXKXLXKXKXKX            sXKXKXKXLXLXKXLXLXKXgXo   KXLXKXKXLXLXKXKXKXKXKXKXLXJXKXKXKXKX. SXKXKXKXKXKXLXSXo   # SXKXKXKXLXLXKXSXX     LXGXFXFXFXFXFXFXFXFXFXFXFXFXFXFXFXFXFXFXFXFXFXFXFXFXFXFXFXFXFXFXFXFXFXFXFXFXFXFXFXFXGXHX=   = SXKXKXKXSXKXJX#       SXKXKXKXKXKXsX  X   * JXKXJXKXLXKXfX#   #   KXLXKXJXKXJXKXKXKXKXKXKX#   #   LXKXKXKXKXKXKX      * % .   . KXKXKXLXKXKXLX  o   / q.Z.T.T.I.T.T.T.T.E.S.Q.G.O   X IXKXLXKXLXKXKXX o   o fXKXJXKXJXKXfX    X X KXKXLXKXJXKXsX#       X   SXKXJXKXKXJXKXKXKXKXsX  o   * *     # & { =XsXfXKXSX=X-X/ & X     X # U *.x.*.+ o   KXKXKXLXLXKXKXKXKXJXKXKXLXJXLXKXKXKX    KXKXLXKXKXKXKX        KXKXKXKXKXKXKX        LXKXJXKXLXKXKXJXKXLXKXJX=   o x m g x T o   =     X ~ C.gXSXJXSXsXo.j X   o $         KXKXKXKXKXKXKXo     KXLXKXKXKXKXKX        KXKXJXKXKXKXKXJXKXLXKXKXo   o   .   X o.OXfXJXKXSXfXOXo.f     X .   X SXKXLXKXLXLXKXLXKXKXKXKXKXKXKXJXKXSX    KXKXKXKXLXKXKX      * X     * ! C.fXSXLXJX=XOXk   o   X X o   o JXKXKXKXJX!   X     LXKXLXKXKXKXKX  .   f h B B Z Z Z Z Z Z Z C C Z B S B C C C B V j V V V V V V F C V V V C C G C G G G G P G F G C C F C C B S S h S Z C C G R ",
"y a a a h h B B V V h X   . LXKXKXKXLXLXKXKXKXKXKXKXKXKXKXLXJXJX  LXKXLXKXKXKXKX        KXKXKXKXKXKXLX          o SXKXKXKXKXKXKXKXKXKXfX#   KXKXKXKXLXLXKXKXKXKXLXKXKXKXKXKXLXJXo SXKXKXKXKXKXLXSXo   # IXKXKXKXLXKXKXcXo     LXFXFXFXFXFXFXFXFXFXFXFXFXFXFXFXFXFXFXFXFXFXFXFXFXFXFXFXFXFXFXFXFXGXGXFXFXFXFXFXFXFXGXHX+   + gXKXKXKXJXKXJX&     X JXKXKXKXKXKXfX  X   q JXKXJXKXKXKXsXX   #   KXLXKXJXKXLXKXJXLXSXKXSX    o o KXKXKXKXLXKXKX      * #     o KXKXKXLXKXKXLX  o   / q.D.S.T.A.T.I.T.T.W.S.Q.S.O   o fXKXLXKXLXKXKX# o   # SXKXLXKXLXKXfXo   X # KXKXLXKXLXKX=X#       X   SXKXJXKXKXLXKXKXJXKXJXo           t C.-XJXKXKXKXKXKXKXKXJX=XC.&       f =.=.*.o     KXKXJXKXKXKXKXJXLXKXKXKXKXKXKXKXJXJX    KXKXLXKXKXKXKX        KXKXKXKXKXKXKX        JXKXKXKXJXJXKXJXKXJXKXJXX   o j k m x p   X     f P.LXKXKXJXKXJXKXSXfXL.f             LXKXKXKXKXKXKXo     KXLXKXKXKXKXKX        JXKXKXKXJXJXKXJXJXJXJXLXX   X     =.fXKXKXKXSXSXKXKXJXSXsX=.f       X LXKXLXKXJXJXKXSXJXKXKXKXLXSXJXSXKXLXX   KXKXKXKXLXKXKX    X o   X I L.gXJXLXJXJXKXLXLXgX=Xj X     X   o KXKXKXLXLXC.    o   LXKXLXKXKXKXKX      d h B B Z Z Z Z B B Z Z Z Z B B Z C G C Z V j j k V V V V V V V V V V C C C A A G G G G F C C V C C C B S s h B C G U R R ",
"y y a a s s l h h h V #   # KXKXKXKXKXKXLXLXKXKXLXLXKXKXKXKXKXKX  LXKXLXKXKXKXKX        KXKXKXKXKXKXLX          & KXKXJXKXKXKXLXJXKXKXLXf X KXKXKXKXKXKXLXKXKXKXLXLXKXLXJXKXKXKXo fXKXKXKXLXKXKXfXo   X fXKXKXKXLXKXKXfX.     LXFXFXFXFXFXFXFXCXFXFXFXFXFXFXFXFXFXFXFXFXFXFXFXFXFXFXFXFXFXFXFXFXGXGXFXFXFXFXFXFXDXGXHX.   X =XKXKXKXLXKXKXt     q KXKXKXKXKXKXJXX o   t JXKXJXKXKXKX=XX   X   KXKXLXJXLXJXKXKXKXKXKXKX*   X o KXKXKXKXLXKXKX      * #     o KXKXKXLXKXKXLX  o   / w.D.A.S.A.T.I.I.U.W.S.Q.S.o   o =XKXLXKXLXKXLXt o   t SXKXLXKXKXKXSX#   X q KXKXKXKXKXKXOXX       X & JXKXLXKXLXLXKXKXJXKXKX& o o     # C.SXKXKXKXSXKXSXKXJXKXKXKXSXC.q     # *.&.=.= o X KXKXJXKXKXJXKXKXJXKXLXLXKXKXKXKXKXKX    KXKXLXKXKXKXKX        KXLXKXKXKXKXKX        KXLXLXKXJXKXKXKXKXLXKXKXX   X m k U k @   X   e =XJXKXLXLXSXKXKXKXKXKXKXOXt   X       LXKXKXKXKXKXKXo     KXLXKXKXKXKXKX        KXLXLXKXJXKXKXKXKXKXKXKXX     o C.SXKXKXJXKXJXKXKXLXKXKXKXSXP.  .   # KXKXKXKXKXKXKXKXLXKXKXLXKXKXKXKXKXKXX   KXKXKXKXLXKXKX    #     P &XJXKXKXKXKXKXKXKXKXKXKXOXj     X   o KXLXKXLXKXsXq   X   LXKXLXKXKXKXKX      h h B Z Z Z Z Z Z Z Z Z C C Z Z C A G C Z B k h h B B V V V Z Z Z Z Z V C C C C A G G G G V Z Z V C V B B d B C P P R R R ",
"y y a a a s s h K V P +   X SXJXKXKXKXKXKXKXKXKXKXLXKXKXLXKXKXKX  LXKXLXKXKXKXKX        KXKXKXKXKXKXLX          I KXKXKXKXLXKXKXKXKXKXKXP   SXJXKXKXKXKXKXKXKXKXKXLXKXKXJXLXKXKX  gXKXKXKXLXKXKXgX    X gXKXKXKXLXKXKXfX      LXFXFXFXFXFXFXFXCXFXFXFXFXFXFXFXFXFXFXFXFXFXFXFXFXFXFXFXFXFXFXFXFXGXGXFXFXFXFXFXFXFXGXGXo     L.KXKXKXKXKXKXP     j KXKXKXKXKXKXKXq     j KXKXLXKXKXKXL.        KXKXKXKXKXLXKXJXKXSXLXSXo   o X KXKXKXKXLXKXKX      * #     o KXKXKXKXKXKXLX      ! w.C.A.T.U.T.I.A.A.W.S.Q.S.o     L.KXKXKXLXKXKXj o   U LXKXKXKXKXKXJXe   o f KXKXKXLXKXKXP.X       o I JXKXLXKXKXLXJXKXKXKXKXP   # o   Q sXKXKXJXKXSXKXKXKXJXKXSXKXKXfXo.o     C.=.C.o   o JXJXLXKXKXJXKXKXKXKXKXLXKXKXLXKXKXKX    KXKXKXKXKXKXKX        KXLXKXKXKXKXKX        KXJXLXKXKXKXSXJXLXJXKXLXo   X P x U g X     X L.KXKXLXSXKXKXKXKXSXKXKXKXKXH.#         LXKXKXKXKXKXKXo     KXLXKXKXKXKXKX        KXJXKXKXKXKXSXJXSXJXKXSX      j KXKXLXJXJXKXLXKXKXKXJXKXKXKXSXQ #   X JXKXSXSXSXSXJXKXKXLXKXSXKXSXSXSXKXSXo   KXKXKXKXLXKXKX    #   & L.KXKXKXLXJXKXKXKXKXLXKXKXLXC.&   #   o KXKXKXLXKXJX!   X   LXKXLXKXKXKXKX      h h B Z Z Z Z Z Z Z Z Z Z C C C C C C Z B B B h B B Z V V Z Z Z Z Z Z Z Z C C A C G G G G Z Z Z Z Z B B S B C P P G R R R ",
"y y a a a a s l V s h     9 KXKXKXKXKXKXKXJXSXJXJXSXKXKXKXKXKXKX  LXKXLXKXKXKXKX        KXKXKXKXKXKXLX          -.KXLXKXKXLXKXKXKXKXKXKXo.* KXKXKXKXKXKXKXJXSXJXLXSXKXKXKXKXKXKX  sXKXKXKXJXKXKXUX    o sXLXKXKXKXKXKXsX  .   LXFXFXFXFXFXFXCXCXFXFXFXFXFXFXFXFXFXFXFXFXFXFXFXFXFXFXFXFXFXFXFXFXGXGXFXFXFXFXFXFXGXGXGX. .   =.KXKXLXKXKXKXQ     ! KXKXKXKXLXKXKXj     Q KXKXKXKXKXKX=.  o   o KXKXLXKXJXSXKXSXKXKXKXKX#     X LXKXKXKXLXKXKX      * #     o KXKXKXKXKXKXLX      Q w.D.S.T.A.A.0.t.Z.T.S.Q.S.O     $.KXKXKXKXKXKXQ     ;.KXKXKXKXKXKXLXP     U KXKXKXLXKXKX$.        o =.KXKXKXKXKXKXJXKXKXKXLXo.  #   # C.LXKXJXJXKXKXJXSXJXKXKXJXLXKXKXH.o   X x.%.=.    % KXKXKXKXKXLXKXSXLXJXJXSXKXKXKXKXKXKX    KXKXLXKXKXKXKX        KXLXKXKXKXKXKX        LXKXKXKXKXLXLXKXKXKXKXKX#     j m m p o     j SXSXLXJXKXKXSXSXJXKXKXSXKXKXfXI         LXKXKXKXKXKXKXo     KXLXKXKXKXKXKX        LXKXKXKXKXJXLXKXKXKXKXJX#     =.LXJXKXKXKXKXSXSXSXKXKXKXSXKXKXL.    X JXKXKXKXKXKXKXJXKXJXKXLXKXKXKXKXKXLX#   JXKXKXKXKXKXKX        Q fXKXKXKXLXKXJXSXSXKXKXKXJXKXgXQ   X o   KXKXKXKXKXKXP.      LXKXLXKXKXKXKX      h h B Z C Z Z Z B Z Z Z Z C C Z Z Z Z Z B B B B B B Z V C C C C C C C C C G A G G G G C C V V V Z B h h h B C C C C R R Q ",
"y y a a a a s s h a h . . q sXfXKXKXJXSXKXKXKXKXKXKXKXSXSXKXKXKX  LXKXLXKXKXKXKX        KXKXKXKXKXKXLX          L.KXKXKXLXKXLXKXKXKXJXKXL.q sXSXKXKXJXSXKXKXKXKXKXKXKXSXSXKXKXKX  =XKXKXKXJXKXKX&X  o   =XJXKXKXKXKXKXsX  .   LXFXFXFXFXFXFXCXCXFXFXFXFXFXFXFXFXFXFXFXFXFXFXFXFXFXFXFXFXFXFXFXFXGXGXFXFXFXFXFXFXGXGXLXo =   ! LXKXJXKXKXKXo.    =.KXKXKXKXKXKXKX!     o.KXKXKXKXKXKXo.  X   X KXLXKXKXLXKXKXSXKXJXSXfXq X o o LXKXKXKXLXKXKX      * #     o KXKXKXKXKXKXLX      E w.C.A.S.c.r.} 9.c.T.S.Q.S.O     ! KXKXLXKXLXKXo.  o =.KXLXKXKXKXKXKX!     Q KXKXKXJXKXLX!   o       OXKXKXKXKXKXKXKXLXKXKXLXL.  =   X -XKXKXKXKXKXLX=.P o.KXLXKXKXKXKX&X    # =.o.x.  + & gXfXKXLXLXSXKXKXKXKXKXKXKXSXSXKXKXKX    KXKXLXKXKXKXKX        KXLXKXKXKXKXKX        KXKXKXJXKXKXKXfXKXLXSXfX& X   k x m p     X =.KXKXKXKXKXSXo.P o.JXKXLXLXKXLXC.        LXKXKXKXKXKXKXo     KXLXKXKXKXKXKX        KXKXKXJXKXKXKXfXSXKXJXfXe = = gXKXKXKXJXSXKX=.f -.KXKXKXJXJXKX=X+ # 3 fXSXKXKXKXfXKXKXKXJXKXKXKXKXKXKXJXfX& # KXKXKXKXLXKXKX      X C.JXKXSXLXKXKXo.P *.KXKXKXKXKXLXC.    o o LXKXKXKXKXKXsXt     LXKXLXKXKXKXKX      h B Z Z C Z Z B B B B Z Z Z Z Z Z Z Z B B B B B B Z Z C C C C C C C C C C G G G G G C C V Z Z Z B h h h h h Z C V G R ' W ",
"y y a a a a a s V V P   +   k 3   #   j sXKXJXKXKXKXgXf   X       LXKXLXKXKXKXKX        KXKXKXKXKXKXLX          sXKXKXKXKXKXfXKXKXKXJXKX=X  t q   #   j sXKXJXKXLXKXgXf   X       =XLXKXKXJXKXKXOX  X   =XJXKXKXKXKXKX=X  .   GXFXFXFXFXFXCXCXCXFXFXFXFXFXFXFXFXFXFXFXFXFXFXFXFXFXFXFXFXFXFXFXFXGXGXFXFXFXFXFXFXGXFXLXX %   P LXKXJXKXKXKX-.    OXKXLXKXKXKXKXKX=.    *.KXKXKXKXKXKXI   #   X KXKXKXKXLXKXfX* o # # f   o     KXKXKXKXLXKXKX      * #       KXKXKXKXKXKXLX      ~ w.x.D.A.b.r.} 4.0.T.S.Q.G.O o   x KXKXJXKXLXKX-.  X P.KXJXKXLXKXKXKX*.o o o.KXLXKXJXKXJXU   o   o   sXKXKXKXKXLXfXKXKXKXKXKXsXo X   & sXKXLXKXKXKXKXq   * LXKXKXLXJXKXfXX   X C.=.H.  +   h 6 .     t fXKXLXJXKXKXgXf   X         KXKXLXKXKXKXKX        KXLXKXKXKXKXKX        JXJXKXKXKXKXSXq X # o k   o o I x x u o   # &XKXJXKXKXKXSXf   = SXLXKXLXJXKX=X#       LXKXKXKXKXKXKXo     KXLXKXKXKXKXKX        LXJXKXKXKXKXSXq X # # t       SXJXLXLXSXKXKXf   X SXKXKXKXJXKXIX. X   f o # X   q SXKXKXKXKXSXLX  X # X u   X KXKXKXKXLXKXKX      t -XKXKXJXKXKXKXe   & SXKXJXKXLXKX-XX     o LXKXJXKXKXKXKXo.    LXKXLXKXKXKXKX      h h Z Z C Z Z B B B B B B B Z Z Z Z B B B B B B Z Z C A C C C C A A C C C G G G C C V B B h B B B B h B B B C C C R ' W R ",
"y y a y s s a a y s h   3   #     X   q fXKXLXKXSXKXSXq   X       LXKXLXKXKXKXKX        KXKXKXLXKXKXLX          IXKXKXKXKXSXOXKXJXKXSXKXfXo X     X   w fXKXLXKXSXKXSXq   #       =XJXKXKXJXKXKXOX  X   &XJXKXKXKXKXKX=X  o   GXFXFXFXFXFXCXCXCXFXFXFXFXFXFXFXFXFXFXFXFXFXFXFXFXFXFXFXFXFXFXFXFXGXGXFXFXFXFXFXFXGXFXLX+ 9   f JXKXJXKXKXKX=.    =XKXLXKXKXKXKXKXC.    =.KXLXKXLXKXJXj   #   # KXKXKXLXJXKXJX*       *   *     KXKXKXKXLXKXKX      * #       LXKXKXKXKXKXLX      I =.x.D.S.A.A.6.<.0.T.S.Q.G.O X   u KXKXJXKXJXKX=.  X L.KXJXKXLXKXKXKX=.X o -.KXLXKXJXKXJXj   X   o   fXKXKXKXKXLX@XJXKXKXKXKXSX  X   f SXKXSXLXJXKXKXo   # JXKXKXKXSXKXSX#   o *.+.x.  6   =     o   # SXKXJXKXSXKXSXq   X         KXKXLXKXKXKXKX        KXLXKXKXKXKXKX        KXJXKXKXSXKXKX        q   *   P F g i O   = gXKXKXKXLXKXSXt   X KXKXKXKXJXKXgXo       LXKXKXKXKXKXKXo     KXLXKXKXKXKXKX        KXJXKXKXSXKXKX  o     #   #   JXKXKXKXKXKXgXo X o KXKXJXKXSXKXLX  $   q   o X     KXKXJXKXKXJXKX  o     -   * JXKXKXKXLXKXKX      q &XKXKXLXKXJXKX*   # JXKXLXKXJXKXsX*     o LXKXJXKXLXKXKXH.    LXKXLXKXKXKXKX      h h Z Z C Z B B B B S B B B Z Z Z Z Z Z Z Z Z Z Z C C A G C C C A A C C C G C C C Z B h h s h h h h B Z C C R R R R ' R B ",
"y y a a s a a a h f r + . . .   q       KXKXKXLXKXKXLX            LXKXLXKXKXKXKXX   o X KXKXKXKXLXKXKXX   X   q LXLXKXJXKXKXt KXLXKXJXKXSXu   X o o     KXKXKXKXKXKXKXo     X   o C.KXKXKXKXKXLXC.o   X C.KXKXKXKXLXKX=.#   . JXFXFXFXFXFXCXFXCXFXFXFXFXFXFXFXFXFXFXFXFXFXFXFXFXFXFXFXFXFXFXFXFXGXGXFXFXFXFXFXFXFXLXPXJ.  X X JXLXKXJXKXJXL.    fXKXKXLXKXJXKXLXsX    /.SXKXSXKXKXSXX   #   X KXKXSXKXKXKXKXX o         #   X KXKXKXKXLXKXKX      * # X     KXKXKXKXKXKXLX      I =.w.c.A.b.b.6.c.b.A.D.Q.x.!     # fXKXJXKXKXKXH.  X fXKXLXKXJXKXKXKX=Xo   OXKXKXKXJXKXfXw   X X   f SXKXLXKXJXKXt KXKXLXKXKXKXX X   # LXKXJXKXKXKXSXI   # LXKXKXKXLXKXJX#   o =.x.+.. . .   . f     X KXKXLXKXKXKXLX      U       KXKXKXKXKXKXKX  #     JXKXKXKXKXKXKX        KXJXKXKXKXKXLXX o         o o j k x j o o o KXKXKXLXKXKXLX      KXKXKXKXLXKXJX        LXKXKXKXKXKXKXo     KXLXKXLXKXKXKX        KXKXKXKXKXKXKX    X       o   JXLXKXJXKXKXSXI   o JXKXJXKXKXJXJX.     . X #   X . KXKXKXKXLXKXKX      t o     KXKXKXKXLXKXKX        LXKXKXKXKXKXKXo     LXKXKXKXKXKXJX        KXKXKXKXKXSXKXSXq   KXKXKXKXJXKXJX      h B B Z Z C C Z B B B B Z B Z Z Z Z Z Z Z Z Z Z Z C C Z Z C C C A C C C A G C C Z V Z B h h B Z B h B Z C G R R Q R R G C ",
"y y a a s a a a h V h a a h V h y o     KXKXKXKXKXKXLX            LXKXLXKXKXKXKX        KXKXKXKXKXKXKXX   X   f KXLXKXJXKXLXq KXLXKXJXKXSXP   o o o     KXKXKXKXKXKXKXo     X   o =.KXKXKXKXKXLXC.o   X =.KXKXKXKXLXKX=.#   . JXFXFXFXFXFXFXFXFXFXFXFXFXFXFXFXFXFXFXFXFXFXFXFXFXFXFXFXFXFXFXFXFXGXGXFXFXFXFXFXFXFXLXHX|.  X o SXLXKXJXKXKXOX  o JXKXKXKXKXJXKXKXgX    OXJXKXJXKXKXfXX   X   o KXJXJXKXLXKXLXo # o   X   &   X KXKXKXKXLXKXKX      * # X     KXKXKXKXKXKXLX      ~ =.x.D.A.A.T.b.b.b.G.A.Q.D.o.    # gXKXLXKXKXKXOX  # fXKXJXKXKXKXKXKXsXX   OXKXKXKXJXKXgX&   o o   P JXKXLXKXJXKXq KXKXLXKXLXKXf X   X fXKXJXKXJXKXJX=.X X IXKXKXKXJXJXgXf X X x.j.F.*.C.x.=.=.Q o   X KXKXKXKXKXKXKXo o   Q       KXKXLXKXKXKXKX  # o & KXKXSXKXKXKXKX        KXJXKXLXJXKXKX    o           x k x j o o o KXKXKXLXKXKXLX      KXKXKXKXLXKXJX        LXKXKXKXKXKXKXo     KXLXKXKXKXKXKX        KXLXKXKXLXLXKX  X #   X o # X JXKXKXKXLXLXKXC.* f SXKXKXKXLXJXKX  X & P Q U o o o KXKXLXKXLXKXKX      t o     KXKXKXKXLXKXKX        LXKXKXKXKXKXKXo   . LXKXKXKXKXKXJX      o KXLXLXLXKXKXKXLX*.  KXKXKXKXLXKXKX      h B B Z C C C Z B B B B Z B Z C C Z Z Z Z Z Z Z Z C C C Z A A A A C A A C C C Z Z Z Z B h h B Z B h B C P R R ' W R R R R ",
"y y a a a a a a a f h f h V V j a X     KXKXKXKXKXKXLX            LXKXLXKXKXKXKXX #   # KXKXLXKXKXKXKXo   o   Q KXLXKXLXKXfX* SXKXKXLXKXLX!   o o o     KXKXKXKXKXKXKX      X   o =.KXKXKXKXKXKX=..   o =.KXKXKXKXKXKX-.X   o JXFXFXFXFXFXCXFXFXFXFXFXFXFXFXFXFXFXFXFXFXFXFXFXFXFXFXFXFXFXFXFXFXGXGXFXFXFXFXFXFXZXGXGX8Xo X   sXJXKXJXKXKX&X  & KXKXJXKXLXJXKXKXSXX   =XKXKXKXKXKXsXo   X     KXKXKXKXLXKXLX        #   X     KXKXKXKXLXKXKX      % # o     KXKXKXKXKXKXKX    o I *.x.D.A.A.R.T.A.b.T.G.E.K.w.o   + =XKXKXKXKXKX=X  q SXKXJXKXKXKXKXKXfX*   &XKXKXKXJXKX=X#   o o   ! LXKXKXKXLXSX* SXKXJXKXLXKX! o   X sXKXKXKXKXKXKXSX=.# *     X   o &       j.%.=.*.C.=.*.=.%.*   o KXKXKXKXKXKXKXo X o o.X     KXKXLXKXKXKXKXX     # LXKXKXKXKXKXKX        KXJXKXKXKXKXKX    X   X o =   U k F j o o o KXKXKXKXKXKXLX      KXKXKXKXLXKXJX        LXKXKXKXKXKXKXo     KXLXKXKXKXKXKX        KXJXKXKXKXKXKX    o   X       =XLXLXKXKXJXKXSXL.  #   o #   o X     + U ' Q .     KXKXKXKXKXKXKX      t o     KXKXKXKXKXKXKX        LXKXKXKXKXKXLXo   o LXKXKXKXKXKXLX      o KXKXLXJXKXKXKXKXsX  KXKXJXKXKXKXKX      h B Z Z Z C Z Z B B B B Z Z Z C C Z Z Z Z Z Z Z Z C C C C C C C C C C C C Z Z B B Z Z B h h h h h h B F R R Q ' Q R C G R ",
"y y a a a a a a s f h f h V V h f X     KXKXKXKXKXKXLX            LXKXLXKXKXKXKX      & fXLXKXKXKXKXKX      o =.KXLXKXKXKX=X= sXKXKXKXKXKXC.      o     KXKXKXKXKXKXKX      X     *.KXKXKXKXKXKXo.      *.KXKXKXKXKXKXo.o   X JXFXFXFXFXFXCXFXFXFXFXFXFXFXFXFXFXFXFXFXFXFXFXFXFXFXFXFXFXFXFXFXFXGXGXFXFXFXFXFXFXFXGXLXdX= o   &XLXKXKXKXKXsX  j KXKXJXKXKXKXJXKXJXq   =XKXKXKXKXKXOXo   o     KXKXKXKXJXKXSXq # X * q       # KXKXKXKXLXKXKX      % # o     KXKXKXKXKXKXKX    o U *.=.x.b.b.T.T.T.A.T.G.G.E.D.    X _.KXKXKXKXKXsX  j KXKXJXKXKXKXKXKXJXt   sXKXKXKXLXKXOXX         w.KXKXKXKXLXsX# sXKXLXKXLXKX=.X   X L.JXKXKXKXSXKXKXKX=Xo.    X o   #   X + F.n.F.j.=.=.j.j.=.*     KXKXKXKXKXKXKXo X o o.#     KXKXLXKXKXKXSXt # o q fXJXJXKXKXKXKX        KXJXKXLXKXKXSXq   o   &       j j F j o   o KXKXKXKXKXKXLX      KXKXKXKXKXKXLX        LXKXKXKXKXKXKXo     KXLXKXKXKXKXKX        KXLXLXKXKXKXSXq   X # t   X * OXKXLXJXKXKXKXKXJXsX*.X       X o X     k Q I X X   KXKXKXKXKXKXKX      t o     KXKXKXKXKXKXKX        LXKXKXKXKXKXKXo   o KXKXKXKXKXKXLXo     o KXKXKXKXKXKXKXKXJXq KXKXLXKXKXKXKX      h B Z Z Z Z Z Z B B B B Z Z Z C C C Z Z Z C Z Z Z C A A C C C C C C C C C B B B B B B h h h h h h B V U R R R R R P C F P ",
"y y a a a y a a a a f f h V V V k X     KXKXKXKXKXKXLX            LXKXLXKXKXKXKXKXKXKXSXKXKXKXJXKXKXLX      X OXKXJXKXKXKXL.X OXKXKXKXKXKXOXX           KXKXKXKXKXKXKX      X     o.KXKXLXKXKXKX!       o.LXKXKXKXKXKX!     X JXFXFXFXFXFXCXCXFXFXFXFXFXFXFXFXFXFXFXFXFXFXFXFXFXFXFXFXFXFXFXFXFXGXGXFXFXFXFXFXFXGXFXLXcX=     P.KXKXKXKXKXgX  Q KXKXJXKXKXKXJXKXKXf   sXKXKXKXKXKXP.  o       KXJXLXKXKXKXKXfXJXLXLXfXt X     SXKXKXKXKXKXKX      # X o   o KXKXKXKXKXKXKX    o I +.=.w.b.x.G.G.T.A.T.G.G.E.G.    o C.KXKXJXKXKXfX  ! KXKXJXKXKXKXKXKXKXj   gXKXKXKXKXKXC.  o     X OXKXKXKXKXKXOXX OXKXKXKXLXKXOX# o   ! gXKXKXKXSXKXJXKXKXSXOXt o     X       =.j.x.x.=.*.=.*.*.=     KXKXKXKXKXKXKX  o   o.X     KXKXLXKXKXKXKXfXSXJXSXKXKXKXKXKXKXKX        JXLXKXKXKXKXKXSXKXKXKXSXq X X U F F V .   o LXKXKXKXKXKXLX      KXKXKXKXKXKXLXo       LXKXKXKXKXKXKXo     KXLXKXKXKXKXKX        JXKXKXKXKXKXKXSXKXKXLXfX&     t JXKXLXKXKXKXLXKXKXfX=.j o   X # .   + P ! R . .   KXKXKXKXKXKXKX      t o   o KXKXKXKXKXKXKX        LXKXKXKXKXKXKXo   o KXKXKXKXKXKXKXo       KXKXKXKXKXKXKXKXKX=.KXKXKXKXKXJXKX      B B Z Z Z Z Z B B B B B B Z Z C C C Z Z Z C Z Z Z C A G C C C Z V Z Z Z Z B B B B B B h h h h h h B V R R R R R P P P G F ",
"y y a a a y a a a a a a l h B h k X     KXKXKXKXKXKXLX            LXKXLXKXKXKXKXLXJXKXJXLXJXKXKXKXKXJX  o   # gXKXJXKXKXKXC.o C.KXKXKXLXKXsX#           KXKXKXKXKXLXKX  o   #     ! KXKXLXKXLXKX~   o   ! JXKXKXKXKXKXQ   . = GXFXFXFXFXFXCXCXFXFXFXFXFXFXFXFXFXFXFXFXFXFXFXFXFXFXFXFXFXFXFXFXFXGXGXFXFXFXFXFXFXGXFXLXHX=     $.KXLXKXJXKXSXo =.JXKXKXKXSXKXLXKXKXI X gXKXJXKXLXKX-.  X       KXKXKXKXKXJXKXKXKXKXKXSX&   X X KXKXKXKXLXKXKX      # X o   o KXKXKXKXKXKXKX      Q *.*.q.c.x.A.A.T.T.T.G.G.G.G.o     %.KXKXSXKXKXJXX =.KXJXKXKXSXKXKXKXKXI   fXKXKXKXKXKX$.  X     # sXKXLXKXKXKXC.o C.KXKXKXJXKXsX#     q P.JXKXKXKXKXKXKXKXKXKXsXo.q   X X & y j.x.*.F.x.j.*.=.%.X   o KXKXKXKXKXKXKX      ! o     KXKXLXKXKXKXKXKXKXKXLXKXJXSXKXKXKXKX        KXKXLXLXLXSXLXKXLXLXKXLX      j F F F o   o LXKXKXKXKXKXLX      KXKXKXKXKXKXLXo       LXKXKXKXKXKXKXo     KXLXKXKXKXKXKX        KXKXJXKXKXSXKXKXKXKXKXJX&   o & L.KXKXKXJXKXKXLXKXKXKXsX! X         + P Q U       KXKXKXKXKXKXKX      t o   o KXKXKXKXKXKXKX        LXKXKXKXKXKXKXo   o KXKXKXKXKXKXKXo       KXJXKXKXKXKXKXKXKXfXKXKXKXKXKXJXKX      B B Z Z Z B B B B B B B B B Z C C Z Z Z Z Z Z Z Z C C C C Z Z Z Z B B B B B B h B B B h h h h h B V P R R R R G P R R R G ",
"y y a a a y y a j h h V V B B V k X     KXKXKXKXKXKXLX            LXKXLXKXKXKXKXKXKXKXKXLXLXKXKXKXKXJX  X   # SXKXJXKXLXKXo.  o.KXKXKXJXKXSX*           KXKXKXKXKXLXKX  o   # o   I KXKXJXKXLXKXU   X   Q JXKXKXKXKXKXI   o # GXFXFXFXFXFXCXCXCXFXFXFXFXFXFXFXFXFXFXFXFXFXFXFXFXFXFXFXFXFXFXFXFXGXGXFXFXFXFXFXFXGXHXLXLX#     I KXJXKXJXKXJXX H.LXKXKXLXsXKXKXKXKXo.# SXKXSXKXLXKX!   X       KXKXKXLXKXKXKXKXJXLXKXSX#   o o KXKXKXKXLXKXKX      # X o   o KXKXKXKXKXKXKX      ! +.*.w.D.b.b.b.v.T.G.T.E.G.H.X o   Q JXKXSXKXKXKX# C.KXJXKXKX=XKXKXKXKXo.X SXKXKXLXKXKX!   #     * fXKXJXKXLXKXo.  o.KXLXKXJXKXSX# o   o f L.SXKXKXSXLXKXJXJXKXKXfXL.t       X { j.%.j.=.x.=.j.o.X   X KXKXKXKXKXKXKX  o o !       KXKXKXKXKXKXLXKXSXJXSXKXKXKXKXKXKXKX        KXKXLXKXKXKXLXKXKXKXLXKXX X o V F U F X . . KXKXKXKXKXKXLX      KXKXKXKXKXKXLXo       LXKXKXKXKXKXKXo     KXLXKXKXKXKXKX        KXKXJXKXKXKXKXKXLXSXKXJXo       t OXJXKXSXLXKXLXSXKXKXKXSXC.t   X . + h Q I + .   KXKXKXKXKXKXKX      t o   o KXKXKXKXLXKXKX      o LXKXKXKXKXKXKXo   o LXKXKXKXKXKXKXo       KXLXKXKXLXKXKXKXKXKXKXKXKXJXKXKXKX      B B Z Z B B B B B B B B B B Z Z C Z Z Z Z B B B Z C C C F Z V Z B B h h B B B B B B B h h h h B V F U R R R P G G R R R R ",
"y y a t a y y a a a l h h f h f f X   o KXKXKXKXKXKXLX            LXKXLXKXKXKXKXKXKXLXKXKXKXKXKXKXKXJX  X   * LXKXLXKXLXKX!   I KXKXKXSXKXSX&           KXKXKXKXKXLXKX  o o # o   I LXKXJXKXJXKXK   X   I JXKXKXKXKXKXI   o & LXFXFXFXFXFXCXCXCXFXFXFXFXFXFXFXFXFXFXFXFXFXFXFXFXFXFXFXFXFXFXFXFXFXFXFXFXFXFXFXFXFXZXLXLX&     f KXJXKXSXKXKX# OXKXJXKXJXL.JXKXJXKX-.& SXKXSXKXKXKXI   X       KXJXKXLXLXKXLXLXKXKXKXJX&   X o KXKXKXKXLXKXKX      # X     o KXKXKXKXKXKXKX      ! o.+.w.D.b.b.b.b.G.G.G.Q.H.H.# o   P SXKXSXKXLXKX# L.KXJXKXJXL.KXKXKXKXo.# JXKXKXJXKXLXQ   #     & SXKXSXKXLXKXI   Q KXLXKXJXKXKX= X X     f H.KXKXJXKXKXKXKXKXKXKXKXP.q o X . a j.l.*.%.x.=.%.o.X   X KXLXKXJXKXKXKXo X X o.o     KXKXLXKXKXKXKXKXJXKXKXKXKXJXKXKXKXKX        KXKXKXKXJXKXLXJXJXKXLXKX      U U U F + . . KXKXKXKXKXKXLX      KXKXKXKXKXKXLXo       LXKXKXKXKXKXKXo     KXLXKXLXKXKXKX        JXKXKXKXJXLXKXLXKXJXKXKXX   #     q C.KXKXKXKXKXKXKXSXLXKXKXC.&       y U I .     LXKXLXKXKXKXKX      t .   o KXKXKXKXLXKXKX      o KXKXKXKXKXKXKX    o LXKXKXKXKXKXKXo       KXKXKXKXKXKXKXKXKXKXJXLXKXJXKXKXKX    . B B Z B B B B Z B Z B Z B Z Z C Z Z B Z Z B B B Z C C C C V V V Z B B B h B B B B B h h h h h B C U R R R Z C C G C G R R ",
"t t y y t t f f f f f d f h h j k X     KXKXKXKXKXKXLX            LXKXLXKXKXKXKXKXKXKXSXKXJXKXKXKXLXKX  X   o.LXJXKXSXKXJXq   q KXKXLXJXKXJX!           KXKXKXLXKXKXKX  +   I   . & KXKXKXLXKXKX9 o o   & KXKXKXKXKXLXq q   :.LXGXAXFXFXxXFXCXFXFXCXFXxXFXFXAXFXFXFXFXFXCXCXCXCXCXFXCXFXFXAXGXAXFXFXFXFXFXFXFXFXFXAXLXdX .  # . KXJXKXLXKXJXq fXKXKXKXKX& KXKXKXLX=XX KXLXKXKXKXKXo   o o     KXKXKXLXKXSXKXLXKXKXKXJX&   o # KXKXKXKXLXKXKX    o # X     o KXKXLXLXKXKXLX      { o.*.=.x.x.x.x.D.D.C.G.G.].H.h +   y SXKXJXKXLXKX& fXKXKXKXKXt KXLXKXKX=X# KXKXKXSXKXfXq   o     ! LXKXJXLXJXKX*   t JXKXSXKXJXKXQ     o o     j OXLXKXKXSXKXKXKXJXLXKXOX*   X + j.j.j.j.j.*.*.*..   . KXLXKXLXKXKXKX    o o.      KXKXLXKXKXKXKXSXKXKXJXKXKXLXLXKXKXKX        KXKXJXKXKXSXKXKXKXKXKXJXX   X R W R [ . .   LXKXKXKXKXKXKXo     KXKXKXKXKXKXLX      X JXKXLXKXKXKXKXo     KXLXKXKXKXKXKX        KXKXJXKXKXSXKXKXKXJXKXJX#   X   X     P OXKXKXKXKXKXJXKXJXKXKXL..   .   I U .     KXKXLXKXKXKXKX  o   j       KXKXKXKXLXKXKX        KXKXKXKXKXKXKX      KXKXKXKXKXKXJX        KXJXKXJXKXLXKXKXKXKXKXKXKXKXKXKXKX  o   f h V Z C Z Z Z Z Z Z Z Z A Z S G s Z C A Z B Z V C C C C C C V Z B B B h a f k k h h h B B Z V C R R R C C G C B B G R G ",
"t t t t t t f f f f f f f k k j k X     KXKXKXKXKXKXLX            LXKXLXKXKXKXKXLXJXJXgXKXKXKXJXKXLXKX  X   =.KXKXKXLXKXJX*   # JXKXKXJXKXJX*.          KXKXKXKXKXKXKX  X   !   . % KXKXKXLXKXKX&   o   * KXKXKXKXKXKXz =   ! LXGXCXFXGXZXGXZXCXCXZXGXAXGXFXCXFXFXFXFXFXFXFXFXFXFXFXAXCXCXZXFXFXFXFXFXFXFXGXGXFXGXZXLXAXM.  X . KXLXKXLXKXJXj SXKXKXKXSX# SXKXKXKXgX& KXKXKXKXKXJXo     o     KXJXJXSXKXLXKXgXSXJXJXfXe   o   KXKXKXKXLXKXKX    o # X     o KXKXLXLXKXKXLX      o.o.&.x.x.n.D.F.H.D.F.H.H.G.C.F +   y IXKXJXKXLXKXf SXKXKXKXJX# JXKXKXKXsXq KXKXKXSXKXgXq   o     o.JXKXLXKXKXLX#   * SXKXLXKXKXKX*.X X X   o o   f =.=XKXKXKXJXKXLXKXKXgXU   . + =.j.j.j.j.*.*.*..   . KXLXKXLXKXKXKX    o o.      KXKXLXKXKXKXKXgXfXfXsXKXKXKXKXKXKXKX        KXKXJXLXKXJXKX7XKXKXKXSXq     U ` R [ . .   LXKXKXKXKXKXKXo     KXKXKXKXKXKXLX      X JXKXKXKXKXKXKXo     KXLXKXKXKXKXKX        KXKXJXLXKXJXKXsXKXKXKXSXq X X         X t =.=XKXKXKXJXKXKXKXKXSXa . .   U U .     KXKXLXKXKXKXKX  .   j       KXKXKXKXLXKXKX        KXKXKXKXKXKXKX      KXKXKXKXKXKXJX        KXJXKXJXKXKXKXgXKXKXKXKXKXKXKXKXKXo     h B V B B S S S S S S S S C C S G S A Z C B h h B B B Z Z V V Z Z B B V C j j V k h f h h B V C G R R G Z C G C Z C R R G ",
"t t t t t t f f k f f f f k h j f X     KXKXKXKXKXKXLX            LXKXLXKXKXKXKXo X * t SXKXKXKXKXKXKX  o   H.KXJXLXJXKXgX#   o SXKXKXLXKXKXC.X         KXKXKXKXKXKXKX  X   -.    # KXKXKXKXKXKX*   o   # LXKXKXKXKXKX*   . M.GXHXCXAXCXcXFXZXFXFXZXFXcXFXAXCXZXFXFXFXFXFXFXFXFXAXCXZXFXZXFXAXCXFXFXFXFXGXGXGXFXHXAXGXGX*X. . . cXKXKXKXKXJXo.LXKXKXKXgXX sXKXKXKXSXj KXKXKXKXKXfX            KXKXKXKXKXLXSXj q X X t         KXKXKXKXLXKXKX      # X     o LXKXKXLXKXKXLX      { { *.*.=.j.x.x.x.C.D.K.K.L.H.*.X   & gXKXJXKXLXKX! JXKXKXKXsX  fXKXJXKXfXj KXKXKXSXKXsX*   o   o C.KXKXKXKXKXSX    # gXKXJXLXJXKXC.X               o t L.SXKXJXKXKXKXKXLX=.    . =.=.j.*.j.*.*.*..   o KXLXKXLXKXKXKX    o o.      KXKXKXKXKXKXSXj q q j fXKXSXKXKXKXKX        KXKXKXKXKXKXJXm   X . 9     . ! [ R [ . .   KXKXKXKXKXKXKXo     KXKXKXKXKXKXKXo     X JXKXKXKXKXKXKXo     KXLXKXKXKXKXKX        KXKXKXKXKXKXJXP o   o &   X       o       o t L.SXKXKXLXKXJXJXKX-.+     P U .     KXKXLXKXKXKXKX  .   j       KXKXKXKXLXKXKX        LXKXKXKXKXKXKX      KXKXKXKXKXKXJXo   o   KXJXKXJXKXKXKXC.KXKXKXKXKXKXKXKXKXo     V V V B S C C C Z C C C C S Z s B S C S S C C C C G G P P Z Z B h h s h h h f f f f f h h B C R R G G G Z C C C C G R R G ",
"t t t t t u f f f f f f f k h j f X     KXKXKXKXKXKXLX            LXKXLXKXKXKXKX      X SXKXKXKXKXKXKXo     =XKXKXKXKXLX=Xq o o SXKXKXLXKXKX-XX         KXKXKXKXKXKXKX  . . J..   = JXKXKXKXKXLX#   o   # JXKXKXKXLXKX#   # |.LXGXGXFXGXFXFXCXGXGXHXGXFXGXFXGXFXFXFXFXFXFXFXFXFXZXFXGXGXZXGXCXFXFXFXFXFXHXGXGXFXHXZXcXLXdXX   . =XKXKXKXKXKXC.LXKXKXKXOXX OXKXKXKXKX! KXKXKXKXKX=X      o     KXLXKXKXKXKXSX        #   #     KXKXKXKXKXKXKX      X X     o LXKXKXLXKXKXLX      o.o.*.=.x.x.n.n.x.D.D.H.H.F.C.x.X   # &XKXLXKXKXKXC.LXKXKXKXOX  OXKXJXKXSX! KXKXKXJXKX-X#   o   X &XKXKXKXKXLXfX  o q =XKXKXKXKXKX=XX   t & X X & # #   X -.gXKXKXKXKXKXKXOXX   . *.=.j.*.l.*.*.*..   o KXLXKXLXKXKXKX    o o.      KXKXKXKXKXKXJXX     # SXKXKXKXKXKXKX        LXLXKXKXKXKXLX  X     .   X . R [ R ` . .   KXKXKXKXKXKXKXo     KXKXKXKXKXKXKXo     X JXKXKXKXKXKXKXo     KXLXKXKXKXKXKX        KXLXKXKXKXKXLX  *     X   X   q o   # # * *   X =.gXKXJXKXKXSXKX&X+   . V U o     KXKXLXKXKXKXKX  .   j .     KXKXKXKXKXKXKX        LXKXKXKXKXKXKX      KXKXKXKXKXKXLXo   o o KXLXKXKXLXKXJXU KXKXKXKXKXKXKXKXKXX     V V V B Z h h h s s h h h B R B Z B R B Z h h h h h h h B C C C V B h B h j j k j V V V V B G R R G C C Z C C C G R R R G ",
"t t t t t u f f f f f f k k h k f X   o KXKXKXKXKXKXLX            LXKXLXKXKXKXKXX X   X JXKXLXLXKXKXKXo   # fXKXfXSXKXKXKXSXKXKXJXKXKXLXKXKXgXX         KXKXKXKXKXKXKXo   o -Xo   + JXKXKXKXKXJXX   o   X SXKXKXKXLXKX#   & OXLXcXGXcXGXGXFXcXcXAXcXFXGXGXcXGXxXGXGXGXGXGXGXGXGXGXHXGXcXcXAXGXGXGXGXGXLXLXLXLXLXHXLXAXLXHX=   . L.KXKXKXKXKX=XLXKXKXKX=.# C.KXKXKXKXC.KXKXKXKXKXL.  o   X     KXLXLXLXJXKXKX# X X   *   X     KXKXKXKXKXKXKX      X X     o LXKXKXKXKXKXLXo     o.o.+.*.&.=.x.x.x.D.D.D.H.H.H.H.o   o L.KXKXKXKXKX=XKXKXKXKXC.  C.KXJXKXKXC.KXKXKXKXKXL.X   o   o gXKXKXKXKXKXSXKXKXSXKXKXLXSXSXLXsXX & sXLXLXKXJXJXfXq   # o.KXKXKXKXSXKXsXX   . *.*.=.*.l.-.l.*..   o KXLXKXLXKXKXKX    o o.      KXKXKXKXKXKXKX* o   # JXKXKXKXKXKXKX        KXLXKXKXSXKXKXo     # & . . + U [ R ` . .   KXKXKXKXKXKXLXo     KXKXKXKXKXKXKXo     X JXKXKXKXKXKXKXo     KXLXKXKXKXKXKX        KXLXKXKXSXKXKXo     X &   X & fXKXJXJXJXKXfXq X X *.KXKXKXKXLXKXfX+   . V U       KXKXLXKXKXKXKX  .   j .     KXKXKXKXKXKXKX        LXKXKXKXKXKXKX      KXKXKXKXKXKXJXo   o o KXLXKXKXLXKXJX* SXKXKXKXKXKXKXKXKXo   . P B B C V Z Z Z Z V V V V h V a h a Z a d V V V V V V V V a a a d f f f f h f f f f a a s Z U R R C C C C G C G R R R R G ",
"t t t t t t a a f f f f f k k k f X   o KXKXKXKXKXKXLX            LXKXLXKXKXKXKX  o   X JXKXLXKXKXKXKXX   - KXKXKXKXKXLXKXJXKXKXKXKXLXKXKXKXSX*         KXKXKXKXKXKXLXX   X gXo   . PXKXKXKXKXSX.   o   X SXLXKXKXKXJXX   = C.LXLXLXdXcXGXGXGXLXLXGXGXGXcXdXLXLXGXGXGXGXGXGXGXGXGXNXGXcXLXcXHXHXGXGXGXLXLXLXGXGX-XLXAXLXHX=   . =.KXKXKXKXKXSXKXKXKXKXQ # ! KXKXLXKX=XKXKXKXKXKX=.  X   X   o KXKXKXKXSXKXLX    X   &   #   X KXKXKXKXKXKXKX      X X     o LXKXKXKXKXKXLXo     %.*.*.*.=.=.x.x.F.D.D.w.j.L.].L.. .   =.KXKXKXKXKXSXKXKXKXKXQ o ! KXKXKXKX=XKXKXKXKXKXC.    o   # SXKXKXKXLXKXKXKXKXJXKXKXKXKXKXKXLX# & SXKXKXKXKXKXLXq   X t KXKXKXKXSXKXfXX   . *.*.=.*.*.*.l.*..   o KXLXKXLXKXKXKX    o o.      KXKXLXKXKXKXJX        SXKXJXKXKXKXKX        KXKXKXKXJXKXKXo X X V Q ~ U Q o.` K R . .   LXKXKXKXKXKXLXo     KXKXKXKXKXKXLXo     o JXKXKXKXKXKXKXo     KXLXKXKXKXKXKX        KXKXKXKXJXKXKXo o q U U X   X KXKXKXKXJXKXJX#     t KXKXKXKXJXJXPXX   . F I   o   KXKXLXKXKXKXKX  .   j .     KXKXKXKXKXKXKX        JXKXKXKXKXKXKX      KXKXKXKXKXKXJX    o   KXKXKXKXLXKXLXo &XKXKXKXKXKXKXKXKXo   X F h V C h h h h h h h h h k k f U a h d h k k k k k k k k P j f f k k f a f f h f f h V U C R R P C C C G G G R R R R R R ",
"t t t t t t t t a a f f f f f f f X   o KXKXKXKXKXKXKX            LXKXLXKXKXKXKX  X   = SXKXKXKXKXKXLXX   t KXJXKXKXKXSXKXLXLXKXKXKXKXKXLXKXKXf         KXKXKXKXKXKXJXX   X cX.   . SXLXKXKXLXSX    o   o SXLXKXKXKXfX  X   ~ HXHXdXl . +             + + l dXHX. . . . . . . . X . = # 8X= . X . . . . . .   . K HXAXGXHX+   .  .KXKXKXKXKXLXKXKXKXKXf o j KXLXKXKXSXKXJXKXLXKX;.  X   X     KXKXJXKXLXKXKX    o   *   #   o KXKXKXKXLXKXKX      X o       LXKXKXKXKXKXLXo             o o o o o   X o 3 *.H.C.. X   o.LXKXKXKXKXKXKXKXKXKXf o j KXKXKXKXSXKXKXKXKXKX-.    o   f KXKXLXKXJXKXKXKXLXLXKXJXKXLXJXLXKX* X SXKXKXKXKXKXJXX   o X LXKXJXKXSXKXSXX   . *.=.=.%.*.*.j.*..   o KXLXKXLXKXKXKX    o o.      KXKXLXKXKXKXKXo #   & KXKXKXKXKXKXKX        JXLXJXKXKXKXKXX     # X & .     R A R . .   JXKXKXKXKXKXKXo     KXKXKXKXLXKXJX        SXKXKXKXKXKXKXo     KXJXKXKXKXKXKX        JXLXJXKXKXKXKXX     # q X     JXKXJXKXSXKXSX# o   X LXKXKXKXKXKXJXX   . U I   .   KXKXLXKXKXKXKX  .   j .     KXKXKXKXLXKXKX        JXKXKXKXKXKXKX      KXKXKXKXKXKXJX        KXKXLXKXLXKXKX  ! KXKXKXKXKXKXKXKXo   X V h C B 1 . . . . . . . . +   + y . . . .                 h q X     .             . # a V P R R C C C G G G G R R R G G R ",
"t t t t t t t t a a f f f f f f f X   o KXKXKXKXKXKXLX            LXKXLXKXKXKXKX  o   # SXKXKXKXKXKXJXX   f KXSXKXKXKXJXKXLXJXKXKXKXKXKXJXKXKXI         KXKXKXLXKXKXJXX   X SX.     SXJXKXKXJXSX    o     SXLXKXKXKXgX  #   r cXLXdX9 . . . . . . . . .   9 dXLX                .     X KXX   .                 . cXGXLXGX+ .   P KXKXKXKXKXKXLXKXLXKX*   & KXKXKXKXKXKXSXKXJXKXQ   X   X     KXKXSXKXJXKXKX    o   X   X   X KXKXKXKXLXKXKX      X o       LXKXKXKXKXKXLXo         o o   o o o X   X   = =.OXC.o +   ! JXKXKXKXKXKXJXKXKXKX&   q LXKXJXKXJXLXKXKXKXLXo.        I KXKXJXKXLXKXKXKXJXJXKXJXKXKXKXLXKXf * SXKXKXKXKXKXJXX   X   KXKXJXKXSXKXSXX . . *.=.=.%.*.*.j.*..   o KXLXKXLXKXKXKX    o o.      KXKXLXKXKXKXKX  o   X LXKXLXLXKXKXKX        KXKXJXKXKXKXJXo     =   X     + R A R . .   JXLXKXKXKXKXKXo     KXKXKXKXLXKXJX        SXKXKXKXKXKXKXo     KXLXKXKXKXKXKX        KXKXJXKXKXKXJXo X         o   JXLXJXKXJXKXJX      # KXKXJXKXKXKXJXX   X I I   .   KXKXLXKXKXKXKX  .   j . .   KXKXKXKXLXKXKX        JXKXKXKXKXKXKX      KXKXKXKXKXKXSX        KXKXJXLXKXLXKX  w KXKXKXKXKXKXKXKXo   . V B R l .                 .   + f .                       V q .     o o             + a R R R G C C C R R G R R R R C C R ",
"t t t t u u a a a a f f f f f f f       KXKXKXKXKXKXKX    # o     KXKXKXKXKXKXKX      X LXKXKXKXLXKXKXX   L.fXKXKXJXLXKXfXKXKXKXSXKXKXJXLXKXKX=.o     o JXKXJXKXKXKXSX    # cX  .   k     X   X q   X     t   X       t   X X LXLXGX= .   a     . . l   . = GXLX.     k       . y   # X JX    . o   X   . k   o . LXHXLXdX .. X & KXKXKXKXLXKXKXKXKXfX    # SXKXJXKXKXLXKXKXJXLXt     X     X KXLXKXKXKXKXsXf   #     t   X   KXLXKXKXKXKXsXf     o   q   # KXLXKXKXKXKX=Xf   o =   f   y X #     y   o   j.L.j.6   o & JXKXLXKXLXJXKXKXKXgX#   X fXKXSXKXKXKXKXLXKXKXt   *     =.KXKXKXJXKXKXJXKXKXLXfXKXKXKXKXKXJXC.# =XKXJXKXKXKXSXP     Q JXJXKXKXSXKXsX&   + %.%.j.*.*.j.%.l..   o LXKXKXSXKXKXJX    X o.  X   KXLXLXKXKXKXKX  #     LXJXKXJXJXKXJXX   X o LXKXJXKXKXKXgXf         f     . Z R K .   & L.KXKXKXJXKXSXj   t LXJXKXKXSXKXsXo X   q &XKXLXJXKXKXfXj   j SXKXSXKXLXKX=X&     o LXKXJXKXKXKXgXf   o   o U   & fXKXKXJXKXKXSXP     ! SXKXKXLXLXJXSX  X + U F .     KXKXKXKXKXKXKX.   . P     X KXKXKXKXLXLXJXo o   & OXKXKXKXKXJXKXj   P SXKXLXJXSXKXOXX X o o LXKXKXKXLXLXJXo . gXKXSXLXKXSXJXKX      V B C B . o   k     o   o       j   X   #         f     o j j o X   t o     o t     . I U R G Z Z C C C C G ` ' R C C G R ",
"t t t t u u a a a a f f f f f f P # # X KXKXKXJXLXKXKXX           KXKXLXKXKXKXKX# # o * LXKXLXKXKXKXKX# o =XLXKXKXKXKXsXf o X o & sXJXKXKXKXKX-X      X KXKXKXKXKXKXKX#   X fX  # 3 fXSXJXKXLXKXfXt & # t fXSXJXKXKXKXSX9 X   LXPXcX  + q cXSXKXKXSXSXr = . cXSX  . & fXSXKXKXKXgX% +   JX+ X   KXKXKXJXSXfX& # . LXHXLXcXs.. X $ KXKXKXKXLXKXSXLXJXgX& X # sXKXKXKXKXLXKXKXKXKX# o o # o o # KXKXKXKXJXKXKXSXSXKXKXKXSX& # X KXKXKXKXJXKXKXSXSXKXKXKXSXq   KXKXKXKXKXKXKXJXJXKXLXSXSXP SXSXJXJXSXfX& # . j.H.C.y     & JXKXJXJXKXKXKXJXKX=X# X   sXKXSXKXJXKXKXLXKXSX#   #   # OXKXLXLXLXSX=Xq o o   t sXKXKXKXKXKXOXX L.KXSXSXKXKXSX-.t P P.KXKXKXSXJXKX&X#   . *.*.j.*.*.j.%.*.. . X KXKXKXKXKXKXKXX o o o.    o KXKXKXKXJXJXKX  X   X KXJXJXKXKXKXKX#   o   JXKXJXKXKXKXKXgXKXKXKXSXfX& X   R K C .   X =.KXJXSXJXKXSXo.k =.KXKXLXLXKXKXOXX X   # L.KXKXKXLXKXSX=.t -.SXKXKXSXKXKXL.X o X o JXKXJXKXKXKXKXgXKXKXKXJXSXo & OXLXKXKXKXKXJX=.q U L.SXKXJXLXKXKXgX      R R o     KXKXLXKXKXKXKX    + R . X # KXJXJXKXKXKXKXX X   X P.KXKXSXKXKXfXo.j L.KXKXLXKXKXKXC.o       KXJXLXKXKXKXKXX o P.KXKXKXKXJXKXKX      V B C B . # & SXJXLXKXLXKXX o   f     * SXKXKXKXSXfX* X   q q   # q SXLXKXKXLXSXy #   h f R G C C A G G A R R R G C G R G ",
"t t t t t t a a a a d f f f f f 3       JXLXKXKXJXKXKXX       #   KXKXLXKXKXKXJX      X SXKXLXKXKXKXSX    sXLXLXJXKXKXgX#         gXKXKXKXKXLXsXo X o   SXKXSXSXJXKXKX#   # SX=   = JXKXKXKXKXKXKX=     o SXKXKXJXKXKXJXX     LXKXLX.   # PXKXKXKXKXJX#   . LXLX    & JXKXKXKXKXKXq     JXo     KXKXKXKXKXJX=   . GXHXGXHX^.. .   fXKXKXKXLXKXJXKXSXOXo   o -XKXKXJXJXLXJXLXKXSX  o o X     o KXKXJXKXJXJXKXKXKXKXKXKXJXX     JXKXJXKXJXJXKXKXKXLXKXKXLX    KXKXKXKXSXJXKXLXJXJXKXKXSX& JXKXKXKXKXLX#   o j.C.C.! .   # IXKXKXKXJXJXKXJXLXOXo     OXKXJXKXJXKXKXKXKXfX#   X     gXKXKXKXKXKXfX        # gXKXKXLXSXKX=X  -.KXKXLXKXKXKXKXSXSXSXKXKXJXKXKXKXP.X X . j.l.j.*.*.l.*.*.+ .   JXJXSXSXJXLXLXo     o.#     JXLXLXKXJXKXKX      X KXKXKXJXSXKXSXX   X   LXKXLXKXKXJXKXKXLXKXKXKXJX3     A S s + .   ! LXKXJXLXKXKXJXSXKXJXJXSXKXKXfXo.o X     o.SXKXKXSXKXKXSXfXJXKXKXKXJXKXJX!   X X o LXKXLXKXKXJXKXKXJXKXKXKXKX=   o.KXKXLXJXJXKXSXSXSXLXKXKXJXKXKXKXC.. .   Q Q       KXKXLXKXKXKXJX  . . V       KXKXJXLXLXJXSX        ! SXKXLXJXKXKXJXSXKXKXLXJXLXKXfXQ   o   o KXKXLXLXLXJXSX    I JXKXJXJXSXJXSX      V B C B .   # KXKXKXKXKXKX    o j X   o KXLXKXKXKXJX&     j K     # JXKXKXKXKXPX$     Q Q P G C G R R R G R G C Z G R R G ",
"t t t t t t t t a a a f d a a a k o X X KXKXKXKXKXKXKXo       o o KXKXKXKXKXKXLXo X   * LXKXKXKXKXKXKXX * JXKXKXKXKXKXgX&   X   # fXKXJXKXKXKXLX  o X o LXKXKXKXKXKXJXX   o fX  . # JXKXJXKXKXKXKXX o X # SXKXSXKXKXKXSX#   . LXHXGX.   = JXKXKXKXKXJX=   o LXHXo   * KXKXKXKXKXJX    * KX    X KXKXKXJXKXJX= . o HXHXGXLX8X. . # gXKXKXKXKXKXKXKXKXL.    X P.KXKXKXKXKXJXKXKXfX      * # o X KXKXLXKXKXKXKXJXSXKXLXKXJX# o # KXKXLXKXKXKXKXJXSXKXJXKXKXX o KXJXKXKXKXKXKXKXKXLXKXKXSXX LXKXfXLXKXSXX   + C.j.C.o.X   o 7XKXKXKXKXKXKXKXKXH.    X H.KXKXKXKXKXKXJXKXgX&   #     JXKXKXKXJXKXfX    X   & gXKXKXKXKXKXSXX f sXKXKXJXLXKXKXKXKXJXLXSXJXKXKXsXI   X   j.j.j.*.l.*.*.o.+ X X KXKXKXKXKXKXKXX o   o.  # * KXKXKXKXKXKXLXX # # X LXKXKXKXKXKXLX*   o   KXKXJXKXKXJXJXJXKXKXKXKXLX$   . B S s . .   t OXKXKXJXSXJXKXKXJXSXKXKXKXKXH.#   o     t OXKXKXKXLXKXKXKXKXKXLXKXKXKX&Xq         KXKXJXKXKXJXJXJXKXKXKXKXKXX   q fXKXKXKXSXKXKXKXKXKXKXKXKXKXKXSXk   +   Q I     X KXKXKXKXKXKXLX. X   P +     KXKXKXKXKXKXKX* X X   * L.KXKXKXJXKXKXKXKXJXJXKXKXKXL.X   * X o JXKXKXKXKXKXKX* X & fXKXKXKXKXKXKX      V B C B . . = JXKXSXLXKXKXX   X t   o o JXKXKXKXKXLX#   o t P     + SXKXLXLXKXSXX     R V C C G G R R R R R G C C R R R R ",
"t t t t t t t t t t a a a a a a V       LXKXLXSXJXLXJX    X X o   JXKXJXLXSXLXKX# o   X JXKXJXSXSXKXJX  * JXKXSXKXKXKXsX=   o     sXJXSXKXKXKXKX*     o KXKXSXSXJXJXSXo   . gX    # JXKXJXKXKXKXKXX o X # SXKXSXKXKXKXSX#   . LXHXGX.   = JXKXKXLXKXJX=   o LXHXo   & KXKXKXKXKXJX    * KX    o KXKXKXJXKXJXX   X HXGXHXLXIX.     OXLXKXJXJXJXJXJXJX*.  X o ! KXKXKXKXKXJXKXKX=Xo   o t #     KXKXJXKXLXJXKXKXKXKXLXKXJXX   # KXKXJXKXLXJXKXKXKXKXJXKXKXX   KXSXSXSXSXSXLXKXKXKXKXKXSXX KXKXSXKXKXSX3   X C.j.H.=.X X   OXJXKXSXJXSXSXKXJXo.  X   o.SXKXJXSXLXSXLXJXOX    o   q KXKXKXKXSXKXgX    X   # sXKXLXKXSXKXSX#   o.gXKXKXKXKXJXJXLXJXKXKXKXKXfX-.#     + *.l.j.l.j.%.*.%..     LXKXJXJXJXLXSXo   o -.    X KXKXLXSXSXJXLXX       SXKXJXJXJXKXSXX   o X KXKXJXLXKXKXKXKXKXKXKXKXLX$   . B Z Z . .     j sXKXKXKXKXKXKXKXKXKXSXsXOXj   X   X   o I =XKXKXKXKXLXSXSXJXKXKXKX=XI   o     o KXKXJXLXKXKXKXKXKXKXKXKXLX#   o *.sXKXKXKXKXSXSXSXSXJXKXKXKXfXL..   X . Q I       LXKXLXLXSXLXKX  .   I X   . KXPXSXSXLXKXKX#   o     j &XKXKXKXfXSXJXSXJXKXKXKX&XP     #   o KXSXSXSXKXKXKX#     OXKXJXSXJXJXLX      V B C B . . # JXKXSXLXKXKXX   X t   o o JXKXKXKXKXLX$   . a P     + PXKXKXLXKXSXX     I V V C G G R G R R R G C A G G R R ",
"t t t t t t t y y t a a a a a t q     o KXKXKXKXKXKXKXX .   X X o SXKXKXKXJXKXKX      # KXKXKXKXKXKXSX# f KXKXKXKXKXKXgX#   X X   sXKXKXKXKXKXKXQ X   X KXKXKXLXKXKXJXq o   gX=   = JXKXKXKXKXKXKX=     o SXKXKXJXKXKXJXX     LXLXLX    # SXKXKXKXKXSX#     LXLX    & JXKXKXKXLXKXq     JX.     LXLXKXKXKXLXX   o AXLXZXLXHX+     L.KXKXKXKXKXKXKXKXP       P KXKXKXKXKXKXKXJXH.o     q     # KXKXKXKXKXKXKXKXKXLXKXKXKXo   X KXKXKXKXKXKXKXKXKXJXLXKXJX    KXKXKXKXKXKXKXKXKXKXKXKXSX* SXKXIXKXKXgX+     C.j.C.C.. + o OXKXKXKXKXKXKXKXJXQ   X   Q KXKXKXKXKXKXKXKXL.      X I KXKXKXKXKXKXsX  X X   # sXKXKXKXKXKXKXQ   o ! L.SXJXKXKXKXKXKXKXKXSXOX! &     X t *.*.j.*.j.%.%.*..   X KXKXKXKXKXKXLX# o   =.X   X KXKXKXKXKXKXKX&     & KXKXKXKXKXKXLX*   o X KXKXKXLXKXKXKXLXLXKXKXKXJX3     Z A R 1 +       x E.fXKXKXKXKXSXKXSX$.#       o   X o   X I L.gXKXKXKXKXKXKXKXJXOXI     X o   X KXKXKXLXKXKXKXLXJXKXKXKXLXq       I L.SXKXKXKXKXKXKXKXKXSXOX! # .   . # Q I o   . SXKXKXKXJXKXKX  X   j     & KXKXKXKXKXKXKXX     #     f P.fXKXKXKXKXKXKXKXgXL.f o   X     * KXKXKXKXKXKXKXX     C.KXKXKXKXKXKX      V B C B .   # KXKXKXKXKXKX    o j X   o KXKXKXKXKXJX3     V F     $ JXKXKXKXKXJX*     I R Z C A G G G G R G A C G A C C A ",
"t t t t t t y t y y a a a a a t f X q # SXSXJXJXLXJXSX# #       j SXJXKXKXKXKXKXo # * q SXSXJXLXKXSXSXP o.SXSXLXKXKXKX=X&       & -XJXLXKXLXKXKXU X # * fXJXKXKXKXSXSXq X   =X  # 3 fXSXJXKXLXKXfXt & # t fXSXJXKXKXKXSXq X   LXNXcX  = q SXSXKXLXSXIXq =   cXcX  X & fXSXKXKXKXgX% X   JX+ X   KXLXKXJXSXfX& = o cXLXAXLXHXX . q C.gXSXSXKXSXJXKXSXt   o X t fXJXKXJXKXKXKXSXL.      &   # q gXLXKXKXKXKXKXJXJXJXKXLXSXt & X gXLXKXKXKXKXKXJXJXKXKXKXSXf * fXSXJXSXJXKXKXKXJXKXLXSXLXk fXKXKXLXJX_.  X . M.j.=.j.  X   C.fXKXJXJXKXJXLXsXj   o X P gXJXJXJXJXSXfXgX=.X # o X I KXKXKXKXKXSX-Xq       & =XLXKXKXKXJXKXo.#     X ! C.=XSXJXJXfXsXC.! t o     o # E =.*.j.%.*.%.%.%.. # * SXJXKXKXKXJXSX& #   o.  q & SXfXJXJXJXJXsXq o # t SXSXSXKXKXLXSXq X o   LXKXKXKXKXKXKXLXKXKXKXSXfX& X   A S R s & o o     q ! L.=XfXKXKXKXfXo.#   & t     o       o q I H.=XgXfXSXsXL.=.f o       o o   LXKXKXKXKXKXKXLXKXKXKXSXfX3 X     X * Q =.=XfXSXSXfXsXL.o.f     X   $ h ! I X   j SXJXKXKXKXKXKX. +   j   $ q fXJXJXKXLXSXSX& q o # X     & Q C.fXIXfXgX=XH.Q &     X X     X =XJXJXKXLXSXSX& q   I sXLXKXKXKXKX      V B C B . # & SXJXLXKXKXKXX .   f o   * SXKXKXKXSXfX& X   q y   $ r SXKXKXKXJXSXt $   f a V C G G A G R R G A C G R A A A ",
"t t t t t t y t y y a a a a a a y o X   U o o o   X V   # . X #   f     o X #     X     j X   o o   j     t   X     X X   o #     & #     X *   X   #   u   X o   o j     . gXX .   h     X   X q   X     y   X       t   X o LXLXGX= .   a         a   . = GXLX. .   h         y   = . JX    . .   o   . k   X . AXLXAXGXHX. .   X q X   #   X   f     X X   q X X   X X o #     o X q   X   q o X     X X   o # o   q   X   f o X     X X   o o     q     k   o   X   o o   X o   k   ;.fXKXKXIX-.  = . =.j.=.H.  =   X X +     $   # q     X     q X   . . . o & X   #     3   # o     X $     * X   o       X   y   X X o     o X .   X +   X     X +   + t *.j.%.j.%.*.*.%.%.+ +   k       o o j   o   =.X     P X o o X X y   o X   q o # o   o j   o #   X         o X           h     . ` S R B 3 . X   X     X   f gXKXJXKXKXJXJXKXgX& o     # #         X X o X X o       X X     #   X   o     o X         X k     X X =       X # . # # X       X # .   a ' o.I +     f o   o X #     X   V   X   a X   X o o U   o o     X X     o     X # X o     o   X     #   f X   X o o U   o X   * #   X           V B C h . .   k     .   o       j   X   #         h     . j V . X   y .       t   . . U F C G G G C A R R R C C R ` R R G ",
"t t t t t t t t t t a a a a a a a X     .     o                                   o o   . o o   . .   .   .       .   . . . . .                         . . . . . +   +   . 3X.   . . . . . . . . . . .         X .     o   > JXKXfX9   . . .   . . . .   9 dXLX.   .       . . .     X KXX   o                 X AXLXAXLXcX .    . .                           o                 . # # X     o                                                                 o o           o   o X   L.SXKXSXH.X X   X %.C.=.-.f     + .                                         o   o o . o o o o   o       o           . o o           o .     . . . . X X . . . .   2 I =.*.%.%.%.*.*.%.%.*.+ . . . + o   o         # o.                  .                                   o     . . .   . . . .     . ` ` A S s 4 +   + o   X   X fXJXKXLXJXLXSXKXSXo     . . o                             o o           . o                 . . . . . .     . .         . .       . $ h W R %.' .   . #   .   o o     . 3 r X   .     X #     .     . & Q $     + . +       +       +     3 X X     X o #         X   . $ X       . $   X k P a V     X   X . +         3 a . +   .   & X   X X   . h d # .     +   . . .   o   U k R R C R Z R P R h Q ' R ` Z ` C ",
"t t t t t t y y t t a a a a a a 3 X   . X     .                                                                                               .     . . . . . . . . . . . + j.= . . . . . . . . . . . . . . . . .   o X &   q UXHXdXl + =           . + = l dXHX. . . . . . . . . o = # 8X= o X .   . . .   . . 0 dXHXcXLXcXM.9 = .           .                                 o . + # X     o                                                             o o     o o o o o   #     t LXKXSXL.X       y -.*.C.j.U +       . $     .               .               o   o . o o . o             . o o       o o . o o o   o . .   . . . . . . . + . + r R o.*.%.*.g.%.%.*.*.%.%.{ $ @ @ . + . + + X + + o * ! O             o   X o . . . . . o o o . . o . . . o . . . . . . . . . . . . . . . R ` A S S s 2 + . X o       C.KXLXJXKXKXKXKXfXX   o o X o o o o o o         o o o o o o o o o o             o X     . . . + + + P l 3 . . . . . .         + 9 l W ' %.W ' R $ + . =   +     . # &     # +     X q     . +     * . h -XC.d   .     + &     X & . + j I t     .       X   $       $       . & X       y a a y V   + #   #     . # &     q X .   $ + .   . .     % f y + + # X .     .     3 % a a s V C R B R C B G G Z G ' G ] R ",
"t t t t t t y y y t y y y y y y k a a d h f d d f f f f f f f f k k k k k k h h j j j j V V j j j j j j j V V V V V V V V V V V V K K K K K R R ~ ~ R W W W ! ' %...g...N.j. XJ.*X2X9XwXtXjXzXmXNXNXDXHXHXHXHXHXGXHXHXHXLXSXIXLXLXLXdXcXGXGXLXLXLXLXLXGXcXdXLXLXGXGXGXGXGXGXGXGXGXNXGXcXLXcXHXHXLXLXLXLXJXJXGXGXdXLXGXHXLXGXcX*X=.W j V V a r a y y y y y y y y y y y y y y y y q q q y q 3 & 3 3 3 & & & & & & & & * * * * $ $ # # # # # # # # = = # # * & w w f j I Q ! ' ' ! Q +   & OXC.a     +   + ! j.o.=.C.j.=.C.C.j.=.=.C.C.F.C.F.C.F.C.F.C.F.C.F.C.F.C.F.H.F.F.F.F.F.F.F.F.F.C.C.F.F.F.C.C.C.C.C.C.x.C.C.C.C.C.C.C.C.C.x.x.j.x.x.j.x.x.j.*.*.j.x.n.j.*.l.*.*.*.*.*.*.%.x.{ %.%.{ o.' %.o.+.+.o.o.{ H.! *.*.#.#.*.*.%.%.{ { { { { { { ! ' ! ! ! ! ! ! Q V V V C K C C Z A A K K R R P G R R A S s s r 3 3 = #   X   = C.fXfXSXKXSXJXfXV   o X + X X o o X X o o o X X X X X X X X X X X + + + + # # & q a d B C P R [ ' l.-.%.' ' ] %.%.] ' ' ' W W '  .' ' ] ` [ ] R R C K y  .! V W =.Q # $ ' *.I a q y y I =.-.! f * r j fXfXQ # j I j.F # = j %.o.V # $ X t K -.*.! j & + & ! U a j %.I & q ! -.! % I q 3 y ! %.%.r h q y ' j a I o.U $ 3 o.o.I y y P # q o.j.-.I # k k y a a & r f ' -.=.j y 6 y R *.y r %.F V F V j.' C R ] S R G ",
"t t t t t t y y y y y y y y y y y y y y y a a y k k k k k k k k j j j j j j j j f f f f f f f f l l l l h h h j h h h h h h h h j V V V C C K R W ! ' ' ' '  . .] [ ..[ k...h.N.B.`..X2X9XrXuXvXmXmXZXCXDXFXDXFXGXHXGXHXGXGXcXAXxXGXcXGXGXGXcXNXPXcXDXGXGXcXGXxXGXGXGXGXGXGXGXGXGXHXGXcXAXZXGXGXLXLXLXLXLXLXLXLXGXGXZXFXAXdX8XJ.' V s a f y 7 y r r r q q q q q q q 3 3 3 6 3 3 y y q r r q 6 6 q q q q q q q q & & & & & & * * # # # # X X X X # = # # * - w e d V I ' o.%.*.*.%.$     a X   . +     d %.=.j.=.*.=.j.j.n.x.n.C.x.x.n.n.n.n.C.C.C.n.F.F.F.C.n.C.F.F.F.F.F.F.F.F.n.C.n.n.C.F.F.F.x.x.x.j.j.j.j.j.x.j.j.j.j.j.j.j.j.j.l.l.l.l.*.*.l.l.l.*.%.%.*.j.l.*.*.*.*.*.*.*.*.*.j.=.j.j.*.n.j.x.x.=.j.o.x.o.+.+.o.o.o.o.o.o.*.*.*.*.*.*.*.+.+.+.o.o.o.o.o.{ R P A R ` R K L A A A A A C C C A L A S s 0 4 2 3 . $   o #   o # X = # o 3 y     o X = = X X o X X X X X X X X X X X X X X X X X X X + X # $ & a a h C R R [ ' [ ' %.%.-.-.%.%.' ' ] %.] [ W R ' ` ] ' [ %.' ' ' W R =XgX*X=XIX3XL.F.7XfX=X=.a q C.gX8X=XfX&Xj f y sXgXU a _.gX-Xf $ =.gXsX=XfXP.P * C.sXsX=XfXOXo.& f =XsX-X-XsX7XL.H.-XgXsXC.k . j H.gXgXgXfX' y P sX=X_.&XfX-XL.C.sXgX=X-.q y I H.=X3XfX=XP 6 h V V d a o.OXfX7XSXsX%.k V _.gXC.OXIXV y F.sXIXsX=XgX3XR ` ' ",
"t t t t t t t t t t a y y y y y a h k a a f k f a a a a y y y y a l a a a l a l k h k h k h k h f h h h h j j j h h h h h h j h B V C C C C K R C A K R R R ` [ ] ..z...h...h.N.B.`.1X1X4XaXuXlXvXbXmXBXCXCXFXFXFXCXFXCXFXGXGXAXFXGXFXGXFXGXZXFXGXFXGXFXGXFXGXFXFXFXFXFXFXCXFXCXCXCXGXFXAXGXZXFXHXHXHXHXGXFXFXGXGXHXGXLXZXeXJ.W V h a a s s a d a a a a a y y y a y y y y y y y q 6 3 3 3 3 3 & & 3 & & & & & & * $ $ $ # # # # # # # # X X X X = X = = # & - q a h F I Q ! ' ' o..           X . + a %.=.%.j.j.j.j.j.l.l.j.j.n.n.n.n.n.n.F.F.F.F.F.F.F.F.F.F.F.F.F.F.F.F.F.F.F.F.F.F.F.F.F.F.F.F.F.C.C.n.n.n.n.n.n.C.n.x.x.x.x.x.n.x.j.j.l.l.l.j.j.l.j.j.j.*.%.l.*.*.*.*.*.*.*.| %.*.%.+.+.{ %.%.%.%.| *.{ o.%.=.=.=.=.*.*.*.*.{ { { { { { ' ' { { ' ' ' ' E R C Z Z K L A A A A A A A A A A A A A A S s 4 2 $ # # & X   X o   X o         #     o X + = + X X X X X X X X X X X X X X X X X X   . X X X X X X % 3 4 7 r s S S ' ' ] ] %.%.%.%.%.] ] ] ] ' ' ' ] ' %.%.' ' [ R R V V gXPX-X_.-XSXfX_.H.-XfX-Xh t ! ' t k OXfXH.q q sXsXI o.gX=Xj # Q sX=Xj q OX=X%.q Q Q 3 y C.fXL.& q sXIX=XH._.IXsXOXC.OXfXsXq q _.gXC.3 Q sXOXy t fXSX_.P.OXfXfXH.H.-XfX-X& & L.fXC.3 o.gX=X$ y a f y P _.IX_.Q =.SX=XI + OXfXfXfX3X% ! gXSXx.F.&XLXIXR C R ",
"t t t t t t t t a a a a a y y y y a y y y y y y k k k k k k k k k k j j j j j j l l l l l l l l l l f l h h h h l l l f l h h h h B B B Z Z A A W ` ` [ [ ] ] ] ` ] [ [ [ [ z.z.N.N.B.1X1X4XpXiXlXlXbXBXBXCXCXFXFXCXFXAXAXFXFXAXCXCXZXFXmXFXZXCXFXCXFXmXFXAXZXZXFXCXFXCXCXCXCXCXAXCXZXFXZXFXAXCXFXFXGXGXFXFXFXFXGXFXGXZXeXJ.X.B B V B a y y y r r y r r r r r q y q 3 3 3 6 6 3 y y y q q y y 6 q q q q q 9 9 9 3 3 & & * * $ $ # # # # # # # # # * * & - w w y V U Q ! { o.*.=.%.6 $ 1 + # $ . d ' -.j.j.j.j.j.l.j.j.F.F.F.j.l.j.j.j.n.n.n.n.n.n.F.n.F.F.F.n.F.F.F.F.F.F.F.F.F.F.n.n.n.n.n.F.F.n.n.n.x.n.x.n.x.n.n.n.n.n.n.n.n.j.j.j.l.l.l.l.l.l.l.l.l.l.l.l.*.l.*.%.%.*.*.*.*.j.j.j.l.j.j.j.j.j.l.j.*.n.*.*.x.%.%.%.+.+.%.%.%.*.*.*.*.*.*.%.%.%.*.%.%.%.%.{ E R R ` ` [ ` L L L L L D D L A A A A Z S s s 4 1 $ r = # o     X       o           o X X + X X X X X X X X X X X X X X X X X X X + = # $ # # # # $ % 4 7 r s S Z Z A R ` [ ] %.g.%.] ] ] ] ' [ ' ' [ ] ] ' ' ' ' [ R V gXfX%.R R sXsX%.r Q sXgXV 3 % 6 f ! L.sX=X# y sXgXH.=X3Xf & y C.sXL.q X =.fXJ.+ X t j ! L.gX=Xq $ =XsX-.t U sX=X*.t I =XgXy y =XsX' + I =XfXk & sXsXo.f I =XsXI y ! gXsX* t -XsXQ o I sXsXV d y a h o.3XgXI f k 3XSXF.# OXgX7XQ a 3 -XgXF.a V =.IXfXG G R ",
"t t t t t t a a f f a a a a y y f d a a d a a a y y y y y y y y t t a a a a a a l a a a a a l l l f l f f f f f l l l f f f f f h B B B B Z C C C C A K R R R R [ ] ....] X...z.z.z.N.B.1X4XpXiXuXyXlXbXMXBXVXCXCXVXCXCXCXCXFXFXFXCXFXGXCXGXCXCXCXCXGXZXGXFXCXFXCXCXCXCXCXCXCXCXFXFXAXCXZXZXCXFXFXFXFXFXFXFXFXFXHXHXcXqX). .K s a h h s y a s s a a a s s y y y y y y r y y y r 3 q q 3 3 q 6 & & & & & & * * * * * $ # # # # = X X X X X X X X = # # * - 6 w w y d F R ! { { o.-.' o.o.' *.=.%.{ =.l.%.l.j.-.l.n.j.l.j.j.l.l.l.j.j.j.n.n.n.n.F.F.F.F.F.F.F.F.F.F.F.F.F.F.F.F.F.F.F.n.n.n.n.F.F.n.n.n.n.n.n.n.n.n.n.n.n.n.n.n.n.j.j.l.l.l.l.l.l.n.n.n.l.%.%.l.j.l.*.%.%.%.*.*.l.%.%.%.%.%.*.*.%.l.] l.] *.%.{ +.*.*.*.*.*.*.*.*.%.%.%.%.%.| | { ' { ' ' ' ' R Z Z A ` L D D D D L L L L L D A A A Z S s s s r 3 + #   & # #   X   + = # 3 = o # o o X X X X + = X X X X X X X X X X X X X X X X X + + + X X X + . . + $ 1 5 0 s s S S A R ` [ ' [ [ ] ] %.%.] ] ] ] ' ' ' ' ' ] ' R K gXfX%.C V fXfXo.# U sXgXj $ o.=XsXgXfXgX8X# y sXfX=XfX3Xy a a H.fXgX=X=XfXfXH.$ Q =XgX3XgXsXsXa 3 gXgX=.y a sXsXo.# V sXfX3 q =XSXsX=XsXfXsXk y sXsX! t Q sXgXV 3 Q sXsX# I gXfX=X=XfXfX=XQ k a f f x.fX3Xy Q h _.fXL.3 H.gX-Xa a V sXgXF.V I *.fXgXC R R ",
"t t t t t t a a f f f a a a a y f y y f h d a y a a a a a a a a a l l l l l l l l l l l l l l l f f l l l l l l f f f f f h f f h B B B B B C C R R R R W ` [ [ [ ` ..[ [ ..L X.X.z.N.B.B.1X4X9XiXyXlXbXmXBXVXCXCXVXCXFXFXCXCXFXFXAXFXFXxXFXCXFXFXCXFXxXFXFXAXFXCXCXCXCXCXCXCXCXCXFXCXFXCXAXFXAXFXFXFXFXFXFXFXFXGXDXdX|.-.Z s Z s s a y s s s s s s s y r r r r y y q q r y r q 3 y y q q r q 3 & & & & & & & & & & & % $ # # # # # # # = # # # O # * - 6 w e t d F R ! { { o.o.o.=.j.%.%.=.o.%.l.%.j.l.-.j.l.j.l.l.l.j.j.l.l.j.j.j.j.j.n.n.n.n.F.F.F.F.F.F.F.F.F.F.F.F.F.F.F.F.F.F.n.n.n.n.n.n.n.n.n.n.n.n.n.F.j.n.n.n.n.n.n.n.j.l.l.l.l.l.l.l.l.l.l.l.l.l.l.%.l.%.%.%.%.*.*.l.x.l.l.j.*.*.j.%.l.] j.%.n.j.*.j.%.%.%.*.*.*.*.*.*.%.*.%.%.%.%.| ] %.%.] ] ] ` C Z L [ ` L L L L L L L L D L A A A Z S s 0 r 4 1 2 + $ q   # o = X # o o # o   $ X X X X X X = = X X X X X X X X + X X X X X X + + + X . . X + # + + + + + + 1 1 s s s s S A R [ ' [ ' ] %...] ] ] %.' [ ] ' [ ' [ R B sXfX-.R R IXgX' # R 3XsXf $ =XIX! 3 %.=X=X# y =XgX_.=XfXXX$ 3 OXfXH.o.' o.o.U r oXIXo.3 U gXgX3 . sXsX*.y a gXsXo.$ I sX3Xy j gXsX-.o.o.! j.& y sXsXI & I gXgXk y o.sXsX+ j sX=X=.o.! o.%.d 3 r q $ =.SXsXa R a =XfXH.9 L.sXOXV R y *XfXF.V Q =.fXgXF P R ",
"t t t t t t a a a a a a a a a d d a a a a a a a a a a a a a a a a a a a a l l l a a a l l l l l a l f f f f f l f f f f f f f f a f f h h B V V C K K R R R R R R ` [ ' [ [ [ [ X.X.z.h.B.1X1X4X0XuXuXhXbXMXMXBXCXCXFXFXFXFXFXFXFXFXFXFXFXFXFXFXFXFXFXFXFXFXFXFXCXCXCXCXCXCXFXFXCXFXFXFXCXCXCXCXFXFXCXCXVXFXGXDXZXjX X..K Z B s s s s s s s s s s s y y s s s s y y y y y r q q r q q q r r 6 3 q 3 & & & & & & & 3 & * # + # $ X X # # # = = = * - 6 6 - 6 w u a k F E ' { { { %.*.*.%.%.%.*.%.l.l.l.l.l.l.j.j.j.j.l.l.l.l.j.j.j.j.j.j.n.n.F.F.j.n.n.F.F.F.n.n.F.F.F.F.F.F.F.F.n.n.n.n.n.F.n.n.n.n.n.n.n.n.F.F.n.n.n.n.n.n.n.n.n.j.j.l.l.l.l.l.l.l.l.l.l.l.l.l.l.*.*.%.%.*.l.l.*.*.*.l.l.l.l.l.l.l.l.l.*.*.*.*.=.*.*.*.*.%.%.l.*.*.%.%.%.%.%.%.%.%.] ] ] ' G A A ` ` ` L L L L [ L L L D L A Z S S s s s 0 4 4 1 $ = + X X X X = X X X = = X X X X X X X X X X X X X X o o X X X X X X X X X X + + X + X X X X X + + + + + 1 1 1 5 S S S S Z A A A ` ' %.%.%.] ] ] ] [ ' ] ] ' ' [ s sXkX] R R sXgX%.r R sX3Xy V IX3Xf r C.gX=X$ 6 gXfXF j 3XgX*.$ ! SX=X6 . % #   P gXfXP $ x.sXfX# # gXgX%.a y gXsXQ h f fX3Xa & -XgXj.3 . % y + P sXsXU a I =XfXd j ' 3XgX3 q sXfXQ $ 3 $ # % Q gX=Xr k 3XfXj.r ' fXfXR 2 OXfXOXC V R j.IXsXV ' 3XSXgXZ K R ",
"t t t t t t a a a a a a a a a a a a a a y y a a a a a a a a a a a a a a a l l l a a a a l l l l a l f f f f f l f f f f f f f f d f k f h k h V V V K K K I R W R W [ [ [ [ [ [ [ [ X.z.N.B..X1X9XiXuXhXbXMXBXVXVXDXFXFXDXDXFXFXFXFXFXFXFXFXFXFXFXFXFXFXFXFXFXFXFXCXFXCXFXFXFXFXFXFXFXFXFXCXFXFXFXFXFXFXFXGXGXZXxX X-.K B l s s s s s s s s s s s s r r s a s s y y y y y r q q r q q q r r 6 3 q 3 & & & & & & & & & & # # # # X X # # = = O O * & 6 6 6 6 w t t d F I E ' { { %.*.%.%.%.*.l.l.l.l.l.l.l.l.l.l.l.l.l.l.l.l.l.j.j.j.j.j.j.n.n.n.n.n.n.F.F.F.n.n.F.F.F.F.F.F.F.n.n.n.n.n.n.F.F.n.n.n.n.n.n.n.n.n.n.n.n.n.n.n.n.n.n.n.j.j.l.l.l.l.l.l.l.l.l.l.l.l.l.*.%.%.*.*.l.l.*.*.l.l.l.l.l.l.l.l.l.l.l.*.*.*.=.*.*.*.*.*.%.l.*.*.*.*.%.%.%.%.%.%.] ] ] ` G A L ` [ [ ` L L L L L L L D A A S S S s s s 4 4 3 1 $ # + # # X X = + X X = = X X X X X X X X X X X X X X o o X X X X X X X X X + + + + + X X X + + + + + + + 1 5 1 5 s s s s S B B S Z A R ` ' ] ] ] ] ' ] ] ] ' ' [ Z fXNX%.K C SXfX' 1 C sXsXs 1 _.IXfX=X3XfX=X+ 3 gXIXU # F.gXgXU 3 F.fXgXsXsXgXB $ C.fXfXgX3XsXIXs $ sXfXo.s a gXgXI 3 y gXIXU y =.oXfXgXgXgXF.a a sXfXQ a R fXfX3 3 Q gXgXr + o.sXIXsXgX3XL.3 j.JXgXa 3 _.fXfX3XIXfXJ.B s _.fX_.h s B R 3XSXLX=X=XfXsXV R R ",
"t t t t t t a a f t a a a a a a a a a y y y y y a a a a a a a a t a a a a l a a a a a a a a a l a d f f f f f f f f f f f f f f f f f f f f k k k j V V K P I R R R W ' ' ' [ [ [ [ [ X.z.N.)..X1X9XrXuXnXMXMXVXVXVXDXDXDXDXDXFXFXFXFXFXFXFXFXFXFXFXFXFXFXFXFXFXFXFXFXFXFXFXFXFXFXFXFXFXFXFXFXFXFXFXFXFXFXGXDXjX2Xh.K S B l s s s s a a s s a s a s y y y a s a y y y y y r r q r q q q r r 6 3 q 3 & & & & 3 & * & & & $ # # # X = = = = O # * * & 6 w 6 6 w y t d j U I ! ! { { o.+.%.%.*.l.l.l.l.l.l.l.l.l.l.l.l.l.l.l.l.l.l.j.j.j.j.j.j.n.n.n.n.n.F.F.F.F.n.F.F.F.F.F.F.n.n.n.n.n.n.n.F.F.n.n.n.n.n.n.n.j.j.n.n.n.n.n.n.n.n.n.n.j.j.l.l.l.l.l.l.l.l.l.l.l.l.*.*.*.%.*.*.l.l.*.*.*.l.l.l.l.l.l.l.l.l.l.l.=.=.=.*.*.*.*.*.%.l.%.*.%.%.%.%.] ] | | ] ' ' R A A ` [ ] [ [ [ ` L ` L L L D A A S S s s s 0 4 3 2 2 $ # = # # = X = = X X + = X X X X X X X X X X X X X X X X X X X X X X X + + + X + + + X X + + + + + + + $ 5 5 3 4 r s s s s s S S B S S Z R [ [ ' ] ] ] %.%.] %.%.Z _.-X] R R *X5X%.C R _._.R l ' J.3XF.-._._.r 7 L.OXE 3 ' J.sX=.3 a j.].3XsX].h 2 ' J.3X-X{ ]._.s 2 ].3X' s V _.oXE V F OX*Xa a h W _.3XsXsX=.a d OX&XR r B &XoXB B E oX].V V 3 ! oX3XsX-X%.$ R _.J.C r R ' gXgX3Xl.C B C l.3X_.C R C $ C ' _.! j.gXgXC C C ",
"t t t t t t a f f a a a t a a a a a a y y y y a y a a a a a a y a a a a a a a a a a a a a a a a a d f f f f f f f f f f f f f f f f f t t t f f f k j V K P U I R R W [ W [ ' [ [ [ [ [ ..h.B..X1X4XaXrXhXnXbXMXVXVXCXCXDXDXDXFXFXFXFXFXFXFXFXFXFXFXFXFXFXFXFXFXFXFXFXFXFXFXFXFXFXFXFXFXFXFXFXFXFXFXDXCXDXDXzX2Xh.[ Z Z Z s s B s s a a s a a a s s y y s a a y y y y y y y r q r q q q r r 6 3 q 3 & & 3 3 3 & * * & & * # # # = = = X O O * * * - 6 w w w 7 w u d k F U Q ! { ' { o.o.%.%.%.%.*.l.l.l.l.l.l.l.l.l.l.l.l.l.l.l.j.j.j.l.l.j.j.j.j.j.n.n.n.n.n.n.n.F.F.F.n.n.n.n.n.n.n.n.n.n.n.n.F.F.F.F.n.n.n.n.n.n.n.n.n.n.n.j.n.n.j.j.l.l.l.l.l.l.l.l.l.l.l.*.*.*.*.*.*.*.l.l.%.*.*.*.l.l.l.l.l.l.l.l.l.l.l.=.=.*.*.=.l.*.%.*.%.%.%.%.%.%.%.| | | ] ' ' G A A ` [ ] ] [ [ ` L L ` ` L D A A S S S s s 0 5 3 2 2 1 $ # # # # = = = = + + + X X X X X X X X X X X X X X X X X X X X X X + + + + + + + + X + + + + + + + + 1 5 5 r r r s s s s s s S B S S S Z A R R ` ` [ ] %.%.] %.s A C A R R S R S C 5 5 0 + r 5 4 l 1 + s r 4 + s s s 2 r r 4 B r 2 7 2 4 4 4 s s s r r 7 1 s r s r s s s B $ 4 y 1 s 2 r 4 r G s 7 s 1 4 1 s r 4 h s 3 s s 4 r 1 y $ r 7 1 B r r r 3 2 4 4 s s r s C R R R s s S s C ` A C s Z s R R 5 s 4 $ 4 F.IX=XC K R ",
"t t t t t t f f f f a a y y a a a a y y y y y a y y a a a a y y y t a a a a a a a a a a a a a a a d f f f f f f f f f f f f f f f f f a t a f f k j j V K K P R R R W W [ [ [ [ [ [ [ [ ] z.N.`.`.1X9XaXuXhXnXbXBXVXCXCXCXDXFXFXFXFXFXFXFXFXFXCXCXCXCXFXFXFXFXFXFXFXFXFXFXFXFXFXFXFXFXFXFXFXFXFXFXCXDXDXDXMXeXN.L C S S S s s s s a a a a a a a s a s s y y s y y y y y y r r r r r 7 r r r 6 3 q 3 & & & & 3 & % * * * * $ # # = = = O O O * & * - 6 w w w w 7 u d g x F U Q ! ! ! o.+.+.%.%.%.%.*.*.l.l.l.l.l.l.l.l.l.l.l.l.j.j.j.j.l.l.l.l.j.j.n.n.n.n.n.F.F.n.n.n.n.n.n.n.n.n.n.n.n.n.j.j.n.n.n.n.n.n.n.n.n.n.n.n.n.n.j.j.j.n.x.x.x.j.l.l.l.j.j.l.l.l.l.l.l.*.*.*.*.*.*.l.l.l.l.l.l.l.l.l.l.l.l.l.*.l.l.=.=.=.*.*.=.l.*.%.%.%.%.%.%.%.%.%.| ' | ] ] ' G A G ` [ ] ] [ [ ` L ` ` ` ` L A Z S S s s s r 0 3 2 2 1 $ # # # # X # # = + = + X X X X X X X X X X X X X X X X + + X X + + + + + + + + + + + + = = + + + + $ 1 5 0 r 4 5 4 s s 5 5 s s s S S S S S A A A A G ` [ ] ] l.' [ R ] %.] ] %.' %.A S s B B Z s s s l S 3 B s B 2 B B h s 5 s h C R C B 4 B R G h Z B S R B s R G s s S R R s B B R Z S Z h R B R G h G h B R Z s s C R B B s B R B B l R h R R B s s s C B C B S R R ' %.' ` ` [ ] ] R A A ` R ` A ` 5XfX-X3XSXgX%.s R R ",
"t t t t t f f f f f a a a a a a a a a y y y y a y y a a a a y y a t a a a a a a a a a a a a a a a d f f f f f f f f f f f f f f f f f f a a f h j j V V K K P R R W R W ` ` [ [ [ [ [ [ [ ] z.N.B.1X4X9XiXuXnXbXBXBXVXCXCXCXFXFXFXFXFXFXFXCXCXCXCXCXCXFXFXFXFXFXFXFXFXFXFXFXFXFXFXFXFXFXFXFXFXFXDXVXFXGXNXqXJ.' A Z s s s s S s s a a a a a a a a s a y y y y y y y y y y y r r r r 7 r r r 6 3 q 3 & & & & 3 & * % $ $ $ $ # # = = = = = O * & - - 6 w w w w w e u d g k F U Q Q ! { o.+.o.o.%.%.%.*.-.l.l.l.l.l.l.l.l.l.l.j.j.j.l.l.l.l.l.j.j.n.n.n.F.F.F.F.F.n.n.F.n.F.n.n.n.n.n.n.n.j.j.j.j.n.n.n.n.n.n.n.n.n.j.n.n.j.j.j.n.n.x.x.x.j.j.l.l.j.j.j.l.l.l.l.l.*.*.*.*.l.l.l.l.l.l.l.l.l.l.l.l.l.l.l.*.l.=.=.=.=.*.*.=.l.*.%.%.%.*.%.%.%.%.%.%.' | ] ] [ G A R ` [ [ [ [ [ ` L ` ` ` D A Z Z S S s s s s 0 3 2 2 1 $ # # # # X # # = = = + X X X X X X X X X X + X X X X X + + + X + + + + + + + + + + + = = = + = # $ 1 2 5 0 r 4 5 4 0 5 5 5 0 5 0 S S A Z S Z S S S S Z A R R [ ' %.[ ] [ ] ] %.] ..Z S s S s S s s S B l s S s B r Z h s S G s 0 s s S R C S s s C G G Z S C C Z s C R Z S B S B s S B Z Z Z B s R S h C B s s B G Z s s s Z s B h s B S S B a s B C C Z s S G R ` ] ' R ` ] [ R A ` ` ` [ ] R S Z s R 5XkXgXgX5Xl.Z Z R Z ",
"u t t t t u f f f f a a a a a a a a a a y y a a y y y a a y y y a a a a a a a a a a a a a a t t a a f f f f f f f f f f f f f f f f h f f f f h j V V V V V K K K R R R R ` ` [ [ [ [ [ [ [ ] z.N.B.1X1XaXiXuXbXMXBXCXCXVXCXCXCXFXFXFXCXCXCXCXCXCXCXCXCXCXFXFXFXFXCXFXFXFXFXFXCXFXCXFXCXFXFXFXFXDXDXDXNXqXJ...K Z S S s s S S s a a a d a a a a l a a y y y y y y y a a y y r r r r 7 r r r 4 3 q 3 & & & & & & & $ # # # $ # # O = O = = # * * w w 7 w w e e w i i u p g g x P I I Q { o.{ o.%.%.%.%.-.l.l.l.l.l.l.l.l.l.l.j.j.l.l.l.l.l.j.j.j.j.n.n.n.n.F.F.F.F.F.F.F.F.F.F.n.n.n.n.n.n.j.n.n.n.n.j.j.j.j.n.n.j.j.j.j.j.j.j.j.n.x.x.x.j.j.j.j.j.j.j.j.j.=.l.l.=.*.=.j.l.l.l.l.j.j.j.l.l.l.l.l.l.l.l.*.l.=.*.=.=.=.=.=.=.*.%.%.%.*.%.%.%.%.%.%.] ] ] ' R A A ` ` ` ` ` ` ` ` L L L L A Z S S S s s s s s 0 4 2 2 1 # # # # # X $ # = = = = X X X X X X X X X X + X X X X X + + + + + + + + + + + + + + = = = # = $ 2 3 4 5 0 5 s s s s 5 5 5 0 s S S S Z A A A S S S Z S S S A R A ` ] ` ] ` ] [ g.h.l.` R S Z 5 s S S Z s s s S 5 S s Z s S s 0 s S C S s C Z C S C G S Z G Z 5 R G S S s B G Z C Z Z C C G B A C S R s B Z G A S Z C S s S R Z Z G Z B C C S C Z C Z s s S C R C Z G ` %.%.] ` D ` ` [ [ ` A [ ` A [ ` S Z s C R R Z K [ ` A ",
"a t a t a f f f f f a a a a a a d a a a a a a a y y y a a y y y a a a a a a a a a a a a a t t t a a f f f f f f f f f f f f f f d f k k f f f h B V V V V V C K K K K R R R ` [ ] [ [ [ [ L [ z.z.B.B.1X4XaXiXnXbXBXBXCXBXVXCXCXCXFXCXCXCXCXCXCXCXCXCXCXCXFXFXFXFXCXCXFXFXFXCXCXCXCXCXCXFXFXFXFXFXDXNXjX)...K K s s S S s s s d a a a d a a a a l a a y y y y y y a a a y y r r r r 7 r r r 3 3 q 3 & & & & & & & $ # # # $ # # X = O O # # * * w w 7 7 w e i i w i i u u g g x P F U Q ! ' o.*.%.%.%.-.l.l.l.l.l.l.l.l.l.l.j.j.l.l.l.l.l.j.j.j.j.j.j.j.j.n.n.F.F.F.F.F.F.F.F.F.n.n.n.n.n.n.n.F.n.n.n.j.j.n.n.n.l.l.l.j.j.j.j.j.n.n.x.x.j.j.j.j.x.j.j.j.j.=.l.l.j.j.j.l.l.l.l.l.l.l.l.l.l.l.l.l.l.j.j.*.l.=.*.*.=.*.=.j.=.*.%.%.*.*.*.%.%.%.%.%.| ] ] ` G Z A [ ` ` ` ` ` ` ` ` L L D A S S S S s r r s r 0 5 5 2 1 $ # # # + + $ # = = = = X X X X X X X X + + + + X X X + + + + + + + + + + + + + + + = = = = $ 2 3 7 7 7 0 0 s s s 0 5 0 0 0 s S Z Z S S S S S s S Z Z S S S Z S A A S ' R ` ..] ] h.' R s s B S S s s s s B s 5 C s s s Z S s Z s S C C G B S B Z B S C G Z R A s C G Z G s B C B G Z s Z S C C B G S A s B C B Z B B G C s Z s s B Z B C S s B s s C A C G R G ' [ G ` ] ` ] ` ` ` ` ` ] ] ` ] A A R G [ ` R ` R ` [ R S Z ",
"a t a a a a a a a a a a a a a a t a a a a a a a a a a a a a a a a y y y y a a a a a a a a a a a a d f f f f f f f f f f f f f f f f f f f f h h f h V V K V C K K K K R R R R ` [ ` [ [ [ [ [ [ z.k.B.1X1X9XpXiXnXnXbXMXBXVXCXCXCXCXCXCXFXCXFXCXCXCXCXCXCXCXCXCXFXFXFXFXFXFXFXFXFXFXFXFXFXFXFXFXFXZXjX.X-.K S S S S S s s s s s a a a a a a a d a a a a y y y y s y y y y s y r r r q r r r 3 3 6 6 3 & & 3 & * * # # # # # # = = O @ @ # # * * ; - 7 w w w e w w e i u u g c x c F U U E ' { %.%.%.%.*.l.l.l.l.l.l.l.l.l.l.l.l.l.l.l.j.j.j.j.j.j.j.n.n.n.n.n.n.F.F.F.F.F.n.n.n.n.n.n.n.n.n.n.n.n.n.n.n.n.n.n.n.j.j.j.j.j.l.j.j.j.j.j.j.l.l.l.l.l.l.l.l.l.l.l.l.l.l.l.l.l.l.l.l.l.l.l.l.l.l.l.l.l.j.j.j.j.*.=.=.=.=.=.j.*.%.%.*.*.%.%.%.%.%.%.| %.| ] ` A A ` ` ` ` ` ` ` L L ` D A A Z S S S S s s s s s r 5 5 5 2 $ # # # # # # # + + + + + + + + X X X X X X X X X X X + + + + + + + + + + + + + + + + + + # # 3 7 7 7 r r 4 0 0 0 0 0 0 s s S S S S S S S S S S S S S S S S S S S S Z A A R R ` ] %.%.` Z s s s s s s s s S S s s s s S S S S S B B B B B B Z Z Z Z C C C C C C C C C C Z Z Z B B S S B B B B B B Z Z Z Z B B Z Z Z B B B B B B B B B B S h S h h h B C A G G R ` [ ] ] ' ` ` ` ` ` ` [ [ [ [ ` A R ` ` ` ` ` [ ` ` R A A S "
};
