/* XPM */
static char * wall1_xpm[] = {
"225 225 262 2",
"  	c #AAAAAA",
". 	c #AA9999",
"+ 	c #888888",
"@ 	c #998899",
"# 	c #998888",
"$ 	c #999999",
"% 	c #777777",
"& 	c #887777",
"* 	c #999988",
"= 	c #888877",
"- 	c #887788",
"; 	c #AA99AA",
"> 	c #443344",
", 	c #332222",
"' 	c #222222",
") 	c #554455",
"! 	c #666666",
"~ 	c #444444",
"{ 	c #665566",
"] 	c #665555",
"^ 	c #776666",
"/ 	c #333333",
"( 	c #111111",
"_ 	c #221111",
": 	c #443333",
"< 	c #555555",
"[ 	c #332233",
"} 	c #221122",
"| 	c #777766",
"1 	c #666655",
"2 	c #554444",
"3 	c #776677",
"4 	c #555544",
"5 	c #333322",
"6 	c #444433",
"7 	c #555566",
"8 	c #665544",
"9 	c #776655",
"0 	c #554433",
"a 	c #443322",
"b 	c #333344",
"c 	c #222233",
"d 	c #223322",
"e 	c #222211",
"f 	c #553344",
"g 	c #444455",
"h 	c #223333",
"i 	c #665522",
"j 	c #887722",
"k 	c #BB9922",
"l 	c #DDBB11",
"m 	c #BB8800",
"n 	c #331122",
"o 	c #775533",
"p 	c #887711",
"q 	c #BB9933",
"r 	c #DDBB22",
"s 	c #224444",
"t 	c #442233",
"u 	c #442222",
"v 	c #CC9922",
"w 	c #DD9922",
"x 	c #EECC00",
"y 	c #BBAA11",
"z 	c #332244",
"A 	c #444422",
"B 	c #775544",
"C 	c #CCAA22",
"D 	c #FFBB00",
"E 	c #FFCC00",
"F 	c #443355",
"G 	c #445555",
"H 	c #666688",
"I 	c #AA9944",
"J 	c #FFDD11",
"K 	c #FFCC11",
"L 	c #EEBB44",
"M 	c #CC9944",
"N 	c #EECC11",
"O 	c #997755",
"P 	c #666677",
"Q 	c #887799",
"R 	c #778877",
"S 	c #886677",
"T 	c #775577",
"U 	c #887766",
"V 	c #BB8855",
"W 	c #CC9966",
"X 	c #BB9966",
"Y 	c #BB8833",
"Z 	c #664455",
"` 	c #BBAA55",
" .	c #FFCC22",
"..	c #998822",
"+.	c #665577",
"@.	c #777755",
"#.	c #998877",
"$.	c #AA8833",
"%.	c #BB9944",
"&.	c #997788",
"*.	c #556677",
"=.	c #DDBB44",
"-.	c #BBAA66",
";.	c #EEBB00",
">.	c #886655",
",.	c #888899",
"'.	c #AA8888",
").	c #334433",
"!.	c #776644",
"~.	c #554466",
"{.	c #556655",
"].	c #AA8855",
"^.	c #EECC33",
"/.	c #FFDD00",
"(.	c #AA8877",
"_.	c #AA9966",
":.	c #EEBB33",
"<.	c #997733",
"[.	c #667777",
"}.	c #EECC22",
"|.	c #BB9977",
"1.	c #665533",
"2.	c #997766",
"3.	c #777788",
"4.	c #889977",
"5.	c #9999AA",
"6.	c #776688",
"7.	c #887755",
"8.	c #CCAA55",
"9.	c #886666",
"0.	c #FFBB22",
"a.	c #886644",
"b.	c #EEBB11",
"c.	c #CCAA33",
"d.	c #777722",
"e.	c #556666",
"f.	c #555533",
"g.	c #775555",
"h.	c #997744",
"i.	c #DDBB33",
"j.	c #887733",
"k.	c #666644",
"l.	c #445544",
"m.	c #998844",
"n.	c #887744",
"o.	c #CCBB22",
"p.	c #AA8844",
"q.	c #AA7744",
"r.	c #DDAA22",
"s.	c #775566",
"t.	c #AA8866",
"u.	c #DDAA33",
"v.	c #EEBB22",
"w.	c #996655",
"x.	c #CCBB33",
"y.	c #FFBB11",
"z.	c #998855",
"A.	c #776633",
"B.	c #AA8822",
"C.	c #BBAA44",
"D.	c #BB9955",
"E.	c #FFCC33",
"F.	c #EEAA22",
"G.	c #664444",
"H.	c #886633",
"I.	c #CCAA44",
"J.	c #AA9933",
"K.	c #DD9933",
"L.	c #DDAA11",
"M.	c #AA9922",
"N.	c #BBAA33",
"O.	c #CC9955",
"P.	c #CCAA11",
"Q.	c #CCBB44",
"R.	c #664466",
"S.	c #DDBB55",
"T.	c #BB8844",
"U.	c #CC9933",
"V.	c #DDAA44",
"W.	c #445533",
"X.	c #664433",
"Y.	c #AA7755",
"Z.	c #997777",
"`.	c #DDCC11",
" +	c #664477",
".+	c #DDCC00",
"++	c #DD9944",
"@+	c #EEDD00",
"#+	c #777744",
"$+	c #DDAA55",
"%+	c #999933",
"&+	c #BBAA22",
"*+	c #AA9955",
"=+	c #777733",
"-+	c #998833",
";+	c #885533",
">+	c #444466",
",+	c #778855",
"'+	c #888866",
")+	c #DDCC22",
"!+	c #EEAA44",
"~+	c #774444",
"{+	c #445566",
"]+	c #DDBB00",
"^+	c #EEAA11",
"/+	c #EEDD11",
"(+	c #997722",
"_+	c #553333",
":+	c #885544",
"<+	c #BB8866",
"[+	c #554477",
"}+	c #556644",
"|+	c #221133",
"1+	c #334422",
"2+	c #111122",
"3+	c #775522",
"4+	c #CCAA77",
"5+	c #334444",
"6+	c #446655",
"7+	c #888844",
"8+	c #776622",
"9+	c #FFBB33",
"0+	c #553322",
"a+	c #EEAA33",
"b+	c #EECC44",
"c+	c #888855",
"d+	c #CCBB11",
"e+	c #998866",
"f+	c #444411",
"g+	c #EEDD22",
"h+	c #553355",
"i+	c #667766",
"j+	c #442244",
"k+	c #CC8844",
"l+	c #774455",
"m+	c #AA7722",
"n+	c #996633",
"o+	c #AAAA22",
"p+	c #666633",
"q+	c #996644",
"r+	c #554422",
"s+	c #333311",
"t+	c #223311",
"u+	c #332211",
"v+	c #778888",
"w+	c #333355",
"x+	c #665588",
"y+	c #886688",
"z+	c #664422",
"A+	c #555577",
"B+	c #335544",
"C+	c #885522",
"D+	c #886622",
"E+	c #AA7766",
"F+	c #FFBB44",
"G+	c #BBBB44",
"H+	c #AA7733",
"I+	c #AAAA33",
"J+	c #999944",
"K+	c #FFDD22",
"L+	c #442211",
"M+	c #222244",
"  . + + @ + + # @ $ + + + + + @ $ $ # + + + # $ $ $ + # + # + @ + @ $ + % $ # @ # # @ $ $ $ @ # $ $ $ # . & $ & + $ + +   # & # # $ * = & # * + $ $ # + + + # $ + @ $ $ # + + + + - ; + + # # $ + # @ # + + + + $ + $ + $ % + $ + $ $ & $ @ + @ + # # + + @ $ # $ @ @ @ # # # # # # @ @ @ # + + # % + $ + $ + + + + $ + + + + + $ + $ $ $ $ % + + $ $ + + $ + + * # # # + + + + $ $ * # # + + + + + + + + + # # $ + + + + + # + $ $ + + + + + + $ + $ + $ $ + + $ ",
"> , ' ) % ! ) ~ ! % & + + % ! ! % % ! { ] ] ] ! ^ + + & ) / ( _ ' : ) < < - + # % ! < { % & ! < ! % + @ % ' , [ / / } / % ^ < < ] % + = & = | < % % ! 1 ] ] 1 1 ^ - @ + ! : ' ( _ ' < 2 < % & + + ! < ! % + % ] ! ! + $ & : ' / > / , ' ! % ] ) < ^ & + + + % { % 3 ^ ! ! { ] ] ^ % & & ^ 2 , ( ( ( ~ ] < ! % + + ! < ! % + % ] < { + $ + ! / ' / / / ' ~ % ! ~ < ! % + # + % ! ^ ! ! ! ! 1 ] ] ! 3 - + % ] : ' ( ' > < 2 < % + + % ] ! % + % ! < ] + + + % / ' / ",
"> / [ < % ^ { { ! % % - + % ! ! % % ! ! { { ! ! ! 3 % % ] 2 / / ' ~ ] ] ] % % & ^ ! ] ! ^ 3 ! ] ] ! % + & / : ~ > > , > & % ! ] 1 % & & & & | ] % % ^ ! 1 1 1 ! < ! & & ! 2 : / ' [ ! < { 3 % % % ! < ! % % ! < < ! % + % ~ ~ ~ 2 : / / ^ - ! < ] ^ & + + & 3 { % 3 ^ ! ! ! { ] { ! % % ^ < > [ / ' ) ! < ! % % % ! < ! % % ! < < ] % + & ! > / ~ ~ : / < + % < < 1 % = + = % ^ ^ ^ ! ! ! ! 1 1 ! ^ & + % ! ~ / / / ~ ] < { % & % ! ! ! ! % ! ! < ! - + + % ~ / < ",
"~ ~ : ~ < < ! ! ] ] < < < < < < < < < < < < < ] < < 2 < < { < < , ~ { < 2 < ) ) ) < < < < ) < < < < < < ! ) ] < ~ 2 / : ! ] ] ] < ] ] < 4 < < 4 < < < < < < < ] ~ 2 < < < < < < [ / ! < < < < < ) < < ) 2 2 2 2 < < < < < < < ] < 2 : / < ! { < < < < < < < < < < < < < < < < < < < < < < < < ) ~ / ~ < < < < 2 ) < < ) 2 2 2 2 < 2 < < < < < ] ] ) ~ / ~ ] ] < < < < < < < < < < < < < < < < < < < < < < < < < 2 / ~ < < < < ) < < < 2 ~ ~ 2 < < ) < < < ! < ! < ",
"~ > / ~ < ! 3 { ! ] ] ] < < < < < < < < < < ] ] < < < < < < < < : < 3 { < < < ) ] < ) < < ] < < < { ! < ! { ! ] < 2 [ , ] ! ^ ! ] 1 ] < < ] ] < < < < < < < ] ] ] ] ] ] ] ] < < : ~ % ! < < < < < < < < < < < < ] ] < < < ! ! ! ] 2 / ' 2 ! ^ ! ] ! ] < < ] ] < < < < < < ] ] ] ] ] ] ] ] ] < < ~ ~ ! ^ < ) < < < < < < < < < < < < { ] { ! ] ] ! 2 > / ~ ! ! ! ! ! ] ] < < < < < < < < < < < < < < < < < < ] ] 2 / < ^ < ~ < < ! < < < < < < < < < ] ] ] ! ] { < ",
") / , ~ { ! ^ ] ] < ] ] < < < < < < < < < < < < ) ) < < < < < < > ] & ! < < < < ] < ) ) < ] < < < < < < ] < ] ] < 2 / , < ! 3 ! < ] < < < < < < ] < < < < < < < < < < < < < < < ~ 2 & ! < < ) < < < < < < < < < < < ] ^ ! ] < ! ] ) / , ~ < % ^ ] { ] < < < < < < < < < < < < < < < < < < < < < ~ ~ % % < ~ < < ] ] ] < < < < < < ] ! ! ! ! ] < < < ~ / > ! ! ! ] ] < < < < < < < < < < < < < < < < ] ] < < ) 2 < : ] % ] ~ < < ! ] < < < ] < < < < ! ! { ] < < { ",
"< ~ / 2 < < ! ] ] < < < 2 < < < < < < < < < < < ! < < 2 { ] ] < : < & { < < ] { ] ] ] < < < ] { ! < < < < < < < 2 < ~ : < < ! ! < < < < < < < < < < < < < < < < < < < < ) < < < / ~ % ! < < < ] < < ] < < < < < ! ! { ! < < ) < < < ~ : ~ ) ^ ! ] { < 2 2 < < < < < < < < < < < < < < < < < < < > : ! 3 < < < < < < ] < < < < < < { < < < { ! { < < < : : < ! ! ] < < 4 2 < < < < < < < < < < < < < < < < < < < ) / < % ! < ! < < < < < < < < < < { ] ] < < { ! < ",
") ~ ~ 2 < ^ % < ] < ] { < < < ) ~ 2 2 < < < < < ] < < 2 ] < ) ~ : < % ] ) 2 < ] ] ] < < < < ] ] ) < < < < ] ] ] ~ < < 2 ] ] ^ ! < < < ] < < < < ~ 2 4 < < < < < < < 2 < < < < ) ~ 2 & ! < < < ] < < < < < < < < < ] ) < 2 ! ] < < < 2 ~ < ] % ! ] { ] < < < < < 2 2 ) < < < < < ~ 2 2 < < < ] ] ~ ~ 3 % ] < < < < < < < < < < < < { < < ) < < 2 < 2 2 ~ 2 ] ! % ] ] < < < < < < 2 2 4 4 4 < < < < < ) ) < < < ] < / < - ! < ] < ] ] < < < < < < ] ! { ] < 2 < < < ",
"~ < ~ ~ < ! 3 < < < < < < < < < < < < < < < < < < < ) < < < < 2 : ] 3 ] ] < < < < < < < < < < < < < < < < < < ) < ) ~ ~ ] < ! ] < < < < < < < < < < < < < < < < < < < < < < < < ~ ~ % ! < ] < ] < < < < < < < < < < < < < < < ) < < < ~ ) < ! ! < < < < < < < < < < < < < < < < < < < < < < < < 2 : ! ^ < < < < < < < < < < < < < < < < < < < ) < < ) ~ ~ 2 ! % < < < < < < < < < < < < < < < < < < < < < < < < < / < 3 ! < < < < < < < < < < < < < < < < < < < < ",
"~ 2 ~ ~ < ! ! < < < < < < < < < < < < < < < < < < < < < < < < ) : ] ^ ] ] < < < < < < < < < < < < < < < < < < < < 2 ~ ~ < < ! ] < < < < < < < < < < < < < < < < < < < < < < < < ~ ~ % { < < < < < < < < < < < < < < < < < < < < < 2 ) ~ ) ) ! ! < < < < < < < < < < < < < < < < < < < < < < < < 2 : ! ^ < < < < < < < < < < < < < < < < < < < < < < ) 2 2 ) < ] < < < < < < < < < < < < < < < < < < < < < < < < < / < ^ ! < < < < < < < < < < < < < < < < < < < < ",
"< < ~ ) < < < 2 < < < < < < < < < < < < < < < < ] < < < < < < < / ] ^ ] ] < < < < < < < < < < < < < < < < < < < ] < ~ ~ < < ] < < < < < < < < < < < < < < < < < < < < < < < < < : ~ 3 ] < < < < < < < < < < < < < < < < < < < < ] < ) ~ 2 2 < ] < < < < < < < < < < < < < < < < < < < < < < < < 2 : ! ! < < < < < < < < < < < < < < < < < < < < ] < ~ ~ ) < < < < < < < < < < < < < < < < < < < < < < < < < < < < / < ^ ! < < < < < < < < < < < < < < < < < < < < ",
"< ) ~ < ] ] ] < < < < < < < < < < < < < < < < < ] < < < < < < < / ] ^ ] ] < < < < < < < < < < < < < < < < < < < < ) ~ ~ < < ! < < < < < < < < < < < < < < < < < < < < < < < < < : ~ 3 ] < < < < < < < < < < < < < < < < < < < < < ) 2 ~ < < ! ! < < < < < < < < < < < < < < < < < < < < < < < < 2 : ! ^ < < < < < < < < < < < < < < < < < < < < ] ) ~ > 2 ] ! ! < < < < < < < < < < < < < < < < < < < < < < < < < / < ^ { < < < < < < < < < < < < < < < < < < < < ",
"2 2 ~ ) ] ! ! ] < < < < < < < < < < < < < < < < ] < < < < < < < / < ^ < ] < < < < < < < < < < < < < < < < < < < ) ~ ~ ~ ] ! % ! < < < < < < < < < < < < < < < < < < < < < < < < ~ ~ % { < < < < < < < < < < < < < < < < < < < < < ~ ~ ~ < ] ^ ^ < < < < < < < < < < < < < < < < < < < < < < < < 2 : ! ! < < ) < < < < < < < < < < < < < < < < < ] < 2 ~ 2 ] ! ^ < < < < < < < < < < < < < < < < < < < < < < < < < / < ^ { < < < < < < < < < < < < < < < < < < < < ",
"< < ~ ) < ] { < < < < < < < < < < < < < < < < < < < ) < < < < ) / < ^ < ] < < < < < < < < < < < < < < < < < < < ] < ~ ~ < < ! < < < < < < < < < < < < < < < < < < < < < < < < < ~ ~ % { < < < < < < < < < < < < < < < < < ] ] ] ! < ~ ~ < < { ] < < < < < < < < < < < < < < < < < < < < < < < < 2 : ! ! ) < ) < < < < < < < < < < < < < < < ] ] ] < ) 2 ) < ] ] < < < < < < < < < < < < < < < < < < < < < < < < < / ) ^ ] < < < < < < < < < < < < < < < < < < < ] ",
"< 2 > 2 < < < ~ < < < < < < < < < < < < < < < < < ) 2 2 < < ) 2 / < ^ < < ) < < < < < < < < < < < < < < < < ] ] ] < ~ ~ < 2 < ~ < < < < < < < < < < < < < < < < < < < < < < < < : ~ 3 ] < < < < < < < < < < < < ) < < < < ] ] ] ! < ~ : 2 2 < 2 < < < < < < < < < < < < < < < < ) ) < < < < < < 2 : { ! ) < ) < < < < < < < < < < < < < < ] ] ] ] ) ~ ~ ) < < ) < < < < < < < < < < < < < < < < < < < < < < < < < / ) ! ] < < < < < < < < < < < < < < < < < < < ] ",
": [ ' ~ < < < ] < < < < < < < < < < < < < < < < < 2 ~ 2 ) < 2 ~ / < ^ < < ) < < < < < < < < < < < < < < < < ] ] ~ : / / 2 ) { < < < < < < < < < < < < < < < < < < < < < < < < < / > ^ < 2 < 2 < < < < < < < < < ) ) < < ] ] ] ] 2 / / / 2 < ] < < < < < < < < < < < < < < < < < 2 2 2 ) ) ) ) ) 2 : { ! ) < ) < < < < < < < < < < < < < ] ] ] ] ] ~ [ [ ~ ] ] < < < < < < < < < < < < < < < < < ) ) ) ) ) ) ) ) < / ) ! ] < ) < < < < < < < < < ] ] ] ] ] ] ] ] { ",
"' / ~ ~ < < < ) ) ) < < < < < < 2 ) ] < 2 2 < 2 2 ~ ~ 2 < < ~ : _ > < < < < ) ~ ~ { ) 2 < < < < ] 2 2 2 < 4 4 < ~ / , / 2 ] ] < 2 < ) ] < < < ] ~ < < < < < < < < 2 ~ 2 < < 2 ~ ' : < < < < 2 ~ 2 < ) ] ] ) ] < < < < 2 2 < < < 2 / , / 2 < < < ) 2 < < ] < < < 2 < < < < 2 2 2 < < 2 ~ 2 ) ~ / / : ~ ) < < < ) < < < ) < ] < ) < < ] 2 ~ < 4 ] 2 : 5 / ~ 2 < ] < ) < ] ] < < < < 2 2 < < ) ~ 2 ~ < < 2 ~ 2 2 ~ , / ~ < ] ] < 2 ~ ) < < < ) < < ] 2 < < < < 2 ] < ",
": ~ < ] ] ] < < < < ] < 2 2 ~ 2 ] < < < ) < < ) < < < ] < ~ / , [ [ / ~ < ! ] 2 < < ~ ~ ) < 2 < 2 2 2 2 < < 2 ~ 2 ~ ~ 2 ] 1 ] < < < < < 2 < ~ ~ < < < < ) < < 2 < < < < < ~ / , / , / ~ ] ! < ) < < < ) 2 2 ~ 2 ~ 2 < ) < < 2 > ~ ~ ~ ~ < { < < < < < < < ) 2 ~ ] < < < ) ) ) ~ ~ 2 < < < < ~ : ' , / ~ ) < < < ) < < 2 ~ 2 < < ~ < < 2 4 < < ~ ~ ~ ~ 2 4 < ] ] < < ] < < < < 2 < < < ) ) < 2 2 2 ) < < ] < ~ / , [ / : ~ 2 < ] ) ] ] < 2 < < < 2 ) 2 ) ) ) < ) / ",
"~ > ) < 2 2 2 : 2 ~ ~ ~ 2 < < 2 < 2 2 2 2 < < ~ ~ ~ ~ > : : : : ~ / / ~ ~ ~ ~ 2 < : ~ > < < / ~ < ~ / / 2 ] 2 / : / 2 < 4 4 2 6 ~ ~ ~ ~ ~ < < 2 < 2 2 2 ~ < < : > ~ ~ ~ : / / : ~ : / ~ ~ ~ ~ 2 ) / : > < ! ~ : < 2 : / ~ ] < / / ~ 2 < < < < ~ ~ ~ ~ ~ ~ ) < < ] 2 2 ) 2 2 ) ~ > > ~ ~ ~ : > ~ / : > ~ ~ ~ ~ ~ ) 2 > > 2 < 2 / 2 < 6 : ~ 2 ] 6 / : 2 < < 4 2 4 : ~ ~ ~ ~ < < < 2 < < ~ ~ ) ) ~ ~ ~ ~ ~ ~ : : > : > ~ ~ ~ ~ > > < 2 : [ : ) 2 / 2 < ~ > > ~ ] ) / ",
"> > 2 2 : ~ ~ , / , , / : ~ ) ~ ~ ~ 2 ~ ~ 2 2 / , , ' ' } , : 2 < 2 2 ~ / ' , ~ / ' ' ' / : , / ~ / ' ' / ~ : ' / / 2 < ~ 6 ~ / , [ [ / : ~ ~ 2 2 ~ 2 ) ~ 2 ) / ' ' ' ' ' ' / ~ ) < ) ~ / , / > : ' ' ' / ~ / ' ~ / ' _ , : : [ ' / ~ 2 ~ ~ ~ : , / / / : > ~ < 2 > ) < 2 2 < ~ [ , , , ' ' [ ~ ~ ~ ~ ~ : / , , : , _ _ / ~ : ' : : , ' ' 5 6 : 5 / ~ 4 2 : : 2 ' , ' , / > ~ ) > ~ ) ) 2 ) ) 2 / , , , ' ' , > ~ ~ 2 2 ~ / ' _ > / ' _ ' : : , / : , , , [ : : ' ",
"! ^ & % ! % & ] ~ < < < : / ) < ) ! % ^ { ^ ! 2 ] ! ^ ^ ! ! ^ 3 ^ ! ! ! ! ] < < < < ~ > 2 < ^ % ! ^ % % ^ ! ! | ^ ^ & = ! ! % ^ < 2 ) < ~ / ~ < < < 3 % ! ! ^ < < { ^ ^ ! ! ! ! ! ! ! ! { { ] < < < 2 2 ~ 2 ^ % ! ^ % & ^ { ! % ! ! % % % ! ^ % < < ~ 2 2 : : < < < % - ^ ^ % ^ < < ! 3 ^ { { ^ ! ! ! ! { ] < < < < 2 > > < ^ % ^ ! % % | ^ ! | ^ ! ^ & % 1 ! & ! ] ) ) < ~ > < ) < ! % % ^ ^ 3 ] < < ! % ^ ! ! ! ! ! ! ! { ] < < ] ] ) ~ 2 ! % ! ! % % % % ! ^ % ",
"% % + & % + + ^ ! ^ ! ! ~ / < ) ] 3 + % ^ % % ] ! ^ & & & 3 ! ! ! ! ! ! ^ ^ ! < < ! ) 2 < { % % | % = + % ^ % + & % + = ^ | & % ^ ! ! ! < / ~ ] < { % % ^ ^ % ! { ! % - & % ! ! ! ! ! ! ^ % ! < ) ] 2 < < < & + ! % + $ - ! ^ - & & - + & % % + ! ! ] { ] : / < 2 ] % - ^ ^ % % < { 3 & & 3 ! ! 3 3 3 ^ ^ ^ ^ ^ < { ] 2 ~ < % + ^ ! + # + & ! % + % % + & | % # + % ! ! ! ~ / 2 < < ^ & % ^ 3 % < < ! % & % ^ ! 3 ^ ^ ^ ^ ^ % % ) < ] < 2 ) ! & % ^ - + + + ^ % # ",
"< < < < < < < ~ < < ~ 2 / , 2 / ) ) < < 2 ) < ~ 2 2 ) < ] < < 2 ~ ) < 2 ~ ~ ~ ~ ~ 2 ~ 2 < < < < ] < 2 2 4 < < < < < < < 2 2 4 2 < ~ ) ~ > ' / 2 ~ 2 < 2 ~ ) < ~ 2 2 ) < < < < < 2 < < < 2 ~ ~ ~ < 2 ~ 2 < < < 2 < ) ) ] < ) ) < < < < < ) 2 2 ) ~ < 2 2 2 [ ' ~ : ~ < < ~ ~ 2 < 2 ) ) < < ] < 2 2 2 2 ~ ~ ~ ~ ~ 2 2 ~ ~ 2 ] ] < < 2 < ] ] < 2 < ] 4 2 2 2 2 2 2 < < ~ ~ 2 / ' / : ~ < < 2 ~ 2 < ~ 2 < < ) ) < < 2 2 2 2 ~ ~ ~ ~ < < 2 ~ 2 ] ! { < ) < < < < < < < ",
"! ] < ] ] < 2 < < < 2 < / ' ) > ! ) 2 ) 2 ) < < < < 2 < ] ] < 2 < < < ) ) < < < ] 2 < < ! ! 2 < < ] ] < ] 1 ] < < < ] ] ] ] < < < 2 ) ~ ~ , : ~ { ] < ~ 2 < < ) { < 2 ) < ] ] < < < < < < < < < ] 2 ) 2 < ! < < ! ] < < < < ] ! < ! ! ] ] ] < ) ~ < < ) ) / ' ~ < < < 2 ~ ~ ) < ] ] < ) < ! ! < < < < ) ) < < < { < 2 ~ < ! ] 2 ] ] 2 ] ] < 1 < 1 1 ] < ] 1 ] 2 ) < ~ ~ < > , : 2 < ] 2 ~ ~ < ] { { ] ) < ] ] < < < < < < ) ) 2 < < 2 ~ 2 ] { < < ! < ] ] ] ! < ] ",
"] ] ] < < < < < < < 2 2 / ' ! ] < < < < < < < < < < < < < < < < ) < < < < < < ] < ) 2 ~ ^ ! < < ] ] ] ] ] ] ] ] ] ] ] ] ] ] < < ] < 2 ) ~ ' ~ ^ < < < < < < < < < < < < < < < < 2 ) < < < < < < < < 2 ~ ] ^ { ] ] ] ] ] ] ] ] ] ] ] ] ] < < < < ) < ~ ~ ) / / % ! { ] < < < < < < < < < < < < < < < ) ) ) < < ] < < 2 2 < % ! < ] ] ] ] ] ] ] ] ] ] ] ] ] ] < < < < ) 2 < : / ^ ! { < ] < ) < < < < < < < < < < < < ) ) ) < < ] ] ] ) 2 ~ ^ ! < ] ] ] ] ] ] ] ] ] ",
"] ] < < < < < < < ] < 2 / ' ^ ! < < < < < < < < < < < < < < < < < < < < < < < ] < ) 2 ~ ^ ! < < ] ] ] ] ] ] ] ] ] ] ] ] ] ] < < < < < ) ~ ' ) % < < < < < < < < < < < < < < < < ) < < < < < < < < < 2 ~ ] ^ { ] ] ] ] ] ] ] ] ] ] ] ] ] < < < < < ] ) 2 2 ' / % ] ] < < < < < < < < < < < < < < < < < ) < < < ] < < 2 2 < % ! < ] ] ] ] ] ] ] ] ] ] ] ] ] ] < < < < < ) < / [ ! ^ ] < ) < < < < < < < < < < < < < < < ) < < < ] < ] ) 2 ~ ^ ^ < ] ] ] ] ] ] ] ] ] ",
"] < < < < < < < < ] < ) / ' ! 3 < < < < < < < < < < < < < < < < < < < < < < < < < ) 2 ~ ^ ^ < < < < ] ] ] ] ] ] ] ] ] ] ] < < < < < < < ~ ' < % < < < < < < < < < < < < < < < < < < < < < < < < < < 2 ~ ] ^ ] ] < < ] ] ] ] ] ] ] ] ] < < < < < < ] < < 2 ' / % < < < ) ) < < < < < < < < < < < < < < < < < ] ] < < 2 2 < % ! < < < ] ] ] ] ] ] ] ] ] ] ] < < < 2 < ] < ) / ' ! ! ] ~ ~ 2 < ] < < < < < < < < < < < < < < < ] ] < ] ) 2 ~ ^ ^ < < < ] ] ] ] ] ] ] ",
"< < < < < < < < ) < < ) : ' ] ] < < < < < < < < < < < < < < < < < < < < < < < < ) ) 2 ~ 3 ^ < < < < < ] ] ] ] ] ] ] ] ] < < < < < < < < ~ , ~ ! ] < < < < < < < < < < < < < < < < < < < < < < < < < 2 ~ { 3 ] < < < < ] ] ] ] ] ] < < < < < < < < < < < 2 , [ ! < < ) 2 ) < < < < < < < < < < < < < < < < < ] ] < < 2 2 < % ! < < < < ] ] ] ] ] ] ] ] ] < < < < ) < < < ) / ' < ] < 2 ~ 2 ] ] < < < < < < < < < < < < < < < ] ] < < 2 2 ~ ^ ^ < < < < ] ] ] ] ] ] ",
"< < < < < < < < < < < ) ~ / ) ~ < < < < < < < < < < < < < < < < < < < < < < < < 2 2 2 ~ % ^ < < < < < < ] ] ] ] ] ] ] < < < < < < < < < 2 / ~ ~ ] < < < < < < < < < < < < < < < < < < < < < < < < < 2 2 { 3 ] < < < < < ] ] ] ] < < < < < < < < 2 < < < < / / 2 < < ) ) ) < < < < < < < < < < < < < < ] ] ] ] ] < < 2 2 < % ! < < < < < ] ] ] ] ] ] ] < < < < < < < < < < ~ / 2 ) < < < < < < ) < < < < < < < < < < < ] ] ] ] ] < < 2 2 ~ ^ ^ < < < < < ] ] ] ] ] ",
"< < < < < < < < < < < 2 2 : 2 ~ < < < < < < < < < < < < < < < < ] ] < < < < < < 2 2 2 ~ % ^ < < < < < < < ] ] ] ] < < < < < < < < < < < < : ~ ~ ] < < < < < < < < < < < < < < < ] ] ] < < < < < < < 2 2 ! % ] < < < < < < ] ] ] < < < < < < < < 2 < < < < ~ : ~ ] < < < < < < < < < < < < < < < < < ] ] ] ] ] ] < < 2 2 < % ! < < < < < < ] ] ] ] < < < < < < < { < < ) < 2 : 2 ) < ] < < < < ) < < < < < < < < < < ] ] ] ] ] ] < < 2 ~ ~ ^ 3 ] < < < < < ] ] ] ] ",
"< < < < < < < < < < < ~ 2 ~ < { < < < < < < < < < < < < < < < < ] ] ] ] < < < < ~ 2 ) 2 % ^ < < < < < < < < ] ] < < < < < < < < < < < ) ) ~ < ] ] < < < < < < < < < < < < < < < ] ] ] ] ] < < < < < ) 2 ! % ] < < < < < < < ] ] < < < < < < < < < < < < < ~ ~ ] { ] ] < < < < < < < < < < < < < < < ] { { ] ] ] < < 2 2 < % ! < < < < < < < ] ] < < < < < < < < ! ] < ) < 2 ~ < { < < ] ] < < < < < < < < < < < < < ] { { ] ] ] ) < 2 ~ ~ 3 3 ] < < < < < < ] ] ] ",
"< < < < < < < < < ] < ~ ~ ~ ! % < < < < < < < < < < < < < < < < ] ] ] ] < < < < ~ 2 ) 2 % ^ < < < < < < < < < ] < < < < < < < < < ] < 2 2 ~ ! % ] < < < < < < < < < < < < < < < { { ] ] ] < < < < ) ) 2 ! % ] < < < < < < < < ] < < < < < < < < ! ] < < ) ~ ) % ! ! ] < < < < < < < < < < < < < < < ] { { { ] ] < < 2 2 < % ! < < < < < < < < ] < < < < < < < < ! ] ] < 2 2 ) ! % ] < < ] < < < < < < < < < < < < < ] { { { ] ] ) < 2 ~ ~ 3 3 ] < < < < < < < ] ] ",
"] ] < < ) < < < { ] < < ~ 2 ! ! ] < < < < < < < < < ) < ! { < < < < < < ] ] ] { ) < > : ^ ! ) < < < ) < < < < ] < < < ) < < ] ] ] ] ] < ~ ~ < 3 ! ] < ) ) < < < 2 < ] < < { ] < < < < < < ] ] { < ) ~ ~ ] 3 ] < ] < 2 ) ) ) < { ] ] < ) ) < < < < ] < < 2 ~ ) ^ { ] < ) < < < < ) < ] ] ] ] < < ] ] < < < < ] ] < ) 2 ~ < 3 ! ) ] ) ) ) ~ ) ] ] ] ] < ) ) < < < ] ! { ] < ~ 2 ! ! ] < < ) ) < ) < < < ] { < < ] ] ] < < < < ] { < < ) ~ ~ ! % 2 < < < < ~ 2 < < < ",
"{ ] < < < < ] ] ! ! ] < 2 ) ! ! ) ) ) < < ] ] { < < ) ) { ] < < ] ] < < < ) ) ) 2 < > > ! ! 2 < < < < < < < < ] ] ] < < < ] ] { ! ! { ] ) 2 ] 3 < ) ) ) < ] ] ] 2 < < ) ) < < 2 ] ] ] < < < < < < ) ~ ~ ] ^ < < < < < < < < < < ] ] < < < < < < { ! { ] < 2 < ^ ] < < < < < < < < ) ) 2 2 < < < { { ] < < ) ) 2 < < 2 > < 3 ! ) < ) < ] < < ] < ] ] < < < < < < ] ! { ] < ~ 2 { { ] < < ) < < < ) 2 2 < < ) ) < ! { ] < < ) < < < < ) ~ ~ ! % 2 ) ) ] { < < < < < ",
"] ] < < < ] ] ] { ] < < ~ ~ ] < < < ] ] ] < < < < < < ) ] ] < ] < < < < < < < < ) < ~ ~ ! ! ) < < < < ) ) < ] ] ] ] < < < ] ] ] ] ] < < ~ ~ 2 { < < < ] ] ] < < < < < < < ] ] < 2 ) ) ) < < < < < < 2 ~ ] ! < < < < < < < < < < ] ] ] < < < < ] < ] < < 2 ~ ~ ] < < < ] ] ] < < < < < < < < < ] ) ) < < < < ) ) < < < > ) 3 ! 2 < ) < < < < < < ] ] ] < < < < ] ] { ] < ) ~ ~ < ] ] < < < < < ] < < < < < < < ] < < < ) ) < < < < < < ~ ~ ! ^ ) ) ) < ] < < < ) < ",
"] ] ] ] ] ] ] { ] ] < < ~ ~ < ) < < < < ) 2 ~ ~ < < < < < < ] ] ~ 2 2 ) < < < < ) < ~ ~ ! { ) < < ] < < < ] ] ] ] ] ] ] ] ] ] ] ] ] < < 2 ~ 2 < 2 ) < < < 2 2 2 < < < < < ] ] ] 2 2 ) < < < < < < < 2 ~ < ! < < ] ] < ) ) < ] { { ] ] ] ] ] ] ] ] ] < < < ~ ~ < ~ 2 < < < ) 2 2 < < < ] ] < < ] 2 2 ) < < < < < < < < > 2 ^ ! 2 ] < < ) ) < ] { { ] ] ] ] ] ] ] ] { ] ] < ~ ~ < 2 ) ) ) 2 2 ) < ] < < ] ] < < { ) ) ) < < < ] ] < < < ~ ~ { ! ) ] < < < < < < ] < ",
"< < < < < < < < ] ] < ] 2 ~ < 2 < < < < < < < < < < < < < < < < < < < < < < 2 2 ) < ~ ~ ] ] 2 < < < ) ) ) < < < < < < < < < ) ) ] < < < < ~ 2 < ~ ) ] ] ] < < ] ) 2 2 ) ) ) ) < ) ) < < < 2 2 ~ < < ) ~ < ! < ) < < 2 ~ 2 ) < ] < < < < < < ) ) ] ] < < < 2 ~ ) 2 < ] ] < < < < < 2 ~ 2 ) 2 ) ] 2 ) < < < ) 2 ~ ) < < > ~ ! ] 2 < < 2 ~ 2 ) < ] < < < < < < ) ) < ] < < < ~ > 2 ) < ] ] < < < ] ) 2 2 < < 2 ) < < < < < ) ) 2 2 < < < 2 ~ < ] 2 < < 2 2 ) < < < < ",
"< < < < < < ) 2 ) < < ] 2 ~ ) 2 ] < < ) 2 2 ) < 2 2 < < ) ) < ) 2 2 < < < ) 2 ~ 2 ) ~ ~ < < ~ 2 < 2 2 ) ) 2 ) < < < < < < < 2 2 < ) ) < < 2 ~ 2 2 < ] < ) 2 2 < 2 ~ 2 < < 2 2 2 2 ) < < < < ) 2 2 2 2 ~ ) < ~ ~ < ~ 2 < < 2 2 < < < < < < < ) ) < < < < ] 2 ~ 2 2 < ] ] ) 2 2 < 2 ~ ~ < < 2 2 < 2 2 < < < < < ) ) 2 ) > ~ < < 2 2 ) 2 2 < ) 2 ) < < < < < < ) ) < < ) < < 2 ~ 2 2 < ] < ) 2 2 < 2 ~ 2 < < 2 2 ) 2 ) < < < < < < ~ ) ) ~ ~ ) < ~ 2 ) 2 ) < < ~ ~ < ",
"> ~ ~ ~ : / / [ , [ / : [ ' / , 2 ~ : [ , , [ / } ' / : [ , , ' [ / : ~ ~ ~ > : , , ' ' , , ' ' : ' ' / / ' , : > > > > : : / / [ , , / / , , , > ~ ~ : , ' , / ' ' , : : [ , , , [ / > ~ > : : ' , , } ' / ' ' / ' ' / / ' ' / : : > ~ > : : / , [ [ / : [ ' , : ~ ~ : , ' , / ' } , ~ ~ [ ' , ' , / > ~ ~ ~ > [ ' , ' ' , ' , , / [ , / / , / : : > ~ > : : / / / [ / > / , / [ : ~ > / , [ / ' ' , : : [ , , , [ / : ~ ~ ~ ~ ' , , ' ' ' ' ' , / , , / / ' ' [ ",
"] ] ] ] < ) ~ ~ > ~ 2 < 2 ~ 2 ~ 2 ~ / [ , / : ~ ~ ~ ] ! ] < < 2 2 ) < < < ) 2 ~ < < 2 2 < < 2 ) 2 / / 2 2 / : < < < ] ] < < 2 ~ ~ ~ ~ ) < 2 ~ ~ > ~ ~ : [ , / > ~ ~ ) { ! < 2 2 2 ) < < < < 2 ~ ) < < ~ < < 2 2 < / / ~ ~ / : < < < < ] < < ) 2 ~ ~ ~ < ] 2 > ~ ~ 2 2 > , ' [ : 2 ~ 2 { ! ) ~ ) ~ 2 < < ] < ) 2 ] 2 ) 2 2 ) 2 < ~ ~ : / : > > 2 < < < ] < < ) 2 ~ ~ ~ 2 < 2 ~ 2 / ~ 2 ~ : [ [ / ~ ~ < { { < 2 2 2 2 < < < < < ) 2 < < ) ) ) 2 ) ~ ~ / / ~ ~ : ~ < ",
"- $ $ & 3 # @ ^ 3 3 3 ^ ^ ^ ^ ^ : / / [ , < { { % % - + + + + + @ % 3 + + ! { % % & + # # # + + + ) [ < < ] ^ - # + # # & - + & 3 3 3 ^ ^ ^ ^ ^ ~ > / / , ~ ] ! 3 % & + # # # + + - % % % % ^ ! ^ % - + # # + + $ ^ ' < < < { - + + + + & & + # ^ ^ 3 3 3 ^ ^ ^ 2 ~ / / [ : < ] % % & & + + # # + + % % - & ^ ^ 3 % & + # # # + + + : > < ] { & # # # + & & - + ^ ^ ^ ^ ^ ^ ^ ^ ! 2 / , , , < ] 3 % % & + # @ $ @ + - & - & % 3 % % % & + + # # + + < / < < ] 3 + ",
"{ ! ^ ] ) { ! 2 ] ] ] ] ] ] ] ] ~ : / , , < ] < < < < ] { { ! ! % ! { ^ ! < < { < < ] { ! ! { { { ~ [ ~ 2 < { ] ! { ! ! ] ] ] < ] ] ] ] ] ] ] ] ~ > [ [ , 2 < < < < < ] { ! ! ! 3 ! ! { ! ! ] < 2 < < { ! ! ! { ^ < _ ~ ~ 2 ) ] { ! { ] < < ] ! ] ] ] ] ] ] < < 2 ~ : / , / < < ) < < ] ] { ! ! ^ 3 ! { ^ ! ] ] < < < ] { ! ! ! ! ! ' , ~ 2 2 ! ! ! ! ] < < ] { ] ] ] ] ] ] ] ] ] ~ : / , ' 2 ] < < < ] ] { ! ! ^ ! { { ! { ] < < < < < ] ! ! ! ! ^ ~ ' ~ 2 2 { { ",
"< ) < < 2 2 2 ~ ) ) ) ) 2 2 2 2 2 > / [ , < < ~ 2 2 2 2 2 ) < < < < < < ) 2 2 2 ~ 2 2 ) ) < < < ~ : , 2 2 < < ~ < ) < < 2 2 2 ~ ) ) ) ) 2 2 2 2 2 ~ / / , ~ < ) 2 2 2 2 2 ) < < < < ) ) < < ) 2 ~ ~ 2 ) ) ) ) ) 2 ~ _ : 2 ) 2 ~ ) < < ) 2 2 ) < 2 2 ) < ) ) 2 2 ~ ~ ~ : , , 2 < ~ 2 2 2 2 ) ) < < < ) ) < < 2 ) 2 2 2 2 2 ) < < ) < _ , 2 ~ ~ < < < < ) 2 ~ 2 < ) ) ) 2 2 2 2 2 < ~ ~ : [ ' ~ < 2 2 2 2 2 2 2 2 < ) 2 2 2 2 2 ~ ~ ~ ~ 2 2 ) < < < < : ' ~ 2 ~ < ) ",
"] < < ] < < < < < < < < ) ) ) ) ) 2 ~ : , 2 ) 2 < < < < < < ] { 2 ) ) 2 2 < < ) < < < < < ] ] ] < : ' { ! ) < ) ] ] ] ] < < < < < < < < ) ) ) ) 2 2 ~ > , ~ < < ] ] < < < < < ] ) ) 2 ) ) < ) ) < < < < < < < < 2 ) ' 2 ] { ] < < ] ] ] < < < ] ) ) < < < < ) 2 2 ) 2 ~ [ [ ) ] < < < < < < < < ) ) ) ) < < < < ] ] < < < < < ] < ] , : ! ] < ] < ] ] ] < < < ] < < < ) ) ) ) ) ) 2 < 2 : ' 2 < ] ] ] < < < < < < ) ) < < < < < < < < < < < < < ) < > , < ] ) < < ",
"< ] < < < < < < ] ] < < < < < < < < < ~ / < < ) ] < < < < < ] ] ) ) < < < < < < < < < < < < ] ] { : ' ^ 3 ) < ] < < < < < < < < ] ] < < < < < < < < 2 2 / 2 < ] { ] < < < < < < ) < < < < < < < ] < < < < < < < < < , < ! ! ! { < < ] ] < < < < < < ] ] ] < < < ) < < ) / / < ! ] ] < < < < < < < < < < < < < < { ] < < < < < < < ] / ~ % ! ] ] < < ] ] < < < < < < < < < < < < < < ] < ~ / < ] < < < < < < < < < < ] ] ] ] ] ] < < < < < < < < ) < ~ / ! ! < < < ",
") ] < ) < < < < ] < < < < < < < ] < ) ~ ~ ! { ) < < < < < < < < < ) ) < < < < < < < < < < < < < ] ~ ' ! ^ ) ] < < < < < < < < < ] < < < < < < < { < 2 2 ~ ] { < ] < < < < < < < 2 < < < < < < ] < < < < < < < < < ~ ' 2 ! < < ] ) < ] ] < ) < < < < ] ] ] < < < < < < < ~ ~ { ! < < < < < < < < ) ) < < ) ) < < ] < < < < < < < ) < , : 3 { < < 2 < < < < < < < < < < < < < < < < < ] < 2 : ] ! < < < < < < ] ] ) < < < < < < ] < < < < < < < < 2 < ~ / ^ ^ < < 2 ",
"< ] < < ] ] < ] < < < < < < < < < ) 2 2 ~ ^ ! < < < ] ] ] < < < < < < < < < < < < ] ] { ] ] < < ) > ' ! ^ ) ] 2 < ] < < ] < < ] < < < < < < < < ] < 2 2 ~ ] { ] < < ] ] ] ] < < ) < < < ) 2 < < < < < ] ] < < < < ~ ' 2 ^ < < < ) < ] ] < < < < < < < < < < < ) < < ) < ~ 2 ! ! < < < ] ] ] ] ] < ) ] ] 2 2 < < < < ] ] ] ] < < ) < , / 3 ] < 2 2 < ] ] < < < < < < < < < < < < < 2 < < ) ~ ! ! < < < ] ] ] ] ] 2 < < < ) 2 ) < < < < < < < < ] 2 < > / ! ! < < 2 ",
") < < ) ] < ) < < < < < < < < < 2 2 ) 2 ~ ! ! ] < < < ] ] < < ) < < < < < < < < ) < ] { ] < ) 2 2 : ' % % 2 < 2 2 < ) 2 < < ) < < < < < < < < < ) < ) ) > < { { ) < < ] ] < < < < < ] ] < 2 < ] 2 ) < ] ] < < ) < ~ [ < % < < ) 2 < < ] < ) ) ) < < < ] ] < < < < ) 2 2 2 2 ! { < < < < < < ] ] < < ] ] 2 2 < < ) < < ] ] < < < < < [ : % ] < 2 ~ ) < < < < < < < < < < < < < < < 2 2 2 ) ~ ! ! < < < < < < < < < < ] ] < ) < < < < < < < < < < 2 < : / ! ! < ) 2 ",
"< < < < < < < < ] ] ] ] < < ) 2 ] < < 2 : ! ^ 2 ] ] ] ] ] < < < < < < < < < < < ] ] ] ] ] < < < < / / ) ] ] < < < < < < < < < < ] ] ] ] ] < 4 2 < < < 2 ~ < ^ < ] ] ] ] ] < < < < < < < < < < < ] ] ] ] ] < < < ] ~ / 2 ] < < < < < < < < < < < ] ] ] ] ] < ) 2 4 < ] < ~ : ^ ] ] ] ] ] ] ] < < < ] < < ] < ] { ] ] ] ] ] < < < { ) [ / < { ] < ) < < < < < < < ] ] ] < < < < < < < ] 4 2 ~ ] ] { ] ] ] ] ] ] < < < < < < < < < ] ] ] ] ] < < < ] < / [ < ! ] < ) ",
"< < < < < ] ] ] < < < ] < < ) 2 ) 2 ~ ~ : ^ % ] ] ] ] ] ] ] ] < < < < < < ] ] ] ] ] ] ] ] ] ] < < / / ~ < < < 2 < < < < < < < ] < < < < < < 4 2 < < 2 2 : < | ] ] ] ] ] ] ] ] < < < < < < < < ] ] ] ] ] ] ] ] < < > [ ~ < < < 2 < < < < < < < ] < < < < < < ) ) ~ 2 < < ~ ~ | ] ] ] ] ] ] ] ] ] 2 < < < < 2 < ) ] ] ] ] ] ] ] < < 2 , / 2 < < ) < < < < < < < < < < < < < < < < 2 2 ] < 2 ~ ! ! { ] ] ] ] < ] ] < < < < < < < < ] ] ] ] ] ] ] < < ) / [ 2 ] < < 2 ",
"< < < < < < < < < < < < < < < ) { ] < < ~ ^ % ) ] < < < < < < < < < < < < < < < ] < < < < < < < ] ~ > 2 < ] { < < < < < < < < < 4 < < < < < < 4 ] ] ] < 2 ] % < ] < < < < < < < < < < < < < < < ] < < < < < < < < 2 : 2 < ] ] < < < < < < < < < ) < < < < < < < < ] ] ] 2 2 % ] < < < < < < < < < < < ] < < ] < ] < < < < < < < < < > > < < ] ] < < < < < < < < < < < < < < < < < ] ! ] 2 ~ ! ^ ] ] < < < < 4 < < < < < < < < < ] < < < < < < < < < 2 > 2 ] ] ] < ",
") ) < < < < < < < < < ] ] ] < < ! < ) ) ~ ^ 3 ) < < < < ) ) ) ) ) ) < < < < < < < < < < ) ) ) ) { ) ~ 2 ) { ! ] < < < < < < < < 4 < < ] ] ] ] < < < < 4 2 ] % ] < < < < ) ) ) ) < < < < < < < < < < < < ) ) ) ) ] < ~ 2 ] { ! < < < < < < < < < < < < ] ] ] ] < ] < < 4 ~ 2 & ! < < < 4 4 4 4 4 < < < < < < < < < < < < ) ) ) ) < ] 2 2 < < ] { < < < < < < < < < < < < ] ] ] ] < ] ] 4 ~ : ^ % < < ) ) < < ) 2 < < < < < < < < < < < < ) ) ) ) < ] < 2 2 < { { ] ",
"< < < < < < < < < ] ] { { { ] ] ! ) : / , { 3 < < < < < < < < < < < < < < < < < < < < < < < < < < ~ ~ ~ ~ < ] < < < < < < < < < < < ] ] ] ] ] ] ! < ~ / 5 2 ^ < < < < < < < < < < < < < < < < < < < < < < < < < ) 2 > ~ ) < < 2 < < < < < < < < < < ] { { { ] ] 1 < ~ : / : ^ ] < < < < < < < < ) < < ) < ) ) < < < < < < < < < 2 < ~ ~ 2 2 ) < < < < < < < < < < ] ] ] ] ] 1 1 1 ] < : , , ] ^ < < < < < < < ) ) ) ) ) ) < < < < < < < < < < < 2 ) ) ~ ~ 2 < < < ",
"< < < < ] ] ] ] ] ] ] { { ] ] < { 2 : / / ^ & ] ] ] ] ] ] ] < < < < < < ] ] ] ] ] ] ] ] ] ] < < < ~ ~ 2 2 ) < < < < < < ] ] ] ] < ] ] ] ] ] ] ] ] 4 6 : : ] % 1 ] ] ] ] ] ] < < < < < < ] ] ] ] ] ] ] ] ] ] < < < ) ~ 2 ) 2 < ) < < < < ] ] ] ] < ] ] { { ] ] ] ] < ~ : : ~ & ^ ] ] ] ] ] ] < < 7 < < < ] { < ] ] ] ] ] ] ] < < ) < ~ ~ ) 2 ) < < < ] ] ] ] ] ] ] ] ] ] ] ] ] ] ! < 2 : / : | & ] ] { { < < < 7 < < < < < < < ] ] ] ] ] ] ] < < 2 < ) ~ ~ 2 ) ) < ",
") ) ) < < < < < < < ] ] ] < < ) ~ : / ~ 2 - + { < < < < < < < < ) ) ) < < < < < < < < < < < < < ] ~ ~ < < ) < < ) ) < < < < < < < < ] ] ] < < 2 / / : ~ < % # ^ < < < < < < < < ) ) < < < < < < < < < < < < < < ] ) ~ < < 2 < < ) ) < < < < < < < < ] ] ] < < ) 6 : : ~ 2 ] $ & < < < < < < < < < 2 8 8 4 ] < < < < < < < < < < < < ~ 2 < < < ) < < < < < < < < ] ] < < < < < < 2 : : : ~ ] + # < < < < 4 8 ] 2 < < < < < < < < < < < < < < < < ) ] ) ~ ) < 2 ) < ",
"~ ~ ~ ~ ~ ~ ~ 2 < < < < < ) 2 ~ > / , / : ^ ^ > 2 2 2 2 2 2 2 2 ~ ~ ~ ~ ~ ~ ~ 2 2 2 2 2 2 2 2 2 ) : > ) 2 ~ ~ 2 ~ ~ ~ ~ ~ ~ ~ ~ < < < < < 2 2 ~ : : / : : < ! ~ 2 2 2 2 2 2 2 2 ~ ~ ~ ~ ~ ~ ~ ~ 2 2 2 2 2 2 2 2 < ~ : 2 2 : ~ 2 ~ ~ ~ ~ ~ ~ ~ ~ < < < < < ) 2 ~ 6 : : : : ~ ^ 2 2 2 2 2 2 2 2 2 ~ 6 9 9 0 > ~ ~ 2 2 2 2 2 2 2 2 ) 2 : > ) 2 ~ ~ ~ ~ ~ ~ ~ ~ ~ ~ < < < < 4 2 2 2 2 : / / : ~ 1 ] 2 ) ) 2 2 9 9 0 ~ ~ ~ ~ ~ ~ ~ ~ 2 2 2 2 2 2 2 2 ~ < ~ / 2 2 > ~ 2 ",
"/ [ , , , : ) ~ > ) ~ > ) ~ / ~ : / / [ [ / ~ ~ 6 > a b b > 5 / , 5 c ~ 6 , [ ~ : > : > : b / d 5 c , : 7 e f 6 / ~ / ' / , > < : g 2 6 > ) ~ / : 5 5 / , : > 6 6 / / b ~ ~ a , [ } ~ : ~ h e ) ~ ~ : / ~ i j k l m n d ) o p q r q 5 , a [ s 6 ~ 2 ) ~ ~ 2 ~ / : t , 5 5 5 ~ 6 : : u > 6 f o v w x x y f / , a ~ 2 > > f : : b h } z / ~ ~ ' < ) / / > 5 d c f ~ 6 2 ) 2 6 > : [ 5 / / > : A b > B v C D E k > , [ , / F 6 5 e 2 G : > ~ : : / [ , , ' ~ ) , : ) ",
"2 / / ! % ! ] ) { % & & # % { ! % H ! I J E E E E K L & M E E E E N O ] ] ^ + & % ! ! ! | & 3 ] ] P & Q & ' > / > ~ / : % ^ ] ) 7 % R & & R ^ < | % ^ { ! ] 1 P ^ - & S ] 2 / c ' 5 < 0 T % % | U P ! ! V K E E E W + + X K E E E Y / [ ] ^ ^ Z 8 ! % - & 3 ! < % % 1 { { { { ^ ! `  .` ! 2 ..x E E x I 7 +.! U & ^ 1 ! P - @.< { 9 & #.@ 9 ' [ > 6 : t 2 | ! < 2 { ^ & & & 9 1 % 1 ^ ^ ! ] ] { { I E x K E $.' , / ~ 4 < ] 3 - - ^ %.N %.&.! *.< ! % & # % [ ' ~ ",
"< / [ ! + ^ ] ] { % & + # & ! ! U - & I N E E E E =.-.= %.;.E E E r >.] < + @ ,.% ^ ] 1 % - ^ < 3 - '.@ % ).) 6 ~ ~ [ : & % ! ] ] & = + + = 3 4 % - 3 !.{ ! ! ! ! % ,.& % 2 / 5 , 5 P ~.{ % & # & P {.] ].^.K K /.(.$ # _.:.E E E <.5 / [.- | { < 3 & # # &.% ! & % ^ 3 1 1 { ] U }.E |.P {.1.k E D K 2.1 ^ 3 3.& 3 8 P | % P ! 3 P 4.5.@ 6.> : 2 2 : / { + | ) ] ~.% + + + % [.[.| | P P ! 1 { < 7.8.E K E U : / z 2 { < < % 3.3.9.0.E _.% % ^ { 3 + # $ & > / ~ ",
"~ : ' : { ] ] { < { ] ] ! ] ) < < ] ) 2 a.b.K x 0.] < { < c.E N d.2 < < ) ] { { Z ) 4 2 ] 7 4 ] 1 e.! { 1 ~ ] < 2 ) [ , ] ] ] ! < 4 ] 1 7 ! f.) g.2 < 2 < G < Z Z ] < ] { < ) 0 / ' 7 { 6 ~.] Z < < < ] ] 7.x E E 9 { ] ] h.x E K 1.' , P ! 8 1 2 7 { ! ! ^ < ] ] ] ) ) 4 2 8 9 i.E E a.{ 2 ] j.E K x g.4 4 1 G < ~.) 2 < < { ) 8 < < { 3 ! ~ ] 2 2 ~ / 4 +.1 2 < ! ! k.! ] ] 8 < < < 4 4 < 4 2 { 4 O E /.x ] 8 l., a { 4 0 7 { !.i.E E ] 7 ] Z < ] ] ] ! ! ) < < ",
"~ ~ , : ] ! ! ] ! ! ] < < < < { < ) 4 2 7 %. .D E m.) Z h.b. .9 / 2 n.o.r x }.r p.< < { q.%.c.N r.s.{ ] E E E 7.< ) [ , { ! { ! ] t.M u.x v.w.x.}.l 7.4 2 s.%.v.y.x r M B P < ] 0 q 0.E }.c.i.x E h.< < < m./.K b.{ 2 ) {.z./.E v.) A.B.c.r.b.C.< ! M E E u.] < < 4 < 4 < ] q :.E K E E E =.] m.E N r D.i.N E.F.9 4 7 < ] G.H.I.v.K }.r m.+.7 3 D.J.o.N o.1 1 ^ K E E h.) 4 < 8 K.b.y.v.L.v.K E m.] p.E E E.m.i.y.y.C U < < ] M.b.J K E K E i.1 ] < < ) < ] < { ] ",
"< ~ [ ~ ! ^ ! ] ! { ] < < ] ] ] { { { 7 < ] N E E =.4 !. .K a.4 a I. .D E v. .x E N.{ n././.K E C { 7 9 K E E 1 2 ~ [ / ] ! ^ ! h.N x E K :.y.E E E c.{ n.v.;.x i.}.E E c.{ < a.b.D E K b.K E E E g.e.! { O.E E r { {.{ ^ M E E r.2 q K K E K t.1 { I.E E I.< 4 { 4 {.k.4 ] N.K K x K v.l J.7 C E E E E E x E E r Z < 4 ] I.N E E v.y.E x C.8 7.D E E K P.] P U x K /.B < { h.r E /.i.i.x E D K !.~.I.E E E E K E K E Q.3 ) ] c.N K E  .:.b.%.< < ] ] ] { { { ! ] ",
"< ~ / ~ < { ! ] < < < < ) ) ) ) 4 < < < < ) k K E E 7.r E m.2 2 B.K E K O R.>./.E K a.A.C E E E I < < m.K E v.] 2 ~ : : < < ^ ^ a.u.x E E x K b.E x $.w.x K /.a.4 9 /.D ^.4 8 }.E K S.^ 2 T.x E v.< 4 4 4 r E E D.< ] ] ] r.D E U.2 <.r E x x 7.] < v.E E %.< ) Z ] < ) < g 8 U.E K %.2 8 4 < V.E E E K b.K E x N s.< < B.K E x h.] 7.x E N O n.r./.E K M.4 1 p.E E r ] < g.}.K K J.8 ) Y E E x W.) u.E E E K ;.x E E }.s.l.G < u.E E I.2 < X.7 < < < ] ] ] ] ] < ",
"~ ) ) ) ) { ^ < { ] < < ) < < < ] { < 8 ] ] g.N /.E b.K M < < 8 x K E I.4 G 8 v.E x I < Z x E K Y.) < I E E i.7 ! < ~ 2 ] ] ^ ] 7 8 K E E r Z 1 V n.] v.E x I < ] %.E E r ) N.E E N Z.! < p./.K r ! { { 4 l  .E I 8 ] < ) `.K E p.g Z <.E /.v.S 2 < N E E Y.< ] 7 4 4  +] 4 2 r E E p.< < ] ] b.E E I.% ] M E K i.g.] ^ K y.K c.] {.7 v.E E I ) { .+E E h.{ T C.E E i.4 ) c.E E }.g.< 1 p.E K v.] ] v.E E C.k.7 O.E E ^.{ < ! ] :.E E p.< 4 ] 7 ] ] ] ] < 2 < 2 < ",
"< ] ) ~ < ! ^ < < < < < < < < < ] < ) ] < G < ++E E D o.] ] < q E E E O ] ] ] N E /.M < 1 E E @+9 < < c./.x N.G.! < 2 2 ] < ! ] < k.x K E %.8 < R.< Y E D K ..D.r K E y.9.) N x E c.^ P < I.E E C < { 2 ] E D E #+4 4 ) g.K D @+n.) G q D K r ! 4 9 E E E ! < < < < 4 7 < 4 R. .E E O < G ] ] x E E O ! < %.E E u.] < %.E E K n.7 8 < }.y.E %.4 k.E K E 1 < { $+D /.` < k.E y.E %.4 7 7 M K E c.< ] E E E 7.{ < U.E E I.1 G < ] x E y.O 4 7 {.) < < < < < < < < < ",
"~ 2 ~ ~ < ! ^ ] < < < < < < < < < < 4 4 G ] < %+x E E ^ < ) < u.E K }.< < ] g.E K y.m.< m.D E v.8 < ] r.E E p.~.2 ~ > > < ] ^ ! < 7.E E x { < < 4 7 i.E E D @+E E i.N.8 4 n.E E E <.% < Z l K E D.< { < 7.K E K < 7 < < O E E D 2 g ~ P.E E $+T 7 n.E E  .4 4 < < < 4 { < < >.x K E ! < < ] a.K E K 9.! 4 u.E E O.4 7 r.K E K < 7 0 g.E E D p.< h.E x x 6 ] 3 i.E E p.8 n.E E E Y.Z < 4 K E x %.< 7.E E K { < < &+K E 8.^ ~.< 9 E E /.] { 8 2 ] < < < < < < < < < ",
"< 2 > ~ < < ] < < < < < < < < < < < ) < 7 ] Z *+E D N < 4 ] 7 b.E E :.~.< ] $.E K E =+] %.E K i.< 7 R.K E K O < < ) ~ ~ < < ! < ] %.E E `.< ] Z 4 ] r E E =.n.>.{ ] ) { < -+K E N A.3 ] ;+K E E h.8 < 4 %.E x r ] Z < < *+x E r Z ) ) l x E I ! 4 %.K E r ) 7 < < < 4 < < < m.E E b.< ] ~.{ %.K E L.9 P 7 v.E K p.4 { :.x K F.7 4 { V E E K 9 ) q E E r ~ < ) @+E K h.] p.E x x B { < n.E K E h.< J.E E v.8 4 7 :.E E *+1 ) l.z.K E  .< < < < < < < < < < < < < < ",
"< ) ~ 2 < < ] < < < < < < < < < 4 < { ) 4 < ] u.E E r g 4 < >+r.K E i.< l.] r.E E c.8 ] c.@+E C 4 < 9 E E ;.!.f.< 2 ~ > < < { ) ~.c.x E I.8 Z ] < ) i.E E c.< < 4 < O %.< ,+E E y.H.P { c.E E E 1 4 7 7 u.D K c.< ] 4 < I.E x u.< 2 f.E E K m.] Z C E E M ) < < < { < ) < < %.K E i.g 8 k.g c.x E C 1 ! ] K E /.a.1 ) c./.E V.4 < ) =.E E C ] < c.E K u.~.) !.E E x k.< m.K E E 7.l.] u.x D K 9 < c.E E u.Z ~ < E E K '+8 ) G %.E E r Z < 9 < < < < < < < < < < < ",
"2 2 ~ ~ < ! ! { < < < < < < < < ] < ) < < < !.N x E r Z ] < < q E E N 9 { I E E N !.~.~.r E /. .I $.}.E E E T.V ] 2 : ~ ] ] ! ] 4 r x E %.< < < < < p.K E E -+) >.q E K !.]  .x E y 7.C./. .x K V T.!.) r.E E r <.z.4 { r E E i.z.-+) D E E :.M i.E E E D.4 4 < < < < < < ] I.E E :.p.u.)+] r.E x k ! ^ n.E D E z.%.g.M K E K g.8 T./.E N 9.8 G !+E K x $.T.^.E E J p.%.^ b.E E v ^ N.E K E ;.< 4 x.E E C.< 4 n.E E K *+D.~+{ ++E K r p.C :.8 < < < < < < < < < < ",
"< ) ~ 2 < ! ! ] < < < < < < < < < ] ] {+< u.K E K E E l 7.< ) ) ]+E /.y.}.E E }.O 4 ] ] C E E D E E N E E E E K ^ < ~ ~ ] < ! ] )  .E E h.< < < 8 < ] i.E K E J K E `.m.< 4 $.E E E K E ^+b.K E E E *+] )+x K E K }.8 ~.o.E D K K N f.:.E E E x /+/.K x 7.] < < < < 4 < < ] q /.E E K E l g.D E E (+{ P 9 x E D E ;.%.8 l E E K v.E N `.].< ) 4 c.E E E E /.b.x E E E E 7.%.x E E K N v.K E r G.Z  .D E n.7 < 9 E E D K x %.6 C.E E K N /.i.1 < < < < < < < < < < ",
"< ) ~ 2 < < < < < < < < < < < < < < ] 7 !.K E E E x K @+9 < 4 4 _+q :.y.0.r U.g.2 < < ) s.I.N N F.%.] %.b.0.i.O 1 2 : > < ) ] < 9 N E x !.Z < ) 7 G {+] q r N b.i.T.] 4 < 4 { m.v.E L %.] p.r K x.q.4 < n.r K v.c.9 ] < n.i.E N i.>.g a.r x E.c.q.D E N ] ] < ] < < < < < 4 !.c.K v.i.m.{ { K E x :+! ! ) J.}.b.r T.4 {.8 q v.N K i.q k.] 7 ] ] ! c.K b.v.q ] %.0.b.r 2.4 ] p.v.x v.p.r.E E %.] B E E x 9 < ) 2 T.}.J !+<+2 l.1 i.x b.i.p.Z < ) < < < < < < < < ] ",
") : / 2 < < < ] < < < < < < < < < 7 ] f.< ] g { < 4 ) ) < < < ) b W.P ] 4 l.R.l.< ] 7 < 4 < Z < < ~ < ] 7 < {.] 2 6 : > < < { < < ) ] < G ] < < 8 7 4 < < < 7 ] < G.7 < ) < < < : : P {.~ 2 < G 7 Z 8 ~.7 4 ) < < ] 8 ] < { R.4 < 2 p.M.G.< f.{ I.E x C < ] 7 < ] < 7 < 4 {.[+8 4 {+G.< 4 4 ] l.2 z 1 ^ < Z 7 < < ) < < < ] Z < < < Z < 8 ) < < { Z : ).2 ) < 4 < ] < ] I N.1 ~.7 8 n.E E E h.G G ) < ) 4 Z ] < 4 / 2 9 ] g < Z < 4 < < ] G.< ) < < < < < < < < ] ",
": / : 2 < 2 2 < 2 < < < < 2 < < ] ) < ] < < < 2 < ~ ~ ~ < < ) ~ ' ) ^ ! ) 2 2 ~ ] ! ) < { ] ] 2 < < < ] < ) ] ! : : , / < { < < ! ] ] ] ] < < < < ] < < < ] < ~ 2 2 ~ ~ ~ ~ 2 ) ' > < < < < 2 ~ 2 < ] ] < < < < ) < < < < < ] ] g (+E E C.< ] I D /.`.m.{ < 4 ) 2 2 < { ] ] < 2 ~ ~ 2 < 2 ~ ~ ) [ / < ! ] < < ~ 2 < ] < < < < < 4 4 { ] 2 G < { < : , / ~ < ] ] 4 g ] %.K E =.}+< h. .E K C.4 < 2 ~ 2 ) 2 ~ ~ < > / ~ ! ] 2 2 2 < < ) 4 7 4 < < ) < < < < < < < ] ",
": > ~ < ] ] ] ! 2 < < < < 2 < < < 2 < < 2 ~ ) < < < < < < 2 / } ' / : 2 < < < < ] ] < ) < < 2 < 2 2 ) < < < < 2 ~ ~ > ~ ] ! ] < ) < < < < < < < < < < 2 ) < ) ~ ~ ) < < < ~ : / ' ' / ~ < < < < < < < < < ) < < ~ ) ] ] ] ] < ~ 2 <.K E E :.0.E E }.p.) ) 7 7 < < 2 < < ) ) < ~ 2 ) < < < 2 > / ' ' / ~ ) < < 2 < ] < ) 2 < < < > 7 < 2 { < ) 0 2 : / ~ < < < ] ) g 4 $.K E E y.b./.E E I.Z 2 < 2 2 ) < < < ~ : , ' [ ~ 2 ~ < < 4 8 ] 8 ) 4 ] 2 ) 2 2 < < ) ) < : ",
"/ ~ ) < < ] < ) ] < ) < < < < 2 < ) < < 2 2 < < < 2 ~ ~ 2 ~ : / : : > 2 2 ~ 2 { 2 ~ 2 ~ 2 2 / 2 ) 2 ~ ~ < ] 2 / ~ ~ 2 < < < < ) 2 < < 2 2 < < ) < < < 2 < < < ~ 2 < < < ) ~ : / ~ / / ~ 2 ) < < < 2 ~ ~ 2 ) 2 ~ ) < 2 ~ 2 ] < > 5 0 ].r x N v.r.$.B ) 4 ~ 2 < 2 ] < < < ~ 2 < 2 < < ) ~ ~ 2 ~ / / / / : 2 < < < < < ~ > ~ < 2 > Z < 6 : 6 < ] ) ~ ~ 2 < ] < < ] 0 ] < 6 j.u.N /.}.i.I.!.~ 2 ) ) ~ < < ) ) < ~ / / / / ~ 2 ) ) < g ) < ~ > ) 2 : < < 2 2 2 2 < < : ",
"/ > 2 ~ ~ ~ > ' : / ' / ~ 2 < ~ ~ ~ 2 ~ ~ 2 2 / , ' ' ' ' , / ~ ~ ~ ~ ~ / ' , 2 [ , , [ > ~ , / 2 / ' ' / ~ / ' / / ~ ) : : ~ / ' , / / / ~ ~ < ~ ~ ~ ~ 2 < 2 / / , , ' , / / / 2 ~ ~ ~ / / / : : , } , > ~ : , ) > ' } , > : [ 5 [ ~ 2 f f ~ 6 c [ , 5 : > g < ~ ~ 2 2 ~ ~ ~ ~ , / , ' ' , / > < ] ) > : [ , / ~ / ' ' : ~ : ' ~ : t |+} / 1+~ ' / ~ ~ > ~ ~ > [ [ , , / > b ) g : 4 ~ ~ 4 ~ g [ / / / , , [ [ ~ < < ~ ~ : ' ' / b / 2+u > / / > ~ / ' ' : ~ ~ ' ",
") ] ! ! < { < : > / / ~ > ~ < 2 ~ < ! < < ! ] / : ~ < 2 ~ ~ ) ] < ) ) ) 2 ~ ~ ~ : ~ / : ) < ] < ! < < < < < < < < ) ! ^ < < ] ) > / / ~ ~ / ~ < ~ 2 ] ! < ] < ~ / : ~ 2 ) < < < < < ] < ~ ~ ~ ~ 2 : [ / ~ < < < ! < 2 2 < < ) < g 7 P { 4 < < ! ~ / : ~ : / g < ~ ~ < ! < < ] < / / ~ ) < 2 ) < ] ! ] < < ~ > ~ < ~ / / > < < 2 ) M.N r A.~ 7 7 2 < ] ] < ) < { < ~ : : ~ 6 ~ < g 4 ] { { < f.4 ~ ~ ~ 2 ~ ~ 2 < < ! ! < < < ~ : 2 2 : a 3+>.< < < ] < ) ) < ] ] ) ",
"! % + & % - + ! ! ! ! ! ~ / < < < % + % ! % % < { 3 - - % ^ 3 % ^ ^ ^ ^ ^ ^ ! < ] ! 2 2 ] ! - + % & # @ & ^ % # % 3 + + 3 3 & 3 % ! { ! < / > < < ! + + ! ! % ! ! ! % % % % % ^ ^ 3 3 ! ^ 3 ! < { ] < 2 ) ] % + % % - + & ^ 3 + | & & & % % % # % +.{ 9 ] / 5 < < ] % & % 3 % % { { ! & + % ^ ! ] ] { ! 3 % ^ ^ ! ! < ~ 2 { % + #.E D E 4+& ^ & - % % + - ^ 3 # % % { { ! > / 2 ) { 3 - & | ! - ! ! ! % - % % % ] ! ! ] ! 3 % % >.c.Q.}.E C 3 #.% 3 % # # & 3 % # ",
"] < ! ! < ! 3 < < < { < / , ~ 2 < ! ! { < ] ! < ) < { ! { ] ] ] ] ! ! ] ] < < ) < < ~ ~ ) < ! 3 < ! % 3 ! ] { ^ ! ] ! ^ ] { ! { ! < < < ~ / : < ) < ! ! < < ! { < ] ] { { ] < < { ] ] ] ] ] < ) < < 2 2 2 ) ] ^ ] { ^ 3 ! < ] 3 ! ^ ! ] 1 ! ! ! 4 ] { < 4 / [ 0 2 < ! ! ] < ! ! < < < ] { ] < < ] < < ] ] ] < 2 < < < ~ ~ < ! ^ 2.x K E t.{ 8 ^ ! ] { ^ ! < < ! 4 ] ) ) < / ' ~ 6 < < ! ! { { { < < < { ! ! ] < ! { ] < ) < < < I K E E E %.+.9 < < { 3 3 ! ] ] ! ",
"] < { ] 2 < ] ~ ] < < 2 , ' ~ / ] ) ~ ~ ~ 2 < 2 < < < < ] < ) ~ ) ) 2 2 2 ) ) 2 < ~ 2 2 ] ! 2 ] < ] < ) < ] ! { ] < < ] < < ] < < < 2 ~ / , / ~ < ~ 2 ~ > < ! ) < < < < < < < < ~ ~ ~ 2 2 ~ 2 < < ) < < { ] < 2 < < ] { { ] ] { < < < 7 { ) < < ~ ) ) < ~ 5 , > ~ 2 < < ~ ~ < < < < < < 2 < < < < 2 < < ~ 2 < ) < < < < ] ! ] ) ] U.v.I ] ! < < < ] { ] ] ] < 2 < < 2 2 < : [ > > ) { < ~ ) ) 4 < < ] < < < < < < 2 < < ) ) < ~ !.++E E E Y.7 2 ) ] ] ) ) ] ] < < ",
"] ] ] ] < < < < 2 < ) ) / ' ^ ! G.< < ) < < 7 G.< < ] 8 ] ~.] 4 2 2 ) < G < ] ] < 2 ) 5+1 ^ 7 ] ] 4 ] ! < e.] { ] ] ] ] ] ] < < 4 Z G 2 2 ' ~ ^ { { 7 4 l.< < Z 7 8 < 4 { 7 7 < R.< 0 ) R.4 Z 7 ) ) l.~ < ^ < ] 4 < < 7 ] ] { 8 7 ] ] < ] { < ] 4 < g 4 f./ , P ] < ] Z { < < { R.< < < < ] < Z 7 ) 4 2 4 Z 4 8 ] < G.2 2 % ] 4 ] 7 < s.< { {.] < ] { < ] < < < 2 < ) ~ < b ' ^ ^ { 6+] Z < < Z ] < < ] ] 4 Z 7 ) Z < < g 4 < ] < O E D E | 9 ) < < < ] ] ] { { ] ",
"] ] ] ] < < < < < < 2 2 / ' % 3 < 7 ) a.T.q r N T.8 < I x E u.< ~ 2 7.C v.x 0.u.m.Z ~ 2 V O.V.N u.] ] 8 K E E 7+] ] ] ] ] ] < < 7.T.c.v.K 8+< | r E x U.Z Y }.:.1 2 7 < 8 I i.N E r N.Z ) m.q C .+:.H.o.N i.7.{ 7 ] %.r y.K v.C.9 ] ] < ] ] < ] ] { < Z %.b./.9+V.r E E n.) 8 ] < < ] < ) O I c.v.E <.Z ) i.E K %.< $.N r & { p.q =.N r 8 < < >.++N E K }.r :.r.<.7 7 2 B v .+b.v.u.u.E /.7+7 ] ].%.r.}.i.7.r }.)+7.6 2 h.u.b.K )+r.K K b.! ^ ) < < < < ] ] ] { ] ",
"] ] ] < < < < < < < 2 ~ / ' 3 % 4 4 Z q K E E K O ] < c.E E u.7 < M x E E i. .E E U.4 a./.E E D C 7 4 9 E D E ^ ] ] ] ] ] < < < r E E E E 0+) U }.y.E ].~.K /.E V.< < 7.b.E E a+b.E /.c.n./.E E E b.N E E E I.4 O v.K K c.v.K D %.] < ] ] < < 4 < { a.v.E E ;.b+E E K E 8 ) 4 < < < Z 4 ] i.E E E E ] ~.G }.E E T.}+K E E 8.c+E E E D U.] 7 ! :.E E v.N E D E K c.1 7 >.v.D K y.^.K K E E 9 8 7.E K E K 0.b.K D E I.] %.E E E :.b.E E /.P.3 3 G < < < < ] ] ] ] ] ",
"] < < < < < < < < < ) ~ / ' { ! < < ] $.:.E E E k.] < i.K x $.< p.E E E O f.a. .E E a.!.=.E E E I < 4 z.K E x ] ] ] ] ] < < < < M v.E E l c 2 U E E E A.4 v.b.E r.4 a.K E K U 7 7.K 0.b.a.o.E D K b.v.0.;.J T.7.N E y.h.< 7.x /. .] 7 { { < 7 < { 8 x E K P.0 P p.E E y.< ) g < < < { < ] q }.E E b.) ) 1 x K E >.< v.E E :.@.i.K D E %.] ] 7.E E i.g.n.K E E b.a.1 s.l K E d+g.7 $.E E b.{ k.!.u.E K K E v.v.E K p.p.K E x m.R.g.}.E E v ^ ^ 4 < < < < < ] ] ] ] ",
"< < < < < < < < < < < 2 : , 2 2 ) ] ) ] p.K E N < ) ) 0.E /.h.g.b.E x C.R.Z 8 :.E E V ) S x x K O < ] %.K E i.] ] ] ] < < < < < { %.E E r., 6 @.K J K 4 ) h.K E i.8 b.y.@+J.4 < q E E x.] R.K K /.N 8 W.*+e+k.v.E E D.< ] M E x r.< 7 ] ] < { < < q J E N 2 / ) ]./.E r.~ G.2 2 ) < < 4 ~.8 M E E r.] { O E K K < ) <.x E L ^ Z E E x z.f.{ g.N N n.>.)+K K x O { ) v E E x f+g 4 Y E E v.>+< < ] K K E N { 8 p.n.g.}.E E J.1 < 2 N E E p.^ ! 7 < < < < < < ] ] ] ",
"< < < < < < < < ) < < 2 ~ / ~ ~ ] < < 7 %.E E a+< ] !.E E E !.I /.E E 7.< ] 4 N E E k 6 & E E E 9 f.f.c.x E I.< ] < < < < < < < 4 c.E E U./ ~ $.E x i.7 < < v.x C D.E K x $.q v.E K b.7.] 9 E x E $.~ ~ ! % %.D E E T.D.r E E v.O ~.{.8 < < 7 4 ] g+E y.C > A : M E E u.G ) < < ] < G 4 < 2 c.E K I.< < %+E E v.< ) ~ b.K S.! !.E E K 9 ) ] k.s.] >.`.E E x <.] 4 ] N E E %.: ) h+M E x c.l.~ { ] E E E I < < < ] I /.D N ^ 7 ] !.K E K A.i+i+< < < < < < < ] ] ] ",
"< < < < < < < < < < < 2 2 > < < { < 4 { I.E E c.l.] m.E J v.< =.x E E ] < 4 1 K ;.J m.g D.E E K ) 4 Z :.x E p.] < < < < < < < < 8 v.E E ].6 Z c.K E x.< 8 ) F.E T.r.K E E J x K :.I 9.{ ] Y./.x E k.l.F e.% u.E E ;.E E /.i.J.s.] 7 < 4 < < < 4 9 @+E E p.6 ~ < b.E E %.G < ] 4 2 8 < ~.7 < i.K E %.{ < M E E c.0 ) g b.E ` +.].E E N 4 1 < < < ] v.E E K p.2 8 { 9 K K x $.> Z 4 v.E E q ) l.4 O E K E g.4 ) 7 G.c.E K i.{ < < $.E E x f.[.% ] < < < < < < < < ] ",
"< < < < < < < < < < < 2 < ~ { ! < < 7 ] r E E *+] ) %.K x F.) v.E K i.7 { ] ].E E E !.) D.K E r < 4 < N K E q.< < < < < < < < < ] K E E a.A ^ $+E E q ] < ] E N k.v.E E :.n.!.] 8 < < 1 ! D.E E 9+W.g 2 ! U v.N E r 7.9 ] 4 1 < l.< < 7 ] < 4 < ].E E K a.~ ] 2.E E E O 4 ] ] 7 7 Z < 4 4 ] K E E O { < !+E y.C.< ) 4 K K Z.1 %.K E F.8 < < ] k.i.E E K $.2 ] < ] z.E E /.a.g 1 O E N E m.) < ] J.E K b.7 4 8 ] R.r E E r ] { < c.E x v.2 3 3 ] < < < < < < < < ] ",
"< < < < < < < < ] ] < < ~ 2 ! % ] e.1 <  .E E m.< < u.E E U.4 =.E K i.! e.g.v.E K o.~ A 8.K E r.2 7 H.N E E B l.4 4 4 < < < < < >.x E x 8 ~ ] ^.K E T.< < M x I.4 Q.K E =.) < < 4 2.%.8 ! N.E E u.h+g 6 7 @.o.E E c.+.< 4 { h.I ] ] < < < < < < O x E x 7.~ ) Q.K E @+s.] < ! < 4 ) < 7 { >.x E E >.! { )+K ;.T.4 4 I E I.^ ^ v E E c.8 4 ] ] u.x E E I 7 j. .D !.O x D E 7.~ ^ =.E E E 9 {.< < c.E K x.< < ] < { x.E E c.Z ] @.K E K r j+! R 2 < < < < < < < < ] ",
"< < < < < < < < < < ) 2 : ~ { ! ~.< 2 ] x K K r k+c.E E /.].{ q E E x g.] %.x E b.a.> : i.E E N %+p.^.E E x V $.] 4 4 ) < < ] ] $./.D E U.H.q K x E v.].M E v.B < %.E E }.h.R.7.M E E U Z r y.D q 2 ~ > 7 ! ].J E N n.2 7.q x E ^ ] < < < < < < ] g+D E &+8 U.D E E E T.p.!.2 4 ) < < < 8 h./.E x M <.U.E E /.i.p.I.E y.G.[.7 a+E E i.<.J.2 C E K E U.R.!.i.K E m.l+N E E k B I.D E E E T.p.9 ) r E E J.< < ) < < D.D E g+B 9.r E E E v.m+N.3 ) 2 2 ) ) ) ) ) ) < ",
"] < < < < < ] { ! ! ] < ~ ~ ! ! < < ) 2 }.E D E K K E E x O ] B :.E E E ;.K E }.-+) < ) I.K E E E E v.E E E E E ^ 1 < ) < < < ] >.N E D K K x E E E D J x v.w.< < g.r./.E E K E E b.h.< Z }.E E m.4 l.g { ^ s.C E E K E E K }.O 1 ] < < < < < < < I E E E x x L b.E E E x D.8 < < < < < 4 >.}.E E K ;.E K E E x K x v.n+) i+^ o.K E x K x p.E E K E b.b.E E y.N ^ 9 I K E E K E L  .E E K /.$.< b.K /.h.< < ] 7 < Z b.E E K E K V.E E E E }.2.4 < < < < < < ] ] < ",
"] ] < < < ] ! ! ] ] < < ~ > < < 4 4 < 2 a.i.N K &+T.E E J ] ] < ] q v.}.}.r C.] < 4 g > 9.c.}.K a+%.Z I N D r O ! 1 < < < ] ] ] 7 z.r K ;.i.H.7.V.x N l %.] 7 < 4 { s.p.r }.E.:.I 8 < l.g.E E E 9 < 4 ) ] 1 ) 8 k+:.N N r p.] { ] < < < < < < < e.] ].r K L o+) p.l N r <.Z g 7 4 < < < < R.I i.E y.i.O 9.o.x y.i.J.] ~ 2 S ] p+l N )+=.n.G.u.b.i.^.v. .K D r.7.7 {.< p.i.N l U.2 m.r K r h.{ 1 E E E a.) 4 ] ! ] 7 k.N.v.E r q+< c.b.b.q 1 ! R.< < < < < < < < < ",
"] ] < < < < ] { < ] < < ~ > < < < 4 Z p.C.] 4 4 ] U.E E c.{ { < 4 ) < 2 ) 2 ) 4 ~.] ) ~ 1 < 8 Z < ] 2 ) 2 2 ] 1 1 ] ] < < < ] ] { ] 4 ] 2 r+f ] < ] ] Z < { ) ] 7 4 7 < 2 ] ] { ~.< ) W.7 < ] 4 < < < 2 < 1 < ) { ) 2 4 ) ] 4 < ] ] < < < < < < < ] ] ) < 2 : < < 8 G.8 ] 7 < 4 ] ] < 7 4 2 ] g.f.l.) 4 4 ) 4 < < { ) 6 g ] { < < l.] 2 < ] < 4 8 ] 4 4 < ] ] < ] ] < 8 ] 2 : 2 7 ] ] ~.< < < G.< 7 < G < < { ] 7 4 >+4 2 ) ) 4 < < 2 ) Z { 1 G < < < < < < < < < ",
"< < < < < < ) ) < < < < ~ > ) 2 7 { ].K x q ) 7 q E K K H.7 ) 2 4 2 < < < ] 2 2 4 ) 2 > {.G ~ < 4 6 < 2 4 < l.G ] ] < < 4 2 2 2 ) < < ] 2 > g g < +.< < ] 2 4 < 2 2 2 ~ ) 4 f.g ~ > G.Z 2 2 < 2 g 4 ) 6 < 7 ) l.G G < ) 2 2 7 < < < < < < ) ) ) < < < < 1 g g ~ 7 < { { < ~ ) ) 2 > ~ < 4 2 ~ g ) 7 4 4 4 ~.] ~ < ) 4 2 ~ < ) 6 < l.2 < l.) 7 2 ] ) ] 2 < < 2 G.8 { < ) 4 ~ ~ g ) 2 7 7 4 ~ 2 R.2 2 g 2 < 2 ) 2 < ) { ) ~ ~ G g ) < 4 ~ 6 4 ) ) ) ) ) < < < < < < ",
"~ ~ ~ 2 ~ ~ / / / > ~ ~ / , / / ~ : -+E E E }.;.E x x h.: b f 6 / 6 > 2 ~ ~ 6 b b 6 5 , b / / : > / / : > b : 6 ~ ~ ~ 2 2 ~ : : : : > ~ > : / / 6 ) ) : > > / / : : : ) ) : > _+a ~ g 4 < 2 6 g / : / , 6 F [ 5 5 : : : > b : : > ~ ~ 2 2 ~ ~ : : b ).: 2 > 5 d > ~ ) ~ / b / : : [ / 4 ) > / 6 5 b ~ 2 2 2 > : 6 z b , [ > / > / / : a a : / : 5+~ ~ 4 4 6 ).b 6 b : F ~ : / : : 6 ~ > : : > / [ : ~ ~ 2 6 ~ : a : ~ 2 4 2 ) 2 / 6 b / / : a a / / / / / / / / > ",
"/ : ~ ~ > / , ' / / > ~ / ' / / 6 2 b (+l v.E y.r.B.G.: / , t / t b ~ ) ~ ~ : [ : : , , > , / [ 5 ' z 5 6 , , 5 : : : ~ 6 : , ' / b 5 F F s+, [ 6 > : > / t+[ , 5 } , 6 ~ c c / , [ ~ ~ g ~ : / , [ / ' ' : [ [ [ , [ > / / / 5 / / ~ ~ ~ > / / [ / : > ~ ).5 z / 6 > > / [ e z [ _ u+2 ) , e [ [ , ~ ~ < g ~ : / / [ [ , / 5 , 5 t 5 b [ 5 / / : : : > ~ > : u / : / : ~ : [ / : > ~ 6 / , [ 5 , [ / : : : / ' c 5 / 6 >+~ ) 6 / 5 / s+[ z , z / / / / / / / / / ",
"& + # % ^ - + ! ! ! ! ! ! ! ! ! / : > / , < ! ^ ! ^ % & + - & & + 3 ^ & & { ] 3 ! ^ % & + + - & + ~ / ] ] ] { + # % + + ! ^ + % ^ ^ ! ! ! ! ! ! ~ > / / , ~ ] ! ! ^ % & + + - & + & % % % % ^ ! ! ^ % & + - & & @ ^ , < < < { + - v++ % % 3 ^ ,.1 ! ! ^ T ^ ! 1 ) > / : / / < ] ! ^ 3 % & - - & # - ! ! - - ! ] ! ^ % & + + - & + # ~ : < ] < & & + + & 3 ^ % + ! ! ! ! ! ! ! ! ! ~ / / / , ) { ! ! ^ % % - + + # & % % & & ^ ! ! ^ 3 % & - - & # + ] [ 2 < ] ^ & ",
"% & - 3 ! % & ! ! ! ! ! ! ! ! ! : : : / , < ] ] ! ^ 3 % & & % % + % 3 & & ! ! % ! ^ % % & & & & & ~ / < < ] ! % - 3 & & ! ! & ^ ! ! ! ! ! ! ! ! ~ ~ : / ' ~ < { ! ^ 3 % & & & % & % 3 3 % % ^ ! ! ^ 3 % & & % % % ! ' 2 2 ) ] 3 & '+& & ! ! | 3.+.! ! ^ ^ { 1 { 2 ~ / : / / ) ] ! ^ ^ % % % & & + - ^ ^ - & ^ ! ! ^ 3 % & & & % % % : / < < 2 ^ % & & % ^ ! 3 & ! ! ! ! ! ! ! ! ] ~ : / / ' 2 ] ^ ^ ^ 3 % % % & + % ^ 3 % % ^ ! ! ^ ^ % % % & & - & < [ ) < < ^ & ",
"2 2 ) ~ ~ 2 2 : ) ) 2 2 2 2 2 2 ~ : / , , < < ) ~ 2 2 2 2 ) ) 2 < 2 2 ) ) ~ ~ 2 ~ 2 2 2 ) ) ) ) ) [ ' : > 2 2 2 ) 2 ) 2 > > 2 ~ ) ) 2 2 2 2 2 2 ~ ~ : : , ~ < < ~ ~ 2 2 2 ) ) ) ) 2 ~ ~ 2 2 ~ ~ ~ 2 2 2 2 ) ) 2 ) 2 _ / : ~ 2 ) g l.) 2 ) : f ~ ] ~ ~ ) < ~ 2 2 2 ~ > > , , 2 ] 2 ~ ~ ~ 2 2 ) < < < 2 2 < < 2 ~ ~ ~ 2 2 2 ) ) ) < < ' , ~ ~ > ) 2 ) < 2 ~ > ~ 2 2 2 2 2 2 2 2 2 < ~ > : , _ ~ < 2 2 2 2 2 2 2 2 < 2 ~ ~ ) ) 2 ~ 2 ~ ~ ~ 2 2 ) < < < / ( > ~ > 2 2 ",
"< < < < < < < ) < < < < ) ) ) ) 2 ~ : / [ < < 2 ] < < < < < < < ) ) ) ) ) < < < ] < < < < < < ] 2 / , 2 2 < ) 2 < < ] < ) 2 < < < < < < ) ) ) ) 2 2 ~ : , ~ ) < < < < < < < < < < < < < < < < < ] < < < < < < < 2 2 ' ~ ) < < < 4 { ^ q r N K }.q o ] 7 ~ 4 ) 2 2 2 2 ~ , , 2 ] ] < < ) ) < < ] ) < < < < < < < < < < < < < < < < ) , : < < ) < < < ] < ) 2 < < < < < < ) ) ) ) ) 2 2 ~ [ } ~ < < < < < < < < < < < ) < < ] < < ] < < ) ) < < ] ) < : ' ) < 2 < < ",
"] ] ] ] ] < < ] ] ] ] ] ] ] < < ) 2 2 > / < < ) ] ] ] < < < < < ) < < < < < < < ] ] ] < < < ] ] ] ~ / ! ! { ] < < ] { ] ] < < ] ] ] ] ] ] ] ] < ) ) 2 ~ / ~ < < ] ] < < < < < < < < < < < < < ] ] ] ] < < < < < < 2 , ) ! ] ] ] < h.N x :.u. .D E ^.>.] 1 ! 2 ] 2 < ) 2 / / < ] { ] < < < < ] ] ) < < < < < < ] ] ] < < < < < < < ) / ~ ^ ! ] < < ] ] ] ] < ] ] ] ] ] ] ] ] ] ] ) ) < 2 : , ) ] < < < < < < < < < < < < ] ] ] < { ] < < < < ] ] < ] ~ / ! ^ ] { < ",
"< ] < < ] ] < ] < ) ) ) ) 2 2 2 < < < 2 > { ] < < < < < < < < < < < < < < ] ] < < < < ] < < < < < / , ! ! < ) ) < ] ] ] ] < < ] < ) ) ) ) 2 2 2 < < ) 2 : 2 < ] < < < < < < < < ) < < < < < < ] < < < < < < < < 2 ~ ' 2 ! ) < < < N E u.] 7 ] }.E E q 8 < 2 ) ~ 2 < < 2 : > ] ] ] < < < < < < < < < ] ] < < ] ] < < < < < < < < 2 2 , / ^ ! < ) < < ] ] ] ] < < ) ) ) ) 2 2 2 2 < < ] ) ~ : ] { ) < < < < < ] ] < < < < < < < < ] < < < < < < < 2 ) : [ ! ! < < < ",
"2 < ) 2 < < ) < < < < < < < < < ] < ) 2 ~ ! { < 2 ) < < < < ) 2 < < < < < < < < 2 ) < < < < < ) < : , ! ! < < < 2 ) < ] < ) < < < < < < < < ) ) < < < < > < { { 2 2 < < < < ) 2 2 ) < < 2 2 2 < 2 ) < < < < ) 2 ] 2 [ < 3 < ] { >.E E r ) l.2 u.E E i.< 7 4 { < ) < < 2 ~ 2 ! { ) ) < < < < < < < 2 < < ) < < ) 2 2 < < < < ) 2 < < / : % ^ < < 2 2 ) < < < < ) < < < < < < < < < ) < < ) 2 ! { ) ) ) ) < < < < ) ) < < ) ) ) < ) ) < < < < < < 2 < : [ ! ^ < < < ",
"2 ] < 2 < ] < < ] ] ] ] ] ] < < { < 2 ~ 2 3 ! 2 ) < ] { { ] < < ] < < < < ) ) < 2 < ] { ! { < < < > , ! ^ < ] < 2 ) ] ] < < < < ] ] ] ] < < < < < ] < < ~ ] ! ! 2 < ] { { ] < < < ] ] ] < 2 < ] ) < ] { { ] < < < ~ , ) ! ) < < ) c.i.7.] ] 8 }.E E T.{ { ] ] < < < < ) 2 < ^ ! ) < ] ] { ] ] < ] ) < < < < ] 2 2 < ] { { ] < < < < [ / % ! ) < 2 ) < < ] ] < < ] ] ] ] ] < < < ) 2 < ) < ) ! ] ] ] ] < < < < < < ] ] ] < < < < ) < ] ] { ] ] < < < : / ! ^ ] ] 2 ",
"< < < < < < < < ] ] ] ] < ) 2 ~ ] ] < ) ~ ! ^ < ] ] ] ] ] < < < < < < < < < < < ] ] ] ] ] < < < ] / [ ! ^ { ) < < < < < < < < < ] ] ] ] < ) 2 ~ < ] { < ~ < 3 < ] ] ] ] ] < < < < < < < < < < < ] ] ] ] ] < < < ] ~ , ) ^ ] { 2 < { 2 7 4 9 b.E E =.8 < ] ) < ~ < ] ] < ~ ~ % ! ] ] ] ] ] ] ] < < < < < < < < < ] ] ] ] ] < < < ] ] / / ! ! < < < < < < < < < < { ] ] < < < ) 2 { ] ] ) ~ ~ { ! ] ] ] ] ] < < < < < < < < < < < ] ] ] ] ] ] ] < ] ] / ' < ! < ] 2 ",
"< < < < < < < < ] ] ] ] < < 2 2 ! ] < 2 : ! ^ < ] ] ] ] < < < < < < < < < < < < ] ] ] ] < < < < < / , < ] < 2 ) < < < < < < < < ] ] ] ] < < ) 2 < ] { < ~ ] ^ 2 ] ] ] ] < < < < < < < < < < < < ] ] ] ] < < < < < ~ , ~ ] < ] 2 ) ) < < >.K E K I.A.] ! ] ) ) 4 < < ] < ~ ~ % { ] ] ] ] ] < < < < < < < < < < < ] ] ] ] < < < < < < [ / ] ] ) ) < < < < < < < < ] ] ] < < < < < 2 2 < < 2 ~ ^ ^ ] ] ] ] < < < < < < < < < < < < ] ] ] ] ] < < < < ] : , ) { < ] ) ",
"< < < < < < < < < < ] ] ] < < ) ] < < ) ~ ! ^ 2 ] ] ] ] < < < < < < < < < < < < ] ] ] ] < < < < ] > / < < ] < < < < < < < < < < < < ] ] ] < < < < ] ] < ~ ] ^ 2 ] ] ] ] < < < < < < < < < < < < ] ] ] ] < < < < < ) : 2 < < { < 8 4 4 ] K.E u.!.s.) ! < ] { ) 2 ) < ] ] 2 ~ 3 ] ] ] ] < < < < < < < < < < < < < ] ] ] ] < < < < < < > ~ < < < < < < < < < < < < < < < < < < < < 2 < { < 2 > { ! ] ] ] ] < < < < < < < < < < < < ] ] ] < < < < < < < ~ / 2 < ] ] < ",
"< < < < < < < < < < < ] ] ] < < ] < 2 2 ~ ^ ^ 2 ] ] ] < < < < < < < < < < < < < ] ] ] < < < < < { 2 > ) ) ] ] ] < < < < < < < < < < < ] ] ] < < ] < < 2 > ] % < ] ] ] < < < < < < < < < < < < < ] ] ] < < < < < < < ~ 2 ) < ! ] ) 7 4 R.c.l 9 G ) 7 { 4 ! { ) 4 < < < < ~ ~ % ] < < < < < < < < < < < < < < < < ] ] ] < < < < < < < 2 2 < < ] ] < < < < < < < < < < < < < ] ] ] 2 ) ] ) ~ > ! % ] ] ] ] < < < < < < < < < < < < < < < < < < < < < < 2 ~ ~ ) ] ] < ",
"< < < < < < < < < < < ] ] ] ] < ! < : / / ! % ] ] < < < < < < < < < < < < < < < ] < < < < < < < < ~ : ~ ~ < < < < < < < < < < < < < < ] ] ] ] ] ] < ~ : / ] & ] ] < < < < < < < < < < < < < < < ] < < < < < < < ) ) ~ ~ ~ 2 < < G.< ) < !.!.2 < 4 < < ] ] < < < ] < 2 ~ > ~ % ! < < < < < < < < < < < < < < < < ] < < < < < < < ) ) ~ ~ ~ ~ < ) < < < < < < < < < < < < ] ] ] ] < < < ~ : : ! % ] ] ] < < < < < < < < < < < < < < < < < < < < < < < < ~ > 2 ] ] < ",
"< < < < < < < < < < ] ] ] ] ] < ] 2 / / : 3 & ] < < < < < < < < < < < < < < < < < < < < < < < < ] 2 ~ 2 ~ < < < < < < < < < < < < < ] ] ] ] ] ] < 2 > / / { - ! < < < < < < < < < < < < < < < < < < < < < < < < < 2 ~ 2 2 2 < < ] G 4 J.x x n.7 < ) { ] < { { < < 2 ~ > : ~ & ^ < < < < < < < < < < < < < < < < < < < < < < < < < < ~ 2 2 2 < < < < < < < < < < < < < < ] ] ] ] ! ] 2 : / : ! % ] ] < < < < < < < < < < < < < < < < < < < < < < < < < ~ ~ 2 < < < ",
"< < < < < < < < < ] ] ] ] ] ] < ~ : / > 2 & & < < < < < < < < < < < < < < < < < < < < < < < < < { ) 2 ] 2 < < ] < < < < < < < < < < ] ] ] ] ] < ~ > : : > ! + { < < < < < < < < < < < < < < < < < < < < < < < < { 2 2 < ] < ) < g 7 2 r  .E J.< < ) ] ] ] ] < { 2 ~ : > > 2 - ^ < < < < < < < < < < < < < < < < < < < < < < < < { ] 2 2 < < < < < < < < < < < < < < < ] ] ] ] ] < ~ : / > 2 & - ] ] < < < < < < < < < < < < < < < < < < < < < < < < ) ~ ~ < < < < ",
"< < < < < < < < ] ] ] ] ] ] < < > / / > 2 & & < < < < < < < < < < < < < < < < < < < < < < < < < < ~ ~ < 2 2 2 < < < < < < < < < ] ] ] ] ] ] < < : : : > 2 ^ + ] < < < < < < < < < < < < < < < < < < < < < < < < ] ~ > ) ] < ~ 2 Z ) ] p.N i.g.] ) < ] ] 7 { ] ] ~ > : ~ ~ < + ^ < < < < < < < < < < < < < < < < < < < < < < < < ] < > ~ ) ) ) 2 < < < < < < < < ] ] ] ] ] ] ] ] ) : / / ~ < & % ] < < < < < < < < < < < < < < < < < < < < < < < < ] 2 ~ 2 < < ) < ",
", / / : 5 : < 2 ~ 2 2 2 4 2 : 6 : / / / / : ~ 2 ~ 6 / ~ ~ ~ / , / ' [ ~ ~ , [ 2 ~ ~ > > ~ : / ' ' [ ' ~ > [ ~ 2 > / / / [ [ ) 2 ~ 2 2 2 2 ~ ~ : : / / 5 / : ~ 2 : : : : 6 : 5 ' / ' 5 : 2 , ' ~ ~ ~ ~ ~ ~ : / , , / , : > / , < : / / , , , 6 ~ 2 2 2 ~ ~ ~ ~ : 6 : / / / / 6 ~ : / : 6 ~ ~ / 5 / [ [ [ > : , : 2 ~ > > ~ ~ : / / , / / ~ > ' ) 2 / / / / [ [ 2 2 2 ~ ~ ~ ~ 2 2 6 : / / / / : 2 : : : / / : : 6 / : , , 2 2 / , ) ~ : : > ~ : / [ , [ ' ~ < / ~ ) ",
"~ , , 2 ] 2 2 < 2 ] ] ! ! ] 2 2 < 4 2 ~ ~ 2 4 < 4 1 < ! ~ ~ , , , : 2 2 ) < { ! ] < 2 ) < < 2 : : < { % { / : ~ : : , , ] < < < ~ < ! ^ ^ ! < : ] < 2 2 2 2 < < 2 < 1 ! ] ~ 5 ' 5 , ~ 2 ] 4 2 1 ! < 2 ) ] ] 2 : : ) { ^ ^ ~ [ ~ ~ / 5 / < ] ] < ~ < ! ! ! ! < ~ < < 2 ~ ~ ~ 2 4 ~ < 1 ! ] 2 / , , / ~ ~ 2 2 2 ! { < 2 ) < ] < ~ ~ ~ ] ! ^ < , > ~ : / / 2 ! ] 2 2 < ] ! ! ! ] < < < < 2 ~ ~ 2 < 2 4 ] ! ] 2 : , , / / : 2 2 2 < ! ] 2 ) ] ] < 2 ~ 2 < ) ! ! / : 2 ",
"< : / ! = ! ] ! ^ & = + # & ^ ^ & % % ^ ! ! ^ ^ % # = + < 2 ' , ' ~ { ] ! + $ @ & 3 ! ^ & & 3 ! 3 + . . & : > : ~ < / / + & { ! 1 & # # # + % ] & % ^ ! ! ! ! ^ % + # + | < : , , / ] ] ^ & # # + % ! ^ - + % { { & $ $ @ < / > 2 : , / ^ % ^ ] ] | + # # + & ! & % % ^ ! ! ^ ^ % = # + % < : / , [ ) ! ! % - $ - % ! ^ & - % ^ ^ % # @ @ ^ / : ~ ~ : / < + % ) 1 ^ & # # + & | % & & ^ ! ^ ^ ^ ^ & # # & 1 : ' , , : < ] ! & # - 3 ! ! % & % ^ ! % # # $ & : , : ",
": : , 2 ^ ! ] < < ! ! ! ^ ! < < ! 1 ] < < < < < 1 ! 1 ^ < < : / , ~ ] ] < { ^ ^ { < < < { ! ] < { ^ % % ^ ~ 2 ~ > ) / / % ! < < < ! ^ ! 1 ! ] 4 ^ ! 1 ] < < < < ! ^ ^ ^ ] < 2 ~ , / ] < < ! | ! ] ] < ] { ! ] < ) { % % % < ~ ) 2 ~ / 5 ! ! ] ] < ] ! ! ! ! ! ] ! ] < < < < < < ! ! ^ ^ 1 < 4 2 / , 2 ] < ] ! ! { < < < { ! { < < ] ^ 3 % ! ~ 2 ) ~ : / ) ^ ! < < ] ! ! ^ ! 1 ] ] ! 1 < 2 < < ] ] ! ^ | ^ ] 2 ~ ~ ' : ] ] < 1 ! ^ { < ] ! ^ ! { < ] ! ! % ^ 2 ~ ) ",
": : , : ] ! ] < ] ! ] ] 1 ] < < ] < < < < < < < 4 2 ~ 2 < < < 2 / 2 ] ] 2 2 ) < < < < < < ] ] ] < < 2 ] < < < < ~ ~ / / < < ] < 1 1 ] < < ] ] ] ] < < 4 2 2 4 4 < < 2 2 < < < < / / ] ] 2 2 ] 2 < < ] ] < < ] { 2 < 2 < ] ] < ] < 2 / , 4 < < 1 ] ! 1 < < ] ] < < < < < < < < < < < 2 2 < < < < ~ / < { 2 2 < < < < < ] ] ] ] ] ) 2 < < ] ] < ] < ~ > / > < ] ] 1 1 ] ] ] ] ] ] < < < ] < 4 < ] < 4 4 < < < < ] 2 , : ! ] 2 2 ~ < < < < < < ] ] < ) ) 2 < ] < ] ] ",
"] ~ , : ! ^ ^ ] ] 1 ] < ] < < ] < < < < < < < < ] < < 4 ] < ] < / ] 3 ! < ] { ] < ] ] ] < < ] ! ] ! ] ^ ] { ] { < ~ / : < ! % ^ ] ] ] ] ] < < < ] ] ] ] ] ] ] ] ] ] < < ] ] < 2 : : ^ ^ ] < ! ] < ] < < < < ] { ! ! < { ] ! ] ] ] 2 / , 4 ] ! ^ ] 1 1 ] < ] < 2 < < < < < < < ] 1 < < < < ] < 4 ~ ~ ^ % < < ! ^ < ] ] ] < < < ] ! { { ] { ] ] { < 2 ~ / : ] ! ! 1 1 ] ] ] < < 4 < < < ] ] < < ! ] ] < < < < < ] 2 / 4 % ^ < < < ] { ! ] < < ] ! ] { ! ! ! { ] < < ",
"< ~ , : < ! ! < < ] < < ] < 2 < < < < < < < < < ~ ~ 4 4 < 4 < < : ! % ! 2 2 ) 2 ] ] < < < < < ] 2 < ] ] < < ] ! < 2 / / < ] ^ ! < ] ] < < < < 2 < < < < < < < < ~ 2 2 2 < < < < 6 ~ ^ ! < 2 < 2 ] ] < < < < ] ] < < < ] ] { ] < ] 2 : / < 1 ^ ^ 2 ] ] ] ] ] < 2 < < < < < < < < ~ ~ 2 4 < < < 4 ~ ~ ^ 3 < ~ 2 ] ] ] ] < < < < < ) < < ] ] ] { ] < ) 2 : ~ { ^ ^ ] ] ] ] < < < < < < ] ] < 4 < ] 2 2 2 2 2 < < < 2 ~ ] | ] ~ 2 4 ] ] < < ) ) < < ] ] < < < < ] ] ] ",
"< 4 2 2 < ! % ] 2 < < < ] < 2 2 < < < < < < 4 4 4 < < 1 < < 2 2 > { % ^ < 2 < < ] < < ) < < < < ! { ! ) < ) ] ] ] ! ~ : ! ] ] ^ < ] ] 2 2 < < 2 < < < < < < < 4 < < ] < < 4 < ] : 2 % ^ ] < ] < ] ] < < ) ) < < ] ] ! ] ] < ] < ] 2 2 ~ < ] ! ! 2 4 < < < ] < 4 < < < < < 4 2 2 < < ] < 4 4 < < ~ ~ ! ^ ] ) ) ] ] ] < < < < ) 2 ] ] ] ] ] < ] < < ) < 2 2 < ] 3 ] < 4 2 2 4 < ] < ] ] < 2 2 2 2 < < < < < < < < < 2 ] ^ 1 4 ] ! ! ] < < < < < ) ] ] { ! ] < < ) < ",
"2 4 ~ 2 ] ! ^ ] < < < < < < < < < < < < < < < < < < < < < < < 4 : ] 3 ] < ] < < < < < < < < < < < < < < < < < < < 2 ~ ~ { { 3 ! < < < < < < < < < < < < < < < < < < < < < < < < 6 ~ % ] < < < ] < < < < < < < < < < < < < < < < ] 2 2 ~ < ] ^ ^ < < < < < < < < < < < < < < < < < < < < < < < < 2 : ! ^ < < < ] < < < < < < < < < < < < < < < < < < 2 2 ) ] ! ^ < < < < < < < < < < < < < < < < < < < < < < < < 4 : < | ] 4 < ] < < < < < < < < < < < < < < < < < ",
"2 ~ : 2 ] 1 ^ ! < < < < < < < < < < < < < < < < < < < < < < < 4 : ] 3 ] < ] < < < < < < < < < < < < < < < < < < ) ~ > ~ ] ] ^ ! < < < < < < < < < < < < < < < < < < < < < < < < 6 ~ % ] < < < < < < < < < < < < < < < < < < < < 4 ~ ~ 6 < ] ^ ^ < < < < < < < < < < < < < < < < < < < < < < < < 2 : ! ^ < < < ] < < < < < < < < < < < < < < < < 2 2 ~ ~ 2 < ! ^ < < < < < < < < < < < < < < < < < < < < < < < < 4 : < | ] 2 < ] < < < < < < < < < < < < < < < < < ",
"< 2 : 2 < < < < < < < < < < < < < < < < < < < < < < 4 < < < < 4 : ] 3 ] < ] < < < < < < < < < < < < < < < < < < ] ) ~ ~ < < { < < < < < < < < < < < < < < < < < < < < < < < < < 6 ~ % ] < < < < < < < < < < < < < < < < < < < < ] 2 2 6 2 4 ] ] < < < < < < < < < < < < < < < < < < < < < < < < 2 : ! ^ < < < < < < < < < < < < < < < < < < < < < < 2 ~ ~ 2 < ] < < < < < < < < < < < < < < < < < < < < < < < < 4 : < | ] 2 < < < < < < < < < < < < < < < < < < < ",
"] 4 ~ 2 < < < 4 < < < < < < < < < < < < < < < < < < 4 < < < < 4 : ] ^ ] < ] < < < < < < < < < < < < < < < < < < ] < ~ ~ < < ] < < < < < < < < < < < < < < < < < < < < < < < < < 6 ~ | ] < < < < < < < < < < < < < < < < < < < < ] < 2 6 2 2 ] < < < < < < < < < < < < < < < < < < < < < < < < < 2 : ! ^ < < < < < < < < < < < < < < < < < < < < ] < ) ~ ~ 2 < ] < < < < < < < < < < < < < < < < < < < < < < < < 2 : < | ] 2 < < < < < < < < < < < < < < < < < < < ",
"2 2 6 2 ] ! ^ ] < < < < < < < < < < < < < < < < < < 4 < < < < 4 : ] ^ ] < ] ) < < < < < < < < < < < < < < < < < ) 2 > ~ ] ] ^ ! < < < < < < < < < < < < < < < < < < < < < < < < : ~ | ] < < < < < < < < < < < < < < < < < < < < < ~ ~ 6 < ] ^ ^ < < < < < < < < < < < < < < < < < < < < < < < < 2 : ! ^ < < < < < < < < < < < < < < < < < < < < < 2 2 2 2 < ! ^ < < < < < < < < < < < < < < < < < < < < < < < < 2 : < ^ ] 2 < < < < < < < < < < < < < < < < < < < ",
"2 2 ~ 2 < ! ^ ] < < < < < < < < < < < < < < < < < < 4 4 < < < 4 : ] ^ ] < ] ) < < < < < < < < < < < < < < < < < < 2 ~ ~ ] ] ^ { < < < < < < < < < < < < < < < < < < < < < < < < : ~ | ] < < < < < < < < < < < < < < < < < < < < < 2 2 ~ < ] ! ! < < < < < < < < < < < < < < < < < < < < < < < < 2 : ! ^ < < < < < < < < < < < < < < < < < < < < < < 2 2 ) < ! ^ < < < < < < < < < < < < < < < < < < < < < < < < 2 : < ^ ] 2 < < < < < < < < < < < < < < < < < < < ",
"] < ~ 2 < < < 2 < < < < < < < < < < < < < < < < < < 4 4 < < < 2 : ] ^ ] < ] ) < < < < < < < < < < < < < < < < < { < ~ ~ < ) ] ) < < < < < < < < < < < < < < < < < < < < < < < < : ~ | ] < < < < < < < < < < < < < < < < < < < < 1 < 2 6 2 2 < < < < < < < < < < < < < < < < < < < < < < < < < < 2 : ! ^ < < ) < < < < < < < < < < < < < < < < < { ] < 2 ~ 2 < < < < < < < < < < < < < < < < < < < < < < < < < < 2 : < ^ ] 2 < < < < < < < < < < < < < < < < < < ] ",
"< 2 : 2 < 4 < 2 < < < < < < < < < < < < < < < < < < 4 4 < < < 2 : < ^ ] < ] ) < < < < < < < < < < < < < < < < < < 2 ~ > < ) ] ) < < < < < < < < < < < < < < < < < < < < < < < < : ~ ^ ] < < < < < < < < < < < < < < < < < < < < ] 2 ~ : 2 2 < < < < < < < < < < < < < < < < < < < < < < < < < < 2 : ! ^ < < ) < < < < < < < < < < < < < < < < < ] < 2 ~ ~ 2 < < < < < < < < < < < < < < < < < < < < < < < < < < 2 : < ^ ] 2 < < < < < < < < < < < < < < < < < < ] ",
"2 : / < { < < { ] ] ] < < < < < ] < ] ] < ] ] 2 ) ) 2 2 2 ) < < ' 4 ! ! 4 < ) 2 < < < < ] 2 ~ 4 { < ) ) < { ] ] 2 : [ > 7 ! ] ] < ] { < < { ] < { ] < < { ! ) 2 ~ < < ) 2 2 < { e : ! ^ < < < ~ ] ] ] < 2 2 < < < < < < < < ] ] ) ~ / 5 2 1 ] ] < < { ! ] 1 ] ~ < < < ] { { ) 2 2 2 ) ] 2 ~ ) { / c { { < ! ~ 2 ) 4 < 4 < 7 8 4 ] ) ) < ] < ] ^ ] 2 / 5 ~ 7 { ] < ] ! { { { { 2 ] < 2 ) < ) < < ) 2 2 2 2 ~ ) ) ~ , 6 ^ < ) < ) 2 { ] 2 4 < ! 7 ] ] < < < ] ] { ] ",
"/ / : ~ < ] < < < < < < < ) < < ) 2 < < 2 ~ 2 2 g ~ l.< < g / d , : ) { { < ) ) ~ < < ~ ~ < < 7 2 2 2 2 < ] < ~ ~ : / ~ ) < < 4 2 2 ) < < ~ 2 < 4 < < 2 2 < < 4 ~ ) ) < < 2 : / / ~ 7 7 < < < 2 ~ 2 4 < ) ) 2 2 6 2 < < < < g g : 6 / ~ < 7 < < 4 0 2 8 4 2 < < 7 < < 4 8 8 ] ] g g ) < < < ~ : 6 5 4 2 < ! g < ) < < 6 ~ ) < g ) ~ ) < < ) ) < ~ 6 / ~ ) ) < < ) < < 4 4 4 4 < ) < < < < < < < ~ 2 ) 7 7 < ~ : ~ [ h+{ 4 6 < { g ) < < 2 ~ 2 ) < 2 2 < < 2 2 < 2 ",
"/ ~ ~ 2 < { < ~ < < < < < ) ) ) < ) < ] ) 2 < < ) ~ ~ 2 4 ~ 5 e z [ : 2 2 2 2 < 2 ] ] < ) < 2 2 2 2 2 2 < < ~ > / / ~ 2 2 ) ) ) ] < < < < 2 2 < 7 < < 2 0 2 2 ) g ~ ~ 2 4 ~ 5 ' ' , 5 : 2 2 ) { +.) ~ 2 ] ] < 2 ) ) ) ~ ) ] ) > / > ~ ~ 4 4 l.l.7 < < < < ) ) ) ) ) < ) ~ ~ g < ~ l.6 6 2 4 ~ / [ , / / ~ < 2 < ] 8 ] 2 ) < 2 2 ) ) ) ) ) ) ) ~ : > > 2 2 8 ] ) 1 < ) < ] 2 ~ ) ~ ) < ) ) < 2 ~ ~ < ~ ~ ~ < 6 5 [ ' [ ~ ) ) < < 4 4 < 2 2 2 2 2 ) 2 2 < < ) ) < / ",
"> ~ ) < 2 2 ~ / / , , / > 2 ) ~ ~ > ~ 2 ~ ~ ~ / 2 6 / , [ b > : ~ ~ ~ 2 a [ / 4 ~ / / / ~ 6 / : ] ~ / / 2 2 ~ : / ~ ) < ~ ~ ~ ~ / / / / ~ < < 2 g ~ ~ ~ ~ ) < ~ > / / / / / : / ~ 2 ~ ~ 5+h / 4 2 : , / ~ 2 / ' < < 6 ' / < ) / / > ) ) ) ) ) ) 5 : ~ / b g < 2 4 2 ) ) ~ ~ ~ 6 > > > : : : / / ~ ~ ~ b b b / 2 ~ / [ / ) f./ ' 2 ] 2 , , 2 2 6 d ~ 4 4 ~ ) < ~ / / : b / ~ 4 4 < < < 2 ~ ~ 2 2 / > ~ : t > b / 5 6 6 ~ ~ ~ / / ) > b , : 4 < / ~ 2 ~ / / ~ ) ~ / ",
"~ ~ < < ~ 2 ~ / : [ / / : ~ < ~ ~ 2 < < ) < ) / t : : , [ b ~ ) l.W.~ > : ' [ / > b [ / 2 ~ : > < > ' ' > ~ : , > > ) < ~ 6 6 6 / / , / : ~ ~ ~ 6 2 < < g < < > / / / / / b ~ ) ~ ~ 2 ~ ~ [ [ > 5 / [ / 6 6 6 / f > / , [ > ~ / 6 ~ ) ) ~ ~ 2 2 , : : / [ > ~ 4 ~ ~ ) < 2 2 ) f , , : > > [ : ~ g ) 2 6 6 / ' [ ~ b c , w+< < [ ~ ~ > c ' / > / / : 2 ) g ~ ~ ] b > / 5 : > ~ 2 ~ ~ 2 ) 2 ~ 2 < 5 ' / : / , / g ~ ) 2 > ~ > [ [ 2 : , ( [ ~ < 6 : ~ > , , > ~ : , ",
"! % + & ^ + + ! ! < ! < ~ ~ < < ] % + % ^ % % ] {.! % & % ! ! 3 x+| i+! % 3 3 ! 4 ] 2 > < ! % % ! % ,.+ % ^ % % U ^ & + % % % % ! ] < { ) / > < ] ! % & ! ! | 1 < ! % % % 3 ! ! P ! ! ^ ^ ^ ! ^ < ) ) ~ 4 1 % - 3.% % + - ! 3 - % % % % i+% v++ ! < 4 {.4 : > ) 2 ] % = | i+% 3.! ! [.% % | ^ 3 ! ^ 9 9 | ^ ! ! 4 ] 4 ~ ~ < 3 U % 3 % + + % 3 % - 3 | - 3.! ! @ ! ! 4 < { g / < < ] ^ & & % % & { < {.[.3.% ^ ^ ! % ! < ^ ^ ! [.< 4 4 4 g ) 3 #.% 3 % & & % % % + ",
"] ! % % { % & ! < < { < / / 2 < { ^ % ! ] ^ 3 ] l.1 % & ^ 1 ] ] 9.{ ! }+! 3 ] 4 e.< < 2 ) ^ - + k.^ # + ! ] 3 - ! ! % 3 s.^ 3 ! ! < ] ] ~ , : ! 7 { % & ^ ! % e.< ] ! % % ! ] k.| ^ ! { ^ ! 1 {.{ < 4 2 ) { S # P ! % # & { ! + ^ ^ % | ! ! 3 ^ { < < ! 7 b / 4 2 ] % 3.! ! 3 3 ] ] ! ! % % ^ ! [.! 3 3 ^ ^ { < < { 9 7 ~ < 9 &.3 ! 3 + + % ^ % U 3 e.| & { { % 1 ] ) ] 1 6 5 G ~ < ^ % % ! ! % ] { 7 ^ ^ S ! 1 3 % ! 1 ! ! 7 ! Z s.< ] 4 2 { y+^ ^ % + + % ^ 3 & ",
"< < ! ! 2 2 < 2 < ) < < , , ~ ~ < ) 2 ~ > ) < ~ Z p.N /.E K K E `.G.~.6 > g ~ < ) 1.(+r.}. .v.r._.8 : ) < ] ] < 9 m.u.K K }.i.q < < < ~ / ' / 2 $.C }.E ;.i.D.0 ] < ~ ~ < < 9 e+r.v.N b.r $.8 ) ) 2 ~ ) 7 9 $.o.D D }.i.p.B 2 { ] < 7 7 8 -+i.v.E b.i.I 8 ' ' 6 ~ ~ ) 9 -+C N E N i.p.8 ) ) < 2 ) 8 J.r N K b.r.%.Y x p.Z ].@+K E E E E E E E E E D.g.I K D E x E K K E x v.$.z+/ 2 < 2 ~ ~ ~ ~ 6 A+] C N I.8 7 f.N.b.u.4 >+1.U.N I.X.F g 1 1 ~ ) < < ] ] < < < < ",
"] ] ] ] < < < < ~ < < < / ' ! < < < < < < < < < 4 p.b.E E E E N %.) 2 2 < g 1 < n.r K E x }.K E K }.h.< ] ] B U b.E E K v.E E E v.h.B+2 l._ H.:.E E N N x E E l n.] < < < h.:.E E x )+x E E l O G 0 < : 7.v.E E K N E E E }.O e.1 { {.O b.E K x N K E E r C+' ! ] 7 h.:.E E E v.E /.E v.O ) ] 7 q.N E E E v.x E E K E $.< V }.E E E K i.V.a+E E D }.{ p.}.E x E K i.u.x E E E i.4 4 < ) ~ 2 < { < 4 %.E E E O < q K E E h.{+Y E E E <.~ ~ 3 ! 2 < < ] ] ] ] ] ] ] ",
"] ] ] ] < < < < 2 < ) ) / ' ! ! < < < < < < < < < Z O N E E i.] G.< < 2 ) < ~.m.N E E l 2.9.:+)+E x }.{ < { O /+K N i.>.8 9 :.E E }.] ) F D+N E E r 9 Z >.r y.N N l+< < ].}.K E r !.Z a.r E J v.{ 8 ~ j.x E y.i.>.8 >.^.D E b+g.7 { m.x J E c.a.8 >.i.E x x 0+U ] m.K E E V.9 8 >.:.E E v.9 ) 9 N E E M B 2 ] U C E E $.< 3 9 K E x I.G.4 {.! C.E E 9 ] >.E K E C ) 7 ] i.@+K E ^ ] < < ) < < < < < I.E E E 9 < I.E E K !.7 I.E E K a.~ ~ ! P 2 < < ] ] ] ] ] ] ] ",
"] ] ] < < < < < < < ) 2 / [ 3 ^ < < < < < < < < ] ) #+@+E D %.7 4 2 ~.< 4 { >.}.E E r X.! P < @.E E E c.e.9.N E E r !.< < 7 7.E E E c.) B /.E E r g.G l.) n.E K E I.< 9  .E D )+] 4 < ) n.E K K c.) =+N E E v.^ 4 < ~.7.K E E M 1 9  .E E }.!.< g ! !.K K E q = a.N E /.F.Z G G < a.K E E U.{ T.E K E p.~.< 4 g.] C E $.< P c+E E y.Y.] n.N ].] c.K I 4 9.E E E m.Z ] {+I.D D K & ! < < < < < < < < c.K E v.] < V.E E v.8 < =.E E r ] ~ ~ ^ P 4 < < < ] ] ] ] ] ] ",
"] < < < < < < < < < < 2 > / ! ! < < < < < < < < < 8 p.E K E a.1 e.4 < < < R.o.E E x h.~ % P < < v./.E v.4 c.E E E z.R.] k.7 ] b.E E v.< v E E E m.~.{.< 2 ) N E K l < I.E E E 7+~.4 7 4 ] }.x E v.4 c.E E K h.< ] < 1 { N E E v.8 I.E K x h.< < < 4 < b.E E v.% I.E E x <.< l.{ < }+y.E x v.4 M E D E E u.*+!.] { 9 N.<.< 6.%.E E @+!.) M E E+< ! %.7.] ].K E E @.7 l.] v./.E x ^ ] < < < < < < < < c.E E %.< < c.E E J.< ] c.E E $.) ~ 2 ^ P 4 < < < ] ] ] ] ] ] ",
"< < < < < < < < ) < < ) ~ / < ) < < < < < < < < < ) U.E E E ] ) < < ] 4 < 9 x K E `.R.2 ^ 3 ] 4 v.x /.y.9 K E E v.{ 8 Z ~.7 4 v.K E y.8 E K E b.{ ] 2 G.4 4 i.E E K k.K E E }.~.] < [+< < i.E E K ] K E E F+] 8 ) { 4 < :.E x K g.K E E )+< 8 < ~.] >+v.E N E 1 x E E r ] 4 ) G.~.4 v.K E J Z I N x K E E E x :.%.A.) 2 ) - M E E E v.}.E K B < 7 8 R.{ q E E E g.8 O r E E E %.4 < < < ) < < < 4 < I.E N B 7 < C E N 9 < ] I.E K g.g ~ ~ % 3 < < < < < ] ] ] ] ] ",
"< < < < < < < < ) < < < ~ / ~ ~ < < < < < < < < 4 7 u.E x l ] < ] 7 ] ] < z.E E K &+2 g U ^ 4 7 b.E x E D.K E x c.< 4 ] 7 < )  .E E E -+E E K U.{.< 2 ] G G N E E E ].E E E I.{ < ] < ] ] v.K D E -+/.E @+8.~.< 4 8 4 7 b.E E E m.K E D I.l.R.< ] ] l.v.E E E -+K E E u.2 g 4 { { l.v.E E K ^ < v.K D E E E E E E E $.) 2 | i.K E E K E E ^.{ e.{ 4 { < i./.E K x /.D E E x Y 2 2 < < < 2 2 < < 4 < V.E x.) 7 < u.E c.{ < ] I.E c.R.4 ~ ~ 3 ^ < < < < < ] ] ] ] ] ",
"< < < < < < < < < < < 2 ~ : 2 < < < < < < < < < 2 ] :.E J V.< < < ] ] 7 ] %.K E E q < 2 3.3 ) 8 E E /.K $.E E K q < { 7 ~ ) ^ E E E }.%.E E E %.< { < g G ] K E E  .$.E K D %.< 4 ] 7 1 9 E E E N %.E E E ` { 4 7 ) { ] E E E b.I E E D %.< ) < 7 2 8 x E E E %.E K E T.] 7 < ) 8 7 E E E K < Z 4 %.}.D E E E E E E K #+2 % N E K i.7.++E r ) { { ] < < :.K E 0.b.x E E :.1./ {+< < < < < < < ) < < u.E m.< 7 4 u.E z.+.] 7 i.E m.~.2 2 ~ 3 ^ < < < < < < ] ] ] ] ",
"< < < < < < < < < ] < ~ ~ ~ < { < < < < < < < < 7 1.E E x M 4 ] < { k.i+z.T.E E E p.) l.% | 8 h.E E x r.V E x E p.< G.< ] G.7+E E E r.$.E E K I { 1.< 7 2 <.E E E u.J.E K E -+4 < 7 { < z.K K x u.p.E K E W < < 4 R.] 7+K E N u.T.E E /.].) 8 4 < g.O E E E u.*+E E x I ) 4 4 ] 2 h.x K E u.m.q ] 7 { | I c.v.E E E E q ) & K E E J.8 9./.%.1 7 7.7.] { E E E %.{ I.E x E n.2 < ! < < < ] < < 2 < < :.E ] 8 ) < :.E { ] ] e.r E 8 < 2 2 l.3 & < < < < < < ] ] ] ] ",
") ) < < < < < < ] ] < < ~ 2 ^ % < ] ] < ] ) < 4 ] q+E K E <.Z 4 2 Z ~.u.E ` x E E D.: w+% ! Z c.E E x O 7.x E E J.Z ] 4 < 2 C K E N h.a.K E x D.{ < < ~.G.c.x K K a.n.x E E T.l.Z g < ] c.E E N n.q+E E x ` ] < 2 ) ] C E E x n.>.x E E I ~ 7 2 < +.o.E E N h.e+K E /.J.< < < ) 2 V.x D N n.L E -+< e.< { 7 8 I.E K x N.G.<+x E E O ] g.c.7+) >.}.D k.h.E x E p.7 O E x E u.G.P ! { < < < 4 ) < ) ) I $.< 2 ] ] $.p.] 7 8 ] m.p.< 2 2 ~ : ! % 2 < < < < < < < < < ",
"] < < < < ] ] ] ] ] < < ~ 2 ! ^ 7 7 ] < ) < ] { A+I x D J >.< }+{.{ G+/.i.] }.E E u.: > | { q.N E K C Z ] `.E E V.] < {.] H+K E D c.] ] }.D E L ] 8 < ] q.y.E E &+] Z ^.K D v.{ < 1 { q.K E E c.l.0 .+E E V.Z < < ) p.K E x x.) { N y.E r Z ] 4 ] ].K E E &+Z % }.E D u.Z < 8 Z <.K E E c.{ q E :.9.] ] ] 4 ] q E E E j ~ D.K E x !.< 7 8 ] m.v.E V.7 I D E E A.1 R.u.E K /.A.! ! ] ) ) < ] ] ) { n.I+O 7 ] 7 @.8.c+4 { 7 7.N.n.] 2 2 ~ > ! % < < < < < < < < < < ",
"{ ] ] < < ] ] { ] ] < < ~ ~ ] ! < 2 2 < < < ) G.] o.K E x B R.3 ].v.E E V < m.E E x q : ^ D.N E ;.}.g.7 4 ].E E K N.k.7 I }.E E ^.] {.< <.E E E N.] ~.p.K E E v.{ < ) q.x E K U.! { I x E E l g.{ 2 <. .E E ` 4 < p.x y.E l s.] ] ].x E /.%.] ! T.N D E r X.2 { p.x E K q ] ] J+K E E r o ] D.E E ^.-+) ~.7 a.b.K x i.0 ) =.E E K g.2 < g.I N E x O 8 i./.D K U ] ! O E E E L.g.1 < 2 ) < ] ] ) 1  .E v.] < ^ K K K g.g !.}.K  .1 < 2 ~ ~ ! 3 ) < < < < < < < < < ",
"{ ] < < < < ] ] ] ] < < ~ > < < ) 4 ) ) 4 ) 2 J.v.E E E E v.v.E @+x E v.Z 4 < D.K E E K K K E E i.1.< ) ~ 4 p.}.E K E E D E x u.8 ] < f.2 B.J E E K K x E E c.] ] A+4 R.J.N K E E E /.N x C g.< < < ) J.0.E D K x E E K I.] < < 1 { q }.E E K N /.N /.x.Z g : 8 ~.q b.E E E K E E x $+8 g ] 7.E E x x K 0.b.x E E i.B m+0.E E E E v.r r K E E E =.T.v.E E E E }.].< 8 i.E D E 0.9 4 ) < ) 2 < < O E E K B Z O E E E B ~ h.E E E 1 < 2 ~ ~ { ! ) < < < < < < < < < ",
"{ ] ] < < < < ] ] ] ] ] ~ ~ < < < ] < < 4 ) ] C.E E K K N K K E y.E E $.2 < l.Z >.c.L.K N v.U.>.G.{ 7 4 < 7 ] a.I.l  . .v.I.2.] {.7 +.8 ) 2 B c.0.N N v.c.n.< ) < < < 2 ) >.c.L D K v.N.n.Z ~.< 2 4 < 6 a.V.v.K  .b.U.a.8 4 7 < ] ] { a.c.r K K :.c.n.) ) 6 ~ { 4 ~.a.C r K K b.c.7.] g l.] ^ x x.$.C K ;.x :.c.m.~ < C ;./.x E E b.E E D E /.E O $+E E E x K+E J.{ 8 p.x E E E 9 8 ] { < ) < ] 4 V.b.D.4 {.< !+K T.8 ~ 6 i.K %.< < < 2 ~ ] ! < < < < < < < < < ] ",
"] ] ] < < < < < < ] ] ] 2 ~ < ) ] < < < < < ) ] < < 2 0 ] 4 ] < 8 < ) 7 < ) g ) {.2 < F { 8 < 7 < G 7 < 4 < {.7 ! < { ] < 4 < G { < { ] ) 2 g 4 < ] Z < < ) ~.4 g ] ) 4 ] 2 ) G.< < ) ] 4 ) < 2 < < 2 ~ < < < 2 ] < ~.< 4 ) ] < { < ! < ] 8 < < R.{ < ! ] 2 ~ < G.< < < { 4 ~ < < ~ 2 4 ] 2 f.Z 2 2 < ~.4 < ~.) < ) 4 2 ) < < 4 < < 4 < ] ] ) { {.7 8 { ] ] < ] ~.7 < < s.2 ~ ) ] < < ] < < < ) ) 2 4 ) 2 ) < ) < < < ) < 2 : B+< < < 2 ~ < < < < < < < < < < < ] ",
"2 2 ) ) 2 ~ ~ : ~ ~ 2 ) : / ~ > ) ) ) ) > 6 6 > ~ ~ ~ : 2 : ~ ~ > 6 g < < 0 > : 2 g 6 / ~ W.g > 6 6 > 2 6 ~ 6 6 ~ ~ l.f.< ~ ~ ~ 6 ~ g 2 2 A / > ~.) 2 2 ~ : ~ > ).: ~ 6 f g ~ 6 ~ ~ 2 2 4 2 : 5 5+6 ~ 5 ~ ) ~ ~ 6 6 6 ~ ~ ~ 5+~ ~ ~ ~ 0 ) 2 0 > > ~ 2 > ) > > ~ 6 ~ < ~ > : g ~ > 5+/ ) ) 6 ~ F > ~ ) ) < ~ ).g ~ ) > b g ~ ) f : 6 6 6 F ~ 0 > 2 ) ~ < 2 2 0 6 2 2 ) > ) 2 b ~ ~ 2 ) 2 ~ ~ ~ > : : / 2 ~ f ~ 6 6 f ) 2 ) ) g 6 ~ ~ ~ > : > ~ ~ ~ ~ ~ ~ ~ ~ ~ ~ ~ ",
"/ : > ~ > / [ ' , / / : , ' / , 6 : : / / c c e , [ / b 5 5 ' ' [ [ : ~ ~ 2 : [ t ' ' _ [ ' s+[ c , / , > [ [ , / / > ~ F / / [ / , / > / c [ , : A b z / , ' e , [ b / : / [ , ' [ : ~ g ~ b / , [ [ _ [ 5 |+e c , [ / 5 , [ , / 5 > g ~ / b , , [ / > / 5 e : b 5 > > / , ' , L+} / 6 F , ' 5 e [ / ~ g ~ > a [ ' d } u+/ e [ [ , [ / / , / c 5 5 6 ~ ~ b a M+/ ' / / 1+5 n 5 / > ~ ~ 5 ' ' / ' c 5 j+/ : u+c } ' / : 6 ~ ) > , [ , ' ' ' , , , , , , , , , , / ",
"! ^ 3 ! < ! ^ < ] < < < < < < < / > 2 : ' ~ < ] < ] ! % % 3 ! ! % ! { ^ ^ < < ! < ] ! ^ 3 ^ ^ ! % / ' ~ 2 2 < % % ! 3 3 < ] ^ ! < < < < < < < < : ~ > : ' > < ] < ] ! ^ ^ ^ ! ! % ! ] ] ! ! ] < < < ! ^ ^ ^ ! ! % < ' ~ ~ : < % ^ % % ^ ] < { ^ < < ] ] ] < < < 2 : : > , , < ] ) < { ^ 3 3 ^ ^ 3 ^ ] ] ^ ^ < < < < { ! ^ ^ ^ ^ % 3 / / ~ 2 ~ { 3 % % ^ { ] ! 3 < < < < < < < < ] : / : > / ~ 2 < < ] ! ^ ^ ^ ^ 3 ^ ] ] ^ ^ < < < < ] { ! ! ^ 3 % % < ' ~ ~ ~ < ^ ",
"- + + & % - + 3 ^ ^ ^ ! ! ! ! ! / : > / , 2 < ] 3 % - + # + + - + % % & & ^ ^ % % & - + + + + + & 2 / < < ! ! % # - + + % % + & ^ ^ ! ! ! ! ! ! > > / / , ~ < ] % % & + + + + - + & % % & - % ^ % % & + + + + + & ! / < < < ! & + # # + % % & + ! ! ^ ^ ^ ! ! ! ) : : > , , < ] 3 % & + + + + + + + % % + - % ^ % % & - + + + + & & ~ ~ ] ] < 3 + # # + % % & + ^ ^ ! ! ! ! ! ! { ~ / / / , 2 < % % & & + + + + + + % % + - % ^ % % % & - + + + & - ] / < < < ! + ",
"< < ] ) 2 < < ~ < < < < < < < < > : : [ , < ] < 2 2 < < ] ] < < ! < < ] ] ) 2 < 2 ) < < < < < < < / , ~ ~ < < < ] < < < ~ ~ < ) < < < < < < < < ~ > / / , ~ < < 2 2 ) < < < < < ! ] < < ] ] < 2 2 2 ) < < < < < ] < ' > ~ ~ < ] < ] ] < 2 ~ ) < < < < < < < < ) ) > > ~ , , ) < 2 ) ) < < < < < { ] < ) ] ] ) 2 ) ) ) ) < < < < ] ] , , 2 ) ~ ] < < ] < 2 ~ 2 < < < < < < < < < ] ~ > / , ' ~ < ) ) ) ) ) < < < { ] < ) ] ] ) 2 2 2 ) < < < < < ] ! ~ ' ~ ~ ~ < < ",
"< < < ) 2 < < 2 < < ) ) ) 2 2 2 2 ~ > / , ) < < ) ) ) ) < < < < ] < < ] < ) ) < ) ) ) ) ) < < < 2 / ' ~ 2 < ) 2 < < < < 2 2 < < ) ) ) ) ) ) 2 2 ) 2 : / ' ~ < < 2 2 2 ) ) < < < ] < ) ) < < ) 2 2 2 2 ) ) < < < ) 2 ' > 2 ~ ) < < < ] < ) 2 ) < 2 ) < < < ) 2 2 < ~ ~ ~ , [ < ) < < ) ) ) ) < < < < 2 ) < < ) 2 < < ) 2 2 ) < < < ) ' , < < ~ < ) < < < 2 2 2 < ) ) ) ) ) ) 2 2 < 2 2 > [ } ~ ] < < ) 2 2 ) < < < < 2 ) < < ) 2 < < < < < < < < < < / } ~ ) ~ < 2 ",
"< ] ] < < ] < < < < < < < < < < < ) 2 : , 2 < < < < ) ) < < < ] < ) ) < < 2 2 ) < < < < < < < < < : / { ! < < < < < ] ] < < < < < < < < < < < < < < 2 > ' : ) < < < ) ) < < < < < < < < < < < ) < < < < < < < < < < [ ) ! ] ] < < ] ] ] < < < < < < < ] ] < < < < 2 2 2 [ / < ) < < < < ) ) < < < < < < < < < ) ] < < 2 2 ) < < < < [ / ! ! < { < < ] < < < < < < < < < < < < < 2 2 < 2 : , 2 < ] < < ) 2 ) < < < < < < < < < ) < < < < < < < < < ] > , ] ! < { < ",
"< ] < < < < < < < < < < < < ) ) < < < ~ / < < < < < < ) < < < < < < < < < < < < < < < < < < < ) < / , ! ! < < < < < ] ] < < < < < < < < < < < < < ] < 2 [ ~ ) < ) ) < < < < < < < < < < < < < < ) < < < < < < < < 2 ' < ! ] < < < < < ] ] < < < ) < < < < < ) 2 < ) < 2 / > { < < < < < < < ) ) < ) < < < < < < < < < ) ) ) < < < ) [ / 3 ! < < < < < < < < < < < < < < < < < < ~ 2 ] < ~ / < ] < < < < ) < < < < ) < < < < < < < < < < < < < < < < : , ! ! < ] < ",
") < < ) < < ) < ] ] ] < < < < < < < < 2 ~ ! { < < < < < < < < < < < < < < < < < < < ] ] ] < < ) < : , ! ^ < < < ~ < < < < < < < ] < < < < < < < < < < < > < ] ] ) < < ] ] < < ) 2 2 ) ) ) ) ) < < < < ] ] < < ) < 2 ' < ^ ] < ] ) ) < < ] < < ) < < ] ] ] < < < < < < < : ~ ! ] ) < < ] ] ] < < 2 2 ) < 2 2 < ) < < < < < < < < < ) / : % ^ < < ) < < < ] ] < < ] < < < < < < < 2 < ] ) ~ ~ ! ! < < < ] ] < < < 2 2 ) < 2 2 < ) < < < < < < < < < < : / ! ^ ] ] < ",
") < ) ) ] < ) ] < < < < < < < < < 2 2 ) < % ^ < < ] ] { ] ] ] < < < < < < < ] < < ] { ! ! ] < ) < / ' { ! ) < ) ~ < < < < < < < < < < < < < < < ) < ) < 2 { ! ] < ] { ! ! ] < < < < < < < < < ] < < { ! ! ] < < < ~ _ ) ! < < < ) ) < < ] ] < ) < < < < < < < ) < < ] < > 2 3 ! ) < ] ! ! { ] < < ) < ] ) < ] < < < ] { { { ] ] ) 2 [ / % ! ) 2 ) < < ] ] ] < < < < < < < < < < < < < 2 ~ ~ ^ ^ < < ] { ! { ] ] < ) < ] ) < ] < < < ] ] ] ] { { 2 ) / , ! ! < < 2 ",
"< < < < < < < < ] ] ] ] < < 2 2 < ) 2 2 ~ ^ % < ] ] ] < < < < < < < < < < < < < ] ] ] ] ] < < < < [ [ ! ^ ] 2 < < < < < < < < < ] ] ] ] < < 2 2 ) < < < ~ < ^ < ] ] ] ] ] < < < < < < < < < < < ] ] ] ] ] ] < < < ~ , ] 3 < < ) < < < < < < < < < ] ] ] < < ) 2 < < ] < ~ ~ % ! ] ] ] ] ] ] ] ] < < < < < < < < ] ] ] ] ] ] < < ] ] [ / ! ^ < < < < < < < < < < < ] ] ] ] < < ) ] ] ] ) < ~ ] { { { ] ] ] ] ] ] < < < < < < < < ] ] ] ] ] ] ] ] ] ] / , ] ^ < < ) ",
"< < < < < < < < ] ] ] ] < < ) 2 { < ) 2 > ^ % < ] ] ] < < < < < < < < < < < < < ] ] ] ] < < < < < [ , ] ] < 2 2 < < < < < < < < ] ] ] ] < < ) 2 < < < < ~ < % { ] ] ] ] < < < < < < < < < < < < ] ] ] ] ] ] < < ) > , ) ! ) < 2 < < < < < < < < < ] ] ] < < ) 2 2 < ] ] 2 ~ % ] ] ] ] ] ] ] ] ] < < < < < < < < ] ] ] ] ] ] < < < < [ / ] ] < < < < < < < < < < < ] ] ] ] < < ) < ] ] ) ) ~ { ^ ] ] ] ] ] ] < < < < < < < < < < ] ] ] ] ] ] ] ] < < / , < { < < 2 ",
"< < < < < < < < < ] ] ] ] < ) 2 ! ] < 2 ~ ^ % < ] ] ] < < < < < < < < < < < < < ] ] ] ] < < < < < / / ) < < ) ) < < < < < < < < < ] ] ] ] < ) 2 < < < < 2 ] % ] ] ] ] ] < < < < < < < < < < < < ] ] ] ] ] < < < < ~ / ~ < ) < 2 < < < < < < < < < < ] ] ] < < ) 2 < ] ] ) 2 % ] ] < < < < < < < < < < < < < < < ] ] ] ] ] < < < ) ) : : < < < < < < < < < < < < < < ] ] ] < < < 2 < ] ) 2 > ! % ] ] < < < < < < < < < < < < < < ] ] ] ] ] ] < < ) ) : / 2 < < < ) ",
"< < < < < < < < < ] ] ] ] < < ) ! ] ) 2 ~ ^ ^ 2 ] ] < < < < < < < < < < < < < < ] ] ] < < < < < ] ~ : ) ) ] ] < < < < < < < < < < ] ] ] ] < < ) < < < < ) ] ^ ) ] ] ] ] < < < < < < < < < < < < ] ] ] ] < < < < ] < : ~ < < { < < < < < < < < < < < ] ] ] < < < < < < < ~ ~ 3 < < < < < < < < < < < < < < < < < ] ] ] ] < < < < < < ~ 2 ) < ] ] < < < < < < < < < < ] ] ] < < < 2 ] ] 2 ~ : ! % < < < < < < < < < < < < < < < < ] ] ] ] < < < < < < 2 ~ ~ < ] ] < ",
"< < < < < < < < < < ] ] ] ] < < ! < ~ > : ! ^ 2 ] < < < < < < < < < < < < < < < ] < < < < < < < ] 2 ~ ) 2 ] ] < < < < < < < < < < < ] ] ] ] < < ] < 2 2 ~ < ^ ) ] ] ] < < < < < < < < < < < < < ] ] ] < < < < < ] < ~ ~ 2 < ] < < < < < < < < < < < ] ] ] ] < < ! ] ) ~ : > % ] < < < < < < < < < < < < < < < < ] ] ] < < < < < < < 2 ) 2 2 ] ] < < < < < < < < < < ] ] ] ] < < < ] ] 2 : / { % < < < < < < < < < < < < < < < < ] < < < < < < < < < ) ~ ~ < ] ] ] ",
"< < < < < < < < < < ] ] ] ] < < ! 2 / / / ! % ] < < < < < < < < < < < < < < < < < < < < < < < < < ~ > 2 ~ ) < ) < < < < < < < < < < ] ] ] ] < < ! < > / / < % ] ] ] < < < < < < < < < < < < < < ] < < < < < < < < 2 ~ > ~ ) < ) < < < < < < < < < < ] ] ] ] ] < ! < ~ > : ~ & ! < < < < < < < < < < < < < < < < ] < < < < < < < < ) ~ ~ ~ 2 < ) < < < < < < < < < < < ] ] ] ] < < ] < ~ : : ! & < < < < < < < < < < < < < < < < < < < < < < < < < ) ~ > > 2 < < < ",
"< < < < < < < < < < ] ] ] ] ] ] < ~ / : > % & ] < < < < < < < < < < < < < < < < < < < < < < < < < ~ ~ < 2 2 2 ) < < < < < < < < < < ] ] ] ] ] ] < ~ : : > ! - ! ] ] < < < < < < < < < < < < < < < < < < < < < < < 2 ~ ~ 2 2 2 ) < < < < < < < < < < ] ] ] ] ] ] < 2 : : > 2 + % ] ] ] < < < < < < < < < < < < < < < < < < < < < < < ~ ~ 2 2 < 2 < < < < < < < < < < < ] ] ] ] ] ) ) ~ : : ~ 3 + ] ] ] < < < < < < < < < < < < < < < < < < < < < < < ~ : ~ ) < 2 ) ",
"< < < < < < < < < < ] ] { ] ] ] : / : 2 < + - < < < < < < < < < < < < < < < < < < < < < < < < < ] 2 2 { < < ) < < < < < < < < < < < ] ] { ] ] ] > : : ~ < % + ^ ] < < < < < < < < < < < < < < < < < < < < < < < < 2 2 ) ) ) 2 < < < < < < < < < < < ] ] { ] ] ] ~ : / > ~ < # % ] ] ] ] ] ] ] < < < < < < < < < < < < < < < < < { ] ~ ~ < < < < < < < < < < < < < < < ] ] ] ] ] 2 ~ : / > 2 % # ] ] ] ] ] < < < < < < < < < < < < < < < < < < < { ] ~ : 2 < < < < ",
"/ ~ / / : ~ < < < < ) 2 ) ) 2 ) ~ > / / > 2 ) < ~ ~ ~ ~ ) 2 > / ~ [ / ) ) / / ) < ) 2 2 2 2 : / / : , < 2 / ~ 2 ~ 2 : / : : 2 < ) < < < < ) 2 2 ~ > : : : ~ 2 < ) ~ : ~ 2 2 : [ : / / ~ < / / 2 < 2 2 2 2 2 : / / ~ : ~ < ~ / 2 ) ~ > / / : < < < < < < < 2 ~ ~ ~ > : : : ~ 2 < 2 2 ~ ~ ~ > > > : ~ : / ) ~ , ~ ] < 2 2 2 ~ > / / / > : ) 2 [ < 2 > > / : ~ 2 < < < < < < ) 2 2 2 > / : : > 2 ] ~ ~ ~ ~ ~ > : / : : / : ) ~ / / < ) 2 2 2 2 ~ : : : ~ / 2 < / ~ ) ",
"/ / , / ~ : 2 < ~ 2 2 2 < 2 > > ~ > / / / > ~ ~ ~ ~ > ) 2 ) / , / / : ~ ~ : : ~ 2 ~ : > 2 ~ : , / : : < 2 ' : ) , : / [ ~ : ~ ) ~ 2 ) 2 2 2 ~ : ~ > : / / : > ~ ~ ~ ~ ~ ~ ~ : / [ [ : > 2 / : ~ ) ~ > > ~ 2 / , , / : 2 < : , ~ > : / , : : ~ ~ ~ 2 ) 2 2 2 2 > ~ > : / / : > ~ ~ ~ 2 2 2 ~ > : : : / / 2 ~ [ > < 2 : > ~ ~ : [ / , : : ) ~ , < ~ / / / : : : 2 ~ ~ 2 2 ) 2 2 ~ ~ ~ : / / : ~ ~ > ~ 2 ) ) ~ > / : / [ : 2 ~ / / < 2 : : ~ ~ > / / / / [ 2 < / > ~ ",
"2 ~ / < & ^ { ] ! % & - + % ! ! & % ! ! ! ! ! ! % + - + < 2 , , , > < ] ! & + + % ^ ! ^ % & ^ ] ^ % + # % , / ~ ~ ~ / : % ^ ! ] { % + - - - 3 < % % ^ ! ! ! ! ! 3 & + - ! 2 / [ , / < ] ^ % + + & ^ ! ! % & ^ ] { 3 - @ + 2 , : ) > / : ^ % ! < < ^ & - - + % ! % % ^ ! ! ! ! ! 3 % + + % < : ' ' [ 2 < { ! 3 + - 3 ! ! % & ^ { { ! - $ $ ! , / ~ ~ ~ : < & ^ < < ! % + # + % ^ % % 3 ! ! ! ! ! ^ % + + & { > , [ , > < { ! % - # % ! { ^ % 3 ! ! ^ - + $ - : ' ~ ",
"2 > ' < + % ] < ! % % & - % ! ! % 3 ! ! ! ! ! ! ^ & - - < ~ / : , 2 ] ] ! & + + 3 ! ! ! 3 % ^ ! ! % + @ % : : 2 ~ ~ [ [ - % ! < ] 3 - - & & ^ < % % ^ ! ! ! ! ! ! % + + ^ ) > / , / ! ! ! % # & 3 ! ! ! 3 % ^ ! ! % + # + ] : ~ ) : ' [ % - ^ < < ! & & - - % { % % ^ ! ! ! ! ! ^ % - - % ] ~ [ , , ) ! ] ! % - % ^ ! ! 3 % ^ ! ! ^ - # # ^ : ~ ~ ~ : [ < + & < < ! % + + - 3 ! ^ 3 3 ^ ! ! ! ] ! 3 & + & ! 2 / / , ~ ] ] ] % + & 3 ! ! ^ 3 ^ ! ! ^ & - # % ~ / 2 ",
": : ' : { < < { < ] < < ] < 2 ) < ) 2 2 2 ) ) 2 ) ) ) < < < 2 2 , ~ < ) ~ ) < ) ) ) ) ) ) < < < 2 < < ! < 2 < ! > ~ / ' ! < ] { < < ] < < < < 2 < < ) 2 2 2 2 ) < < ] ] < ) ) ) / [ ] < 2 2 < 2 ) 2 < ) ) < ) < ) < < < ] < < < ) ~ / , < ] < < ) < < < < < < ) < < ) 2 2 2 2 ) < < < < < < < < ~ , ~ < 2 < < 2 ) ) ) < < < < < 2 ) < < ] < 2 < < ~ : / > < < ] < < < ] ] < < < ) 2 ) < < 2 2 2 ) ) ) ) < < < ] 2 , / < ) ) < ) < < < < < ) ) ) ~ 2 < < ] ] ) < < ",
"~ 2 / > ] { ! ! { ! ] < ] < < ] < < ) < ] ] ] < < ) ) 2 < < ] < / < ! ] ) < < < < ] ] < < < ] ! < ] < { < { ] ! < < : [ { ] ! ^ { ] ] ] ] < < ] < < < < < < ] ] ] < < < < < < < : / ^ ! < ) < ) < < ] < < < < ! { { ] < < { ! { ] ) : / < ] ! ^ { { ] ] ] < < < < < < < < < ] ] ] ] < ) ) < ] ] 2 / < ! < < ] ) < ] ] ] < < ] ] < ] ] < ] ] ] < ! < ~ : ~ < { ^ ! ! { ] ] < < < < ) < ] ] < < ] ] < 2 2 2 < ] ! < / ~ ! ] < ] < < ] { { < < < ] < ] { { ] ] ] { ] ",
") ~ / ~ ! ^ ! ) ] { < ) < < ) < < ) ) < < ] < < 2 < ) < ) < < < : { % ! < < < ) < < < < ) ) < ] < ) < ] ] ] < ] ] 2 , [ ] ! ! ! < ] ] ] < < < 2 < < < < < < < < ) 2 ) < ] ] < 2 ~ ~ % ^ < < < ) < < ] < ) < < ] < ] { ! { { ! ! < ~ / [ < { 3 3 < ] ] ] < < < 2 < < < < < < < < 2 2 < < < < < < ~ > ! % ) 2 < < < < < < < < < < { { ] < < ] ! ! < 2 ~ / ~ ! ^ ! ] ] ] ] ] < ) 2 < < < < < < < < 2 2 ) ) < < < < 2 > ] % { ~ ) ] < < < < < < < ] { { ] < < < { ! ] ",
"] 2 : < ! ! ^ ] ] { ] < ] < < < ] < < < ] ] < < < ] ) ! < ! 2 ~ : ! % ! < < ] 2 { ] < < < < < < ! < ] ] { ) < ] ) 2 / : ] ! ^ ^ < ! { < < ] ] ) < < < < < < < < < < < < < < < < ~ 2 & ! ] < < < ! < < < < ] < ] < < ! ! ] < < { < 2 ~ > 2 < ^ 3 < { { < < ] ] < < < < < < < < < 2 ) < < < < < ) 2 ~ ^ % ] < ] ] ] ] < < < < < < { ] ] ! { < ] < ] 2 2 ~ 2 ] ] ! ] ] ] ] < < < < ] ] ] ) ) < ] < < < < < < < < < ) ~ { & 3 < < { { ] < 2 ) < ] { ! ! { ! { ] ] < < ",
"2 ~ > 2 ] ! ^ ! < < < < < < < < < < < < < < < < < < < < < < < ) : < 3 { < ] < < < < < < < < < < < < < < < < < < 2 2 ~ > < { 3 ! < < < < < < < < < < < < < < < < < < < < < < < < ~ ~ % { < < < < < < < < < < < < < < < < < < < < < 2 ~ ~ < < ! ! < < < < < < < < < < < < < < < < < < < < < < < < 2 : ! ^ < < < ] < < < < < < < < < < < < < < < < < ) 2 ~ 2 < ! ^ < < < < < < < < < < < < < < < < < < < < < < < < < : < % { < < < < < < < < < < < < < < < < < < < < ",
"< 2 ~ 2 < { ! ] < < < < < < < < < < < < < < < < < < < < < < < ) : < 3 { < ] < < < < < < < < < < < < < < < < < < < ) ~ ~ < ] ^ ] < < < < < < < < < < < < < < < < < < < < < < < < ~ ~ % { < < < < < < < < < < < < < < < < < < < < < ~ ~ ~ < ] ! ^ < < < < < < < < < < < < < < < < < < < < < < < < 2 : ! ^ < < < ] < < < < < < < < < < < < < < < < ) 2 ~ ~ 2 < ! ^ < < < < < < < < < < < < < < < < < < < < < < < < < : < % { ) < < < < < < < < < < < < < < < < < < < ",
"< < ~ 2 < ] { < < < < < < < < < < < < < < < < < < < < < < < < ) : < 3 { < ] < < < < < < < < < < < < < < < < < < < < 2 ~ < ] ! < < < < < < < < < < < < < < < < < < < < < < < < < ~ ~ % { < < < < < < < < < < < < < < < < < < < < < 2 2 ~ < < ! ! < < < < < < < < < < < < < < < < < < < < < < < < 2 : ! ^ < < < < < < < < < < < < < < < < < < < < < ) 2 ~ 2 < { ! < < < < < < < < < < < < < < < < < < < < < < < < < : < % { ) < < < < < < < < < < < < < < < < < < < ",
"< < ~ 2 < ] ! < < < < < < < < < < < < < < < < < < < < < < < < ) : < ^ { < ] < < < < < < < < < < < < < < < < < < < < ~ ~ < ] ! < < < < < < < < < < < < < < < < < < < < < < < < < ~ ~ % { < < < < < < < < < < < < < < < < < < < < ! < ) ~ < < ] ] < < < < < < < < < < < < < < < < < < < < < < < < 2 : ! ^ < < < < < < < < < < < < < < < < < < < < ] < ) 2 2 ) < ] < < < < < < < < < < < < < < < < < < < < < < < < ) : < % { ) < < < < < < < < < < < < < < < < < < < ",
"< 2 ~ 2 < ] ! ] < < < < < < < < < < < < < < < < < < < < < < < ) : < ^ { < ] < < < < < < < < < < < < < < < < < < < ) ~ > < ] ^ ] < < < < < < < < < < < < < < < < < < < < < < < < > ~ % ] < < < < < < < < < < < < < < < < < < < < ] < 2 ~ < < { { < < < < < < < < < < < < < < < < < < < < < < < < 2 : ! ^ < < < < < < < < < < < < < < < < < < < < < < 2 ~ 2 < ] ! < < < < < < < < < < < < < < < < < < < < < < < < ) : < 3 { ) < < < < < < < < < < < < < < < < < < < ",
") 2 ~ 2 < ] ! ] < < < < < < < < < < < < < < < < < < < < < < < ) : < ^ { < ] < < < < < < < < < < < < < < < < < < ) 2 ~ > < ] ^ ] < < < < < < < < < < < < < < < < < < < < < < < < > ~ % ] < < < < < < < < < < < < < < < < < < < < < ~ ~ ~ < < ! ! < < < < < < < < < < < < < < < < < < < < < < < < 2 : ! ^ < < < < < < < < < < < < < < < < < < < < 2 2 ~ ~ 2 < ! ^ < < < < < < < < < < < < < < < < < < < < < < < < ) : < 3 ] 2 < < < < < < < < < < < < < < < < < < < ",
"< < ~ 2 < < { < < < < < < < < < < < < < < < < < < < < < < < < ) : < ^ { < ] < < < < < < < < < < < < < < < < < < < < ~ > < < ! < < < < < < < < < < < < < < < < < < < < < < < < < > ~ % ] < < < < < < < < < < < < < < < < < < < < < 2 ~ ~ < < ! ! < < < < < < < < < < < < < < < < < < < < < < < < 2 : ! ^ < < ) < < < < < < < < < < < < < < < < < < ) 2 ~ 2 < ] ! < < < < < < < < < < < < < < < < < < < < < < < < ) : < 3 ] 2 < < < < < < < < < < < < < < < < < < ] ",
"] < ~ 2 < < < 2 < < < < < < < < < < < < < < < < < < < < < < < ) : < ^ ] < ] < < < < < < < < < < < < < < < < < < ] < 2 ~ < < ] 2 < < < < < < < < < < < < < < < < < < < < < < < < > ~ 3 ] < < < < < < < < < < < < < < < < < < < < ! < < ~ ) 2 < < < < < < < < < < < < < < < < < < < < < < < < < < 2 : ! ^ < < ) < < < < < < < < < < < < < < < < < ! ] < 2 ~ 2 ) < < < < < < < < < < < < < < < < < < < < < < < < < ) / < 3 ] 2 < < < < < < < < < < < < < < < < < < ] ",
"~ > > ~ < < < < < < < < < < < < ] < < ] < ] ] 2 ~ ~ ~ 2 ) ) 2 2 / < ^ ! < 2 2 2 < < < < < < 2 2 ] < < ] ] ] ] ! ~ > / / ] ] < < < < < ] < < < ] { { < < ! ! < ~ ~ 2 ) < < < 2 ~ / > ! ! < ] < ~ < < < < 2 2 ) < ) < < < { ] < ] 2 ~ [ / < ] < ] ] < < < < < ] ) ! ! ] < < < < < ~ ) < 2 ~ ~ ) < / , { ^ ] ! 2 : > ) < < ) < ] ] ) < ] ] < < ] ! ] ) : / 2 ! ! ) < < < ! ] < < < ! { ] < < < < < ~ 2 2 ~ ~ ~ 2 < ~ ' ~ ! ] 2 ) ) 2 < ] ) 2 < ] ] ] < < < < < ] ] ] ",
"/ / : ~ < ] < < < < ] < < < < < < ) < < ~ ~ < < < ) 2 ) < 2 > / ' > ] ! ] < ) 2 ~ ] ] ) ) < < < < ) 2 ) < < < < > : : : ] < < ) < < < < < < < < < < < 2 2 < < 2 < 2 2 ) < < ~ : , : ! ! < < ) < < < < < < < < ) < 2 ~ < ] < 2 < ~ ~ / / ) < < < ] ~ ) ] < < < < < < ) ) < < < < 2 < < ~ ~ 2 2 ~ > / ] { < ! < 2 2 < ] < < ] < 2 < 2 2 < < 2 ) { < > [ / ~ ) < < < < < < < < < < 2 2 2 2 ) < < < < < ) ~ ~ < ) ~ 2 / ~ ! ] < < { 2 < < < < ] < < < 2 2 < < 2 ) ] ) ",
": ~ ~ < ] { < < ] < < < < ) ) ) ] ) < < ~ ~ < < ) 2 ~ < < 2 / ' _ } / 2 < ] < ) 2 < 2 ~ ~ ~ 2 < ~ 2 2 2 2 2 ~ > > ~ 2 2 ] < < < ] ] < < < < < 2 < < < 2 ~ < < < < 2 ~ 2 < ) ~ / ' , : ~ ) < ~ < ) 2 2 2 2 2 2 ~ ) ~ 2 < ) 2 2 ~ ~ ~ ~ ~ < < < ] < ) < < < < < < ) ) < < < < < < ~ ) 2 ~ ~ < ~ [ ' ' / : > 2 ~ 2 2 < < 2 2 2 ~ ~ ) 2 ~ 2 ) 2 2 2 ~ : : ~ ) ) < < < < < < < < < < 2 2 < < < < < < ~ < < 2 2 < ~ / / ' [ > ~ ~ 2 < ~ ) < ) 2 ) 2 ~ 2 ~ 2 2 ) 2 2 2 : ",
"> ~ ) < ) 2 ~ / 2 > : ~ ~ 2 ) ~ < ~ ~ ~ ~ ~ 2 ~ ~ ~ ~ ~ ~ ~ ~ : ~ : : ~ ~ > ~ 2 < ~ : ~ < ~ : 2 2 2 ~ > ~ 2 ~ : / : ) 2 < ~ 2 2 ~ ~ ~ > ~ 2 2 ~ ) ~ ~ ~ ~ ) ) ~ ) ~ ~ ~ ~ ~ ~ > / / > ~ 2 ~ : < < ~ ~ ~ 2 2 ~ : < < 2 > : < < : / ~ ~ 2 2 ~ 2 < / ~ ~ ~ > 2 < ~ 2 ~ < < ~ ~ ~ ~ ~ ~ ~ ~ ~ ~ ~ / : : ~ : ~ 2 ~ ) 2 2 ~ ~ ~ 2 ~ / < < 2 : > < < > ' / ~ 2 ) 2 ~ ~ ~ ~ ~ : ~ 2 2 < 2 < < < < 2 2 ) ~ 2 ) ~ ~ ~ ~ ~ / > : : ~ ~ ~ ~ 2 2 ~ > ~ 2 2 > ~ < 2 : : ) < 2 / ",
": ~ < ) ~ ~ ~ , / ' , / / ~ < 2 > ~ 2 ~ ~ 2 ~ [ / / [ ' ' [ > 2 ~ ~ 2 ~ [ } , ~ : , ' / 2 : [ : ) ~ [ ' / ~ ~ [ / : ) 2 2 : ~ ~ , , , / : ~ 2 < > > ~ 2 ~ 2 2 / / / / , ' [ : ~ ~ 2 ~ ~ : ' , ~ > , } , ~ 2 : , < ~ / ' , 2 ) / / : 2 2 ~ ~ ~ ~ ' / : / / ~ ~ 2 ~ ~ ) < ~ > ~ > / [ [ / / [ / ~ ~ 2 ~ : ~ : , / : / , , : 2 > , 2 2 : ' , ~ 2 : ' / ~ ) ) 2 ~ > / / / / > ~ ~ < ~ 2 < < 2 ~ ~ 2 [ , , / [ , / > ~ 2 ~ : ~ / ' ' 2 : ' } [ ~ > / ~ 2 > , , > 2 ~ , ",
"< ] 3 ^ { ! ^ < 2 ~ < < : > < < < ! % ^ ! ^ ! ) < { ! ! < < { ! ] { ! ! { < < ] ~ 2 ~ > < ! ! 3 ! ^ % ^ ^ ! ! ! ] ] 3 ^ ! ] ! ! < 2 ~ 2 ~ ~ ~ < < ] % % ! ! ^ ] 2 < ! ! ! ] ! ! ! ! ] ! ! ] ] ] < 2 > > 2 ] ^ % ^ ! ^ % ^ ! ! ^ ] ! ^ % ! ! ! ! < < < < ) / / < < < ^ % ! ! 3 ^ 2 2 ] ^ ^ ] ] ! < ! { ] ! ] ) < ] < 2 : ~ < ! ^ ^ ! ! 3 % ^ ! ! ! ] { % % ! ! % < < 2 2 < ~ : ) 2 < ! ^ ! ! ! 3 < ~ ) ! ^ ! < ] < ! ! ! ! { < < ] ] 2 : > < ! ! ! ! ^ 3 3 ^ ! ^ ! ",
"! 3 + & ! % + ^ ! ! 3 ! / / 2 < ! % + % ^ % % ! < ! % & % ^ ! ! ^ ! ! ! ^ ^ ] 2 < ] 2 : < ^ % & { % # # % ! 3 - & % - & % 3 & % ^ ! ! ! 2 / : < ! ! - + ^ % & ^ < ! % & % 3 ! ! ! ! < ! ^ 3 % ] < < < 2 2 < % + ] 3 + # & ! ! - % % & + % % & % % ! ! ! ] / [ < ] ! & + 3 3 & % < ] ^ - - 3 ! ! ! ^ ! ^ 3 ^ ^ ^ ] ! ] 2 > ) 3 + ! ! % # + % ^ 3 # 3 ^ & - 3 % + % ^ ] { ! ~ [ ~ < ! % % % ^ % % < < ! % + % ! { ! ! ! ! % 3 3 % < { { ) ~ < ^ & ^ ! % + + % ^ ^ # ",
"< ] ^ { ~ < ! 2 < 2 < ) , , ~ ~ ) ) < ) 2 < < ~ ~ ) < ] ] < < < ) < < 2 2 < < < < ) ~ ~ { ! < ) { ] ] ] < < { % ! < { ] < < { < < 2 ) < : } [ < ~ ~ < < ~ < { 2 < < < < < < < < < ! ! { 2 ~ < ~ 2 2 2 < ] ] < ) ) ] ] < < < < ! ! < { ! < < ! < ) < < < ~ , , 2 ~ ~ { ! 2 ~ < 2 < ) 2 < < < < < { { < < ) 2 2 2 2 ) < ) < ] ] < 2 < ] ] ] < ] ! ! ] < ] { ] < ] < ) ~ < ] / ' ~ : ~ < ] < ~ 2 < < < < < < < < < ] < 2 2 2 ~ 2 < 2 ) 2 ~ ~ ] ! ! < < < ] ] ] < < { ",
"] ] ] ] ] < < < < ] < < > ' < > < < < ) ) < < < < < < < < < < < ] < < 2 2 2 ) < 2 ) < ~ ! ! < ] < < ] ] ] ] ] ] ] ] ] ] ] ] < < ] ) < < 2 ' : < < < ) 2 2 2 ) < < < < < < < < < ] < < 2 2 2 ) < < < 2 ~ < ! ] { < < < ] ] ] ] ] ] ] ] < < < < < 2 ] ) 2 < [ ' < ) < < < 2 ~ 2 < < < < < < < < < ] < < 2 2 2 ) < < < < 2 2 ! ] < < < ] ] ] ] ] ] ] ] ] ] < < < < 2 < < ) 2 [ ' < ) < < < 2 2 < ] < < < < < < < < ] < < 2 2 2 ) < < ] 2 2 ~ ! ! ) < < ] ] ] ] ] ] ] ",
"] ] ] ] < < < < < ] < < : ' ! < < < < ) ) < < < < < < < < < < < < < ) ) 2 ) < < 2 ) ) ~ ! ! < ] < < ] ] ] ] ] ] ] ] ] ] ] ] < < ] < ) ) ~ ' ~ ! ] < < ) ) < < < < < < < < < < < < < ) ) 2 ) < < < < 2 ~ < ! ] ] < < < ] ] ] ] ] ] ] ] < < < < < < ] 2 ~ ) , [ ^ < < < < ) ) < < < < < < < < < < < < ) ) 2 ) < < < < ) 2 2 ^ ] < < < ] ] ] ] ] ] ] ] ] ] < < < < 2 < < < < / , ] ] ] ] < ) ) < ] < < < < < < < < < < ) ) 2 ) < < < ] 2 2 ~ ^ ! < < < ] ] ] ] ] ] ] ",
"] ] ] ] < < < < < ] < 2 / , ^ 3 < < < ) ) < < < < < < < < < < < < < ) ) < < < < 2 ) ) ~ ^ ! < ] < < < ] ] ] ] ] ] ] ] ] ] < < < ] < ) 2 > , < & ] ] < < < < < ] < < < < < < < < < < ) ) < < < < < < 2 ~ ] ^ ] ] < < < ] ] ] ] ] ] ] ] < < < < < < ] 2 2 ~ , / - { ] < < < < < < < < < < < < < < < < ) ) < < < < < < ) 2 2 ^ { < < < < ] ] ] ] ] ] ] ] ] < < < < 2 < < < ] : , ! ^ ! < < ) < < < < < < < < < < < < < ) ) < < < < < < 2 2 ~ ^ ^ < < < < ] ] ] ] ] ] ",
"] ] ] ] < < < < ) ] < 2 / , ! 3 < < < < ) < < < < < < < < < < < ) ) < < < < ] ] ) ) ) ~ ^ ^ < < < < < ] ] ] ] ] ] ] ] ] < < < < < < < 2 > , < & ] < < < < < < < < < < < < < < < ) ) < < < < ] ] < ) 2 ~ ] ^ ] < < < < < ] ] ] ] ] ] < < < < < < < ] ) ) ~ ' / & { < ) ) < ] < < < < < < < < < < ) ) < < < < ] ] < < 2 2 ) 3 ! < < < < ] ] ] ] ] ] ] ] ] < < < < < < < < ] : , ! ^ { ) 2 ) < < < < < < < < < < < ) ) < < < < ] ] < < 2 2 ~ ^ ^ < < < < ] ] ] ] ] ] ",
"] ] ] < < < < < 2 < < 2 : , < ] ] < < < < < < < < < < < < < < < ) < < < < ] ] ] ) ) 2 ~ % ^ < < < < < < ] ] ] ] ] ] ] < < < < < ) < < ) ~ , 2 ! < < < ) ) ) < < < < < < < < < < ) < < < < ] ] ] < ) 2 ~ { 3 ] < < < < < ] ] ] ] ] ] < < < < < < < < < < 2 ' [ ! ] < 2 2 < < < 2 < < < < < < < < ) < < < < ] ] ] < < 2 ~ < % ! < < < < < ] ] ] ] ] ] ] < < < < < < ] < ) < : ' < { < 2 2 ) < < < < < < < < < < < ) < < < < ] ] ] < < 2 2 ~ ^ ^ < < < < < ] ] ] ] ] ",
"] ] < < < < < < 2 < < ) ~ / 2 2 ] < < < < < < < < < < < < < < < < < < ] ] ] ] < ) 2 2 2 % 3 < ) < < < < ] ] ] ] ] < < < < < < < ) < < < 2 [ ~ < < < ) ) 2 ) < < < < < < < < < < < < < ] ] ] ] < < ) 2 ~ ! % ] < < < < < ] ] ] ] ] < < < < < < < < < < < ) / / < ] < ) 2 ) < < ) < < < < < < < < < < < ] ] ] ] < < ) ~ ~ < & ! < < < < < ] ] ] ] ] ] ] < < < < < ] ] < ) ) : , 2 < ) 2 2 < < < < < < < < < < < < < < < ] ] ] ] < < < 2 2 ~ ^ 3 ] < < < < ] ] ] ] ] ",
"] ] < < < < < < < < < 2 2 > ) 2 ] < < < < < < < < < < < < < < < < < ] ] ] ] < < < 2 2 2 % % < 2 < < < < < ] ] ] < < < < < < < < < < < ) ) : 2 ) ] < < < < < < < < < < < < < < < < < ] ] ] ] < < < ) 2 2 ! % ] ) < < < < < ] ] ] < < < < < < < < < < < < < ~ > 2 < < < < ) ) < < < < < < < < < < < < ] ] ] ] < < < ) ~ ~ < & ! < < < < < < ] ] ] ] ] ] < < < < < < < ] ) 2 ~ : 2 < < ] ] < < < < < < < < < < < < < < ] ] ] ] < < < < 2 2 2 3 % ] < < < < < ] ] ] ] ",
"] < < < < < < < ] ] < 2 < 2 < < ] < < < < < < < < < < < < < < < < ] ] { ] ] < < < 2 2 2 & % < 2 < < < < < ] ] ] < < < < < < < < ] < < 2 < ~ < < ] ] < < < < ] ] < < < < < < < < < ] ] { ] ] < < < ) 2 2 ! % ] ) < < < < < ] ] ] < < < < < < < < < < < 2 < < 2 < < ] { ] < ) < { < < < < < < < < < ] ] { ] ] < < < ) ~ ~ < & ^ < < < < < < ] ] ] ] ] ] < < < < < < < ] < 2 < 2 2 < ] ! ! ] ) 2 ) < < < < < < < < < ] ] { ] ] < < ) < 2 2 2 3 % ] < < < < < ] ] ] ] ",
"] ] < < ) < < < ] ] < < ~ 2 ^ % ] ] ] < < < < < < < < ) ) < < ] ] < < < < < < ] 2 < > : % ^ < < 4 < ] ] ] ] < < < < < < < < < < ] ] ] < ~ ~ { - { ] ] ] < < < < 2 ) ) ) < < < < < < < < ] ] { { < 2 ~ > { % ] ) < < < < < < < < ] < < < < < < < < { ] < 2 ~ ] & 3 ! ] < ] ] ] < < < < < < < < < < < ] ] ] { { ! < < ) > < % ^ ) < < < < < < < < ] ] < 4 4 < < < < ] { < < 2 2 ^ ^ ! ] ] ] ] ] ] < < < < < < < < 2 < < { ! ! ! ! ] < ) ~ ~ ^ % < < < < < < < < < < ",
"] < < ) ) ) < < < < < 2 > ~ ! ! < ) ) ) ) ) ) ) < < < < < < < ] ] ] ] ] ] ] ] ] ) < ~ : % ^ < < < < < < ] < < < < < < 4 4 4 < < < < < ) ~ > < % < < < < ) ) 2 2 < < < < < < ] ] ] ] < < < < < < < 2 ~ ~ { % ] ) < < < < < < < < < < < ) ) < < < < < < ) ~ ~ ) 3 ! < ) 2 < < < 2 < < < < < < < ] ] ] < < < < < < < < ) > < % ! ) < < < < < < < < ] < < 2 2 4 < < < ] { < < 2 2 ! ! < 2 2 < ] < 2 < < < < < < < ] < < < ] < < < < ] < ) ~ ~ ! % < < < < < < < < < ] ",
"{ ] ] < < < ] ] ] ] < < ~ ~ { ! < < < < < < < < < < ) ) ) < < < < < < < < < < < 2 ) > : ^ ! ) ) 4 2 2 2 2 2 4 < 1 ] ] < < < ] ] ] ] ] < ~ ~ < ^ < < < < < < < < < < < ) < < ] ] ] ] ] ] < < < < < 2 ~ > ] ^ < 2 2 2 ) ) ) ) ) ) { ] ] < < < < ] < { ] < 2 ~ 2 ! ] < ) ) < < < < < < ) 2 2 < < < ! ] ] < < < < ] ) 2 2 : 2 ! ] 2 4 4 4 < < < < < ] ] ] < < < ] ] < < ] < 2 ~ > < ] < 2 2 < ] < ) < < ) 2 2 < < < { { ] < < < < < < 2 2 > : ] ^ 2 ) ) ) ) ) ) ) ) < ",
"] ] ] ] ] ] ] ] { { ] < ~ ~ ] ] < < < < < < < < ] ] ] ] ] ] ] ] ) ) < < < < ) ) ] ] 2 ~ 3 ^ ] < ] < < 4 < < ] ] ! ] ] < < < ] ] { ] ] < 2 ~ ) ! < < < < < < < < { ] ] < < ] ! ! ) ) < < ] ] < < ] < ) 2 ! 3 ] < < < < < < < < < ] ] ] < < < < < ] ! ] < < ~ ~ { < < ) < < < < < { ] < < < ] { ! < < ) ) < < ] ! < < < ~ < ^ ! < ] ] ] ] ] ] ] ] ] ] ] ] ] ] ] ] { { ! ] < 2 ~ ] ) < < < < < < < { ] < < < ] { ! ] < < < < < ] ] ] < < 2 ~ { ^ < < < < < < < < < ] ",
"< < < < < < < ) < ] ] < ~ > < < < < < < < < < < < < < < < < < < 2 ) < < < < ) 2 < < 2 ~ ! { < < < < 2 2 2 4 < < ] < < 4 2 4 < < ] ] < < 2 > ~ < ) ) ) < < < < < < < < ) ) < < ] ~ ~ 2 ) < < ) 2 < < 2 ~ ] ! < ) ) < < < < < < < < < < < < < < < < ] < < < ~ ~ < 2 ) ) ) ) ) ) ) < < < < < < ] ] 2 2 2 2 2 ) < < < ) ) ~ 2 { ] ) < < < < < < < < < < < < < < 4 4 ] ] ] < < 2 > < ~ 2 < < 2 2 ) < < < < < < < ] ] < ) 2 2 2 2 < < < < ) ~ ~ ] { < ) < < < < < < < < ",
"< ] ] ] ] < < < < ] ] ] 2 ~ < < ] ] ] < < < < < ) ) < < < < < < 2 ) < < < < ) 2 < < ~ > ] < ) ) 4 2 2 2 2 2 4 < ] ] ] ] < < < < ] ] ] ] < ~ 2 < < < < < < < < < 2 2 2 ) ) ) ) ) ) < < < < < 2 ~ < < 2 ~ < { ) 2 ) ) ) ) ) ) ) < < < < ] < < < < < ] ] ] < ~ ~ < < < ] ] < < < < ) ) < < < < < < < < < < < < ) ) < 2 2 ~ 2 ] < ) 4 4 4 4 < < < < < ] ] ] ] < < < < < < < < ) > 2 < < < < < < < < ) ) < < < < < < ] < < < ) ) ) ) ) < ) ~ ~ < < ) 2 ) ) ) ) ) ) ) < ",
"< < < < < < ) 2 2 ) < < ~ > 2 2 ] < < < 2 2 ~ ~ 2 2 < < < < ) 2 ~ ~ 2 < < 2 ~ ~ < ) ~ > < ) ) ) 2 2 2 4 4 4 2 2 2 < < ] ] < 2 2 ) 2 ) < 2 ~ ~ 2 < < ) ) 2 2 2 2 ~ 2 ) < < < ) 2 2 ) < < < ) ~ ~ ) ) 2 ~ ) ] 2 2 ) ) ) ) ) < < < < < < < < < ) 2 2 < < < < ~ : ~ 2 < ] ] ) 2 2 2 ~ 2 < < < < ) 2 2 ) < < < ) 2 ~ < 2 ) ~ 2 < ) ) 2 2 2 2 2 2 4 4 4 < < < < < 2 2 < ) < < ] < ~ ) ) < < < < 2 2 2 ~ 2 < < < < ) 2 ) ) < < < ) 2 2 ) < < 2 2 ) < ) ) ) ) ) ) ) ) ) < ",
": : > ~ ~ : : / , / : : , ' / [ ~ > : / / , , ' ' , [ / / [ , , / : > ~ ~ > : / / , ' _ [ , , , ' , , / / 5 , , / : ~ ~ ~ : / 5 / [ / : / , , [ : : / / / [ , , ' , / : : / [ , [ / : ~ ~ > : / , , , } , / ' ' , , [ [ [ [ [ [ : : ~ ~ ~ : / / [ / / / : , ' , / > ~ ~ / [ [ / ' ' [ / / / , ' , / : ~ ~ ~ : / / , [ ' , / , [ , , , , , , , , : : 6 ~ 6 : : / / , [ / : / ' [ / : ~ ~ / , , / ' ' [ / / / , ' , [ / > ~ ~ ~ ~ , / [ , , , , [ , , , , , [ [ [ / ",
"2 < < 2 : 2 ) : ~ ~ ~ ~ ~ ~ ~ ~ > ~ 2 : } : > ~ / > 2 < < < 2 ~ < ~ 2 < < ~ : ~ / : > ~ 2 2 2 2 < ' } ~ ~ ~ > ) ] 2 < < ~ ~ ) > ~ ~ ~ ~ ~ ~ ~ > 2 ) ~ > ' / ~ ~ : ~ 2 < < < ~ ~ < ) 2 ) ) 2 ~ : / : > ~ 2 2 2 2 < : _ : ~ / / < < < < < 2 ~ ~ 2 ~ ~ ~ ~ ~ ~ ~ > ~ ~ 2 ~ [ , ~ 2 / : 2 < < < 2 ~ < 2 ~ ~ ) < 2 > : > > > ~ ~ ~ ~ 2 < ' , : : , ~ < < < < 2 ~ ~ 2 ~ ~ ~ ~ ~ ~ ~ ~ ~ ~ ~ ~ : ' / / : ~ 2 ) < ) 2 ~ < ~ > ~ < < ) ~ : > > > ~ ~ ~ ~ : 2 / ' ~ ~ / > ) ",
"- + + & % - + 3 ^ ^ ^ ^ ^ ! ! ! , [ / / , < ! ! 3 % - + # + + - - % % + - 3 ^ % % % & + + + + + # ) / < ] ] ! # # & + + % & + % ! ^ ^ ^ ^ ^ ! ! : : / / ' ~ < ] ^ % & + # # + + & & % & & & 3 ^ % % & + + + + + + ^ : ~ ) < ! + + + + + & & & & ! ^ ^ ^ ^ ^ ! ! ~ ~ : / , [ 2 < ^ % & + + + - & + % 3 % & - % ^ % % % & - + + # + - ~ : ) < ] - + + + + & & & & ^ ^ ^ ^ ^ ! ! ! ] ~ : / / , 2 2 ^ 3 % & + + + + + & % % & & % ^ % % % & - + + # + + ] [ ) < ] 3 + ",
"! ^ 3 ! { ^ ^ ] ] ] ] ] ] ] ] < ~ : : [ , < ] < ] ] { ! ! ! ! ! 3 ! ! 3 3 { ] ! ] { ! ! ^ ^ ^ ^ % > ' 2 2 ) ] % % ! ^ ^ { ! ! ] < ] ] ] ] ] < < 2 ~ / [ ' ~ < < < < ] ! ! ^ ^ ^ ^ ^ ! ! ^ ^ ! ] ] { ! ! ^ ^ ^ ^ 3 ] , / ~ ~ < 3 ^ ^ 3 ^ ! { ! ! < ] ] ] ] ] < < ) ~ / , ' / < ] ] ] { ! ^ ^ ! ! 3 ! { ! ^ ^ ! ] ] ] { ! ! ^ ^ 3 ^ ! / , ~ 2 2 ^ ^ ^ 3 ^ ! { ! ! ] ] ] ] ] ] ] ] { ~ / , [ [ < ] < ] ] ! ! ^ ^ ^ % ^ ! ! ^ ^ ! ] ] ] { ! ! ^ ^ 3 & % ~ } > ~ 2 ] ! ",
"2 < < 2 ~ ) ) ~ < < < ) ) ) 2 2 2 ~ : , ' ~ 2 2 ~ ~ 2 2 2 2 ) ) < ) ) < < 2 2 < 2 2 ) < < < < < 2 / , ~ 2 < ) 2 < 2 ) ) ~ ~ 2 ~ 2 ) < < < ) 2 2 ) ~ : / ' ~ < < 2 2 2 2 2 2 2 2 < < ) ) < < 2 2 2 2 ) < < < < < 2 2 ' : 2 ~ 2 2 2 ) < ) 2 ~ ~ 2 2 ) < < < ) 2 2 ) ~ : / ' / < ] ~ ~ ~ ~ 2 2 2 ) < < 2 2 < < ) 2 ) ) ) ) ) ) ) ) 2 ) , [ < 2 > ) 2 ) < ) 2 ~ ~ 2 ) ) ) ) ) ) ) 2 ) > : / / , 2 ) 2 2 ~ ~ ~ ~ 2 2 < ) 2 ) < < < ) ) ) ) ) ) ) ) ) < < / _ ~ 2 ~ ) 2 ",
"< ] ] < < ] ] < ] ] ] ] ] ] < < ~ ~ ~ / ' 2 < < < < < < < < ] ] ] < < < < < < < < < ] ] ] ] ] ] < ~ / ] ] { ] ) ] < ] ] < < < < < ] ] ] ] ] < < < < ~ : ' : ) < ] ] < < < < < < ] < ) < < < < ) < < ] ] ] ] ] ] < < , 2 ] < ] < < ] ] ] < < < ] < ] ] ] ] ] < < 2 ) 2 ~ [ [ ) < < < < < < < ] ] ] < < < < < < ) ] ] ] ] < < < < < < / : ! ] 2 < < ] ] ] < < < ] ] ] ] ] ] ] ] ] ~ ~ 2 2 : ' ~ 2 ] < < < < < < < < < < < < ] < < ] ] ] ] < < < < < < : , ] { ] { < ",
"< ] < < < < < < < < < < < < < < < < < ~ / < < < < < ) ) ) < < < < < < < < < < < 2 2 ) < < ) ) 2 < : , ! ! < < < < < < < < < < < < < < ] < < < < < < < 2 [ ~ < ] 2 2 2 ) < < < < < < 2 2 < < < < 2 2 ) < < ) ) 2 < ) ' ) ! < < < ) < < < < ) < < < < < ] < < < < 2 < < < : / ) < < < < < < < < < < < < < < < ) ) 2 2 2 2 ) < < < ) ) / : ^ ] ) < ) < < < < ) < < < < < < < < < < < < ] < ~ , ) ] 2 ) < < < < < < ] ] < < < ) ) 2 2 2 2 2 ) < < < < < : , ] ! < < ) ",
"2 < ) 2 < < 2 < < < < < < < < < < < < 2 ~ ! { < < < < < < < < < ] < < < < < ] ] < < < < < < < ) < / , ^ 3 < < < < < < < < < < < < < < < < < < ) ~ 2 2 ) > < ! ! < < < < ] ] ] ] ] < ) ) < < ] < < < < < < < < ) < 2 ' < ^ < < < 2 < < < ) ) < < < < < < < < < ) ) < < < ~ ~ ] ] ) < < < < < < < < < < < < < < < ) ) < < < < < ] 2 2 / : % ! < < 2 < < < ) ) < < < < < < < < < < < < ] ] 2 : ] ! 2 2 < < ] < < < ] ] ] < < ) ) ) ) ) < < < < < ] < < > / ! ! < 2 < ",
"< ] < < ] < < ] < < < < < ) ) ) < ) 2 2 2 ^ ] ~ < ] ] ] ] ] < < < < < ) ) < ] ] < ] ] ] ] ] < < < > , ! ! < < < < ] ] ] ] ] ] ] ) ) < < < < ) 2 < < < < ~ ] ] < ] ] { { ] < < ) < ) 2 2 ) < < < < ] ] ] ] ] < < < 2 _ < ^ < ] < < < ] ] < < ] { ) ) < < < < ) 2 < < ) < 2 2 ! ! < < ] ] ] ] < < < < < < ) ) ) < { ] ] ] < < < < 2 2 / : % ! < < < < ] ] < < ] { < < < < ) ) ) ) ~ ~ < ] < ~ ] ! < ] ! ! ! ] < 2 ) < < < < < < < { ] ] ] < < < < ) < : [ ! ^ < < < ",
"< < < < < < < < ] ] ] ] < < 2 2 ! < 2 ) ~ ! ^ < ] ] ] ] ] ] < < < < < < < < < < ] ] ] ] ] ] < < < : ' ! ^ < < 2 < < < < < < < < ] ] ] ] < < 2 2 < ] { < ~ < 3 < ] ] ] ] ] ] < < < < < < < < < < ] ] ] ] ] ] < < ] ~ , ] % ] ] 2 < < < < < < < < < ] ] ] < < ) 2 ~ < < < < 2 ! < ] ] ] ] ] ] ] ] < < < < < < < < ] ] ] ] ] ] ] ] ] < , / 3 3 < 2 < < < < < < < < < ] ] ] ] < < ) ~ < ] < < ~ ! ^ ] ] ] ] ] < < < < < < < < < < < ] ] ] ] ] ] ] ] ! ] / ' ! 3 ] < 2 ",
"< < < < < < < < ] ] ] ] < < ) 2 ! < 2 2 > ! 3 ] ] ] ] ] ] ] < < < < < < < < < < ] ] ] ] ] ] < < ) / ' ] { ) < 2 < < < < < < < < ] ] ] ] < < ) 2 < ] ] ) > ] % < ] ] ] ] ] ] < < < < < < < < < < ] ] ] ] ] ] < < < > , ) ! < < 2 < < < < < < < < < ] ] ] < < ) 2 < ] < 2 2 ~ ^ ] ] ] ] ] ] ] ] ] < < < < < < < < ] ] ] ] ] ] ] ] < < , / { ! < 2 < < < < < < < < < ] ] ] ] < < ) 2 < ] < ) ~ ] ! ] ] ] ] ] < < < < < < < < < < < ] ] ] ] ] ] ] ] ] < / ' ] ! < 2 2 ",
"< < < < < < < < < ] ] ] ] < ) 2 ] < 2 2 ~ ! 3 < ] ] ] ] ] < < < < < < < < < < < ] ] ] ] ] < < < < > , < < < < 2 < < < < < < < < < ] ] ] ] < ) 2 ) < < ) ~ ] % < ] ] ] ] ] < < < < < < < < < < < ] ] ] ] ] < < < < ~ [ ~ ] < ] 2 < < < < < < < < < < ] ] ] < < ) ] { < 2 2 ~ 3 ! ] ] ] ] ] ] < < < < < < < < < < ] ] ] ] ] ] < < < ) / : < < < < < < < < < < < < < < ] ] ] < < < 2 < ] ) 2 ~ { ^ ] ] ] ] < < < < < < < < < < < < ] ] ] ] ] ] < < < ) > [ ) < < ) ) ",
"< < < < < < < < < ] ] ] ] < < ) ] < ) < ~ ^ ^ ~ ] ] ] ] < < < < < < < < < < < < ] ] ] ] < < < < ] 2 : < < < ] < < < < < < < < < < ] ] ] ] < < ) 2 < < < 2 { % 2 ] ] ] ] < < < < < < < < < < < < ] ] ] ] < < < < ] < : ~ < ] { < < < < < < < < < < < ] ] ] < < < 2 < < < < ) % ! ] ] ] ] < < < < < < < < < < < < ] ] ] ] < < < < ] < ~ ~ 2 < { ] < < < < < < < < < < ] ] ] < < < 2 < < 2 2 ~ ! % ] ] ] < < < < < < < < < < < < < ] ] ] ] < < < < ] < ) > 2 < { < < ",
"< < < < < < < < < < ] ] ] ] < < ! ] 2 ~ : ^ ^ ~ ] ] ] < < < < < < < < < < < < < ] ] ] < < < < < ] 2 > ) 2 < ] < < < < < < < < < < < ] ] ] ] < < ] < ) ~ > ] % ) ] ] ] < < < < < < < < < < < < < ] ] ] < < < < < { < ~ ~ ) ] { < < < < < < < < < < < ] ] ] ] < < < ] < ) ) 2 % ! ] < < < < < < < < < < < < < < < ] < < < < < < < ] < 2 2 ~ 2 ] { < < < < < < < < < < ] ] ] ] < < < < < ~ ~ > ! % ] ] < < < < < < < < < < < < < < ] < < < < < < < ] < < ~ ~ 2 { ] ] ",
"< < < < < < < < < < ] ] ] ] < < ! < ~ / / ^ % < ] < < < < < < < < < < < < < < < ] < < < < < < < < ~ > ) ~ < < < < < < < < < < < < < ] ] ] ] < < ! < ~ / / ] & ] ] < < < < < < < < < < < < < < < ] < < < < < < < ] 2 > > 2 < < 2 < < < < < < < < < < ] ] ] ] ] < ! ! 2 > > ~ % ^ < < < < < < < < < < < < < < < < < < < < < < < < < < ~ ~ ~ ~ < < < < < < < < < < < < < ] ] ] ] < ] { < ~ > : ] ^ < < < < < < < < < < < < < < < < < < < < < < < < < ) < > ~ ~ < < < ",
"< < < < < < < < < < ] ] ] ] ] ] < 2 : / : % + < < < < < < < < < < < < < < < < < < < < < < < < < < ~ ~ < 2 ) 2 < < < < < < < < < < < ] ] ] ] ] ] < 2 > / : ! + ! < < < < < < < < < < < < < < < < < < < < < < < < ] 2 ~ ~ 2 < ) 2 < < < < < < < < < < ] ] ] ] ] ] < < ~ : : ~ & % < < < < < < < < < < < < < < < < < < < < < < < < ) < ~ 2 2 ~ ) ) < < < < < < < < < < < ] ] ] ] ] < < < > > : ! & < < < < < < < < < < < < < < < < < < < < < < < < < < ) : ~ ~ < < ) ",
"< < < < < < < < < < ] ] { ] ] ] / : : > 2 + + < < < < < < < < < < < < < < < < < < < < < < < < < ] ~ 2 ] < < ) < < < < < < < < < < < ] ] { ] ] ] : : : ~ 2 3 + ] < < < < < < < < < < < < < < < < < < < < < < < < ] 2 2 2 < < ) < < < < < < < < < < < ] ] { ] ] ] : > : : ~ ) + & < < < < < < < < < < < < < < < < < < < < < < < < < ] 2 ) < ) < ) < < < < < < < < < < < ] ] ] ] ] ~ ~ ~ : ~ ~ % # < < < < < < < < < < < < < < < < < < < < < < < < ] ] < > 2 ) < < < ",
"~ ~ ~ ~ 2 2 < < ) < < < < ) 2 2 / > / : > ! ! 2 2 2 4 4 2 2 ~ ~ ~ 2 2 2 2 ~ ~ < 2 2 4 4 2 2 ~ ~ ~ > : 2 ) ~ 2 < ~ ~ ~ ~ ~ 2 ) < < < < < < < ) 2 ~ ~ / / > < ^ < 2 2 4 4 2 2 2 ~ ~ ~ ~ 2 4 2 ~ < 2 2 4 4 2 2 2 ~ ~ 6 : ~ 4 ~ : 4 ) ~ ~ ~ ~ ~ 2 < ) < < < < < ) 2 ~ b > > ~ ~ ! 1 2 4 4 < ) 2 2 2 ~ ~ ~ 2 < 2 ~ 2 4 2 2 2 < 4 2 ~ ~ ~ : ~ ) 2 ~ 2 < ~ ~ ~ ~ ~ 2 < ) < < < < < ) 2 ~ / > : > > ] ! 4 4 2 2 2 2 2 2 ~ ~ ~ ~ 4 < ~ ~ < ) ) ) < < 2 ~ ~ > ~ : 2 ) > 2 ) "};
